/* XPM */
static char *_9b61be649ee473db740919c409e869a78E7DIDSBOQSiDSf[] = {
/* columns rows colors chars-per-pixel */
"850 478 256 2 ",
"   c #040108",
".  c #06041A",
"X  c #160619",
"o  c #15080E",
"O  c #270317",
"+  c #2F0611",
"@  c #030124",
"#  c #0D0C2C",
"$  c #090826",
"%  c #150C28",
"&  c #0A1429",
"*  c #16132C",
"=  c #18142D",
"-  c #181628",
";  c #0C0636",
":  c #150D35",
">  c #151332",
",  c #1A1532",
"<  c #1C1934",
"1  c #1E1A3B",
"2  c #181738",
"3  c #0A1534",
"4  c #25152B",
"5  c #221C3D",
"6  c #241935",
"7  c #300F2B",
"8  c #29223A",
"9  c #1C2236",
"0  c #521430",
"q  c #681A37",
"w  c #711A33",
"e  c #542739",
"r  c #68273B",
"t  c #76263B",
"y  c #712C30",
"u  c #550F19",
"i  c #181344",
"p  c #231C42",
"a  c #321954",
"s  c #272348",
"d  c #2B2857",
"f  c #332B59",
"g  c #34296A",
"h  c #2E1D5D",
"j  c #6D1C45",
"k  c #56294A",
"l  c #6A2A44",
"z  c #742C45",
"x  c #762E49",
"c  c #7A2D4A",
"v  c #792944",
"b  c #6B3348",
"n  c #74324B",
"m  c #7B324C",
"M  c #763346",
"N  c #793654",
"B  c #702F54",
"V  c #4F2E70",
"C  c #712F76",
"Z  c #521A5A",
"A  c #614768",
"S  c #58473F",
"D  c #862A3A",
"F  c #A22237",
"G  c #862A47",
"H  c #86344B",
"J  c #863655",
"K  c #993655",
"L  c #942D4C",
"P  c #BA3649",
"I  c #A73858",
"U  c #B83859",
"Y  c #B12C4D",
"T  c #8D3674",
"R  c #B53C65",
"E  c #9A1B47",
"W  c #CC3C5D",
"Q  c #C63758",
"!  c #D43A5C",
"~  c #CA2F4F",
"^  c #CD3D63",
"/  c #C93866",
"(  c #D33D64",
")  c #DA3D65",
"_  c #D43E6A",
"`  c #D83A69",
"'  c #D1356D",
"]  c #E43C6A",
"[  c #E12E51",
"{  c #934951",
"}  c #B04C55",
"|  c #B94567",
" . c #AF4D6F",
".. c #A46166",
"X. c #CA4559",
"o. c #D4455C",
"O. c #CD5053",
"+. c #D66959",
"@. c #CD4364",
"#. c #CD446A",
"$. c #C74869",
"%. c #D34166",
"&. c #DA4265",
"*. c #D4436A",
"=. c #DA436B",
"-. c #D74A6A",
";. c #D95766",
":. c #C94A74",
">. c #D94873",
",. c #D75477",
"<. c #C95474",
"1. c #E4456B",
"2. c #E64874",
"3. c #EC5376",
"4. c #D46D6B",
"5. c #E56969",
"6. c #EC7471",
"7. c #E76459",
"8. c #BA353A",
"9. c #ED8E5B",
"0. c #D78D6E",
"q. c #F68B67",
"w. c #EA9667",
"e. c #F4956B",
"r. c #F8986A",
"t. c #F98877",
"y. c #FC9B73",
"u. c #FA9877",
"i. c #EA8D6D",
"p. c #FBA56A",
"a. c #FCA678",
"s. c #F0B077",
"d. c #DF955E",
"f. c #F5C979",
"g. c #ECDF5D",
"h. c #B8A058",
"j. c #3531A1",
"k. c #51378F",
"l. c #6A368A",
"z. c #743B8D",
"x. c #78388A",
"c. c #6A3A96",
"v. c #753C92",
"b. c #7A3C93",
"n. c #763B99",
"m. c #6B2C88",
"M. c #493CAC",
"N. c #7039A1",
"B. c #3946B8",
"V. c #3D4086",
"C. c #574A93",
"Z. c #784297",
"A. c #704693",
"S. c #4A46AC",
"D. c #5748A8",
"F. c #4546B1",
"G. c #4D46B3",
"H. c #4F49B5",
"J. c #4D4ABA",
"K. c #4947BA",
"L. c #5149B5",
"P. c #524BBA",
"I. c #594CBA",
"U. c #5447B6",
"Y. c #5852B8",
"T. c #5452AC",
"R. c #6F4FAF",
"E. c #7668B4",
"W. c #3449C6",
"Q. c #524EC4",
"!. c #6B59C8",
"~. c #755DCD",
"^. c #7A5DCD",
"/. c #745AC6",
"(. c #6C5CD4",
"). c #765ED0",
"_. c #795DD1",
"`. c #765CD9",
"'. c #674EC5",
"]. c #7863CB",
"[. c #6B64DD",
"{. c #6C62D5",
"}. c #7361D5",
"|. c #7B61D4",
" X c #7963DA",
".X c #7067CD",
"XX c #7665E5",
"oX c #6C5CE3",
"OX c #3334C5",
"+X c #853A8B",
"@X c #A13C8D",
"#X c #8F4892",
"$X c #BE5C8B",
"%X c #BC5789",
"&X c #A95997",
"*X c #B55A95",
"=X c #B85B94",
"-X c #B85A99",
";X c #AC4B8B",
":X c #B76598",
">X c #8F55AE",
",X c #A658A3",
"<X c #B259A7",
"1X c #B465A6",
"2X c #8D6DA6",
"3X c #CA5B94",
"4X c #D05A8C",
"5X c #EC5E8C",
"6X c #E75B88",
"7X c #F35C89",
"8X c #EB5590",
"9X c #D06693",
"0X c #EC618C",
"qX c #E76489",
"wX c #F5628B",
"eX c #E96696",
"rX c #F66795",
"tX c #EF758E",
"yX c #D16BA8",
"uX c #EB6FA5",
"iX c #CB5BA4",
"pX c #8267D8",
"aX c #8671D0",
"sX c #866DE8",
"dX c #855CCA",
"fX c #DF4690",
"gX c #AB909B",
"hX c #D69694",
"jX c #FD9986",
"kX c #F4918A",
"lX c #FEA787",
"zX c #F9B987",
"xX c #F2AF94",
"cX c #EEAEAD",
"vX c #DDA1A1",
"bX c #F7C387",
"nX c #FCC995",
"mX c #FDD799",
"MX c #F5D189",
"NX c #FAD2AC",
"BX c #FDE8A8",
"VX c #FDF4AB",
"CX c #FEEAB5",
"ZX c #FFF7B6",
"AX c #EDEBA7",
"SX c #F5E39A",
"DX c #EDBBC7",
"FX c #B8DCE9",
"GX c #F5C9D4",
"HX c #F5CACF",
"JX c #FEF2C9",
"KX c #C9EDF9",
"LX c #F8F7F6",
"PX c #EAD4E6",
"IX c #9A9CD4",
"UX c #7EFCAA",
/* pixels */
"H.H.H.H.H.H.H.H.H.H.H.H.H.H.H.H.H.H.H.H.H.H.H.H.H.H.H.H.H.H.H.H.H.H.H.H.H.H.H.H.H.H.H.H.H.H.H.H.H.H.H.H.H.H.H.H.H.H.H.H.H.H.H.H.H.H.H.H.H.H.H.H.H.H.H.H.H.H.H.H.H.H.H.H.H.H.H.H.H.H.H.H.H.H.H.H.H.H.H.H.H.H.H.H.H.H.H.H.H.H.H.H.H.H.H.H.H.H.H.H.H.H.H.H.H.H.H.H.H.H.H.H.H.H.H.H.H.H.H.H.H.H.H.H.H.H.H.H.H.H.H.H.H.H.H.H.H.H.H.H.H.H.H.H.H.H.H.H.H.H.H.H.H.H.H.H.H.H.H.H.H.H.H.H.H.H.H.H.H.H.H.H.H.H.H.H.H.H.H.H.H.H.H.H.H.H.H.H.H.H.H.H.H.H.H.H.H.H.H.H.H.H.H.H.H.H.H.H.H.H.H.H.H.H.H.H.H.H.H.H.H.H.H.H.H.H.H.H.H.H.H.H.H.H.H.H.H.H.H.H.H.H.H.H.H.H.H.H.H.H.H.H.H.H.H.H.H.H.H.H.H.H.H.H.H.H.H.H.H.H.H.H.H.H.H.H.H.H.H.H.H.H.H.H.H.H.H.H.H.H.H.H.H.H.H.H.H.H.H.H.H.H.H.H.H.H.H.H.H.H.H.H.H.H.H.H.H.H.H.H.H.H.H.H.H.H.H.H.H.H.H.H.H.H.H.H.H.H.H.H.H.H.H.H.H.H.H.H.H.H.H.H.H.H.H.H.H.H.H.H.H.H.H.H.H.H.H.H.H.H.H.H.H.H.H.H.H.H.H.H.H.H.H.H.H.H.H.H.H.H.H.H.H.H.H.H.H.H.H.H.H.H.H.H.H.H.H.H.H.H.H.H.H.H.H.H.H.H.H.H.H.H.H.H.H.H.H.H.H.H.H.H.H.H.H.H.H.H.H.H.H.H.H.H.H.H.H.H.H.H.H.H.H.H.H.H.H.H.H.H.H.H.H.H.H.H.H.H.H.H.H.H.H.H.H.H.H.H.H.H.H.H.H.H.H.H.H.H.H.H.H.H.H.H.H.H.H.H.H.H.H.H.H.H.H.H.H.H.H.H.H.H.H.H.H.H.H.H.H.H.H.H.H.H.H.H.H.H.H.H.H.H.H.H.H.H.H.H.H.H.P.F.Y.P.F.J.G.I.U.D.S.P.j.R.NXs.zXzXbXbXbXbXzXzXbXf.bXNXk.G.L.S.L.G.Q.F.K.K.P.G.L.H.H.J.J.J.J.J.H.H.H.H.H.H.H.H.H.H.H.H.H.H.H.H.H.H.H.H.H.H.H.H.H.H.H.H.H.H.H.H.H.H.H.H.H.H.H.H.H.H.H.H.H.H.H.H.H.H.H.H.H.H.H.H.H.H.H.H.H.H.H.H.H.H.H.H.H.H.H.H.H.H.H.H.H.H.H.H.H.H.H.H.H.H.H.H.H.H.H.H.H.H.H.H.H.H.H.H.H.H.H.H.H.H.H.H.H.H.H.H.H.H.H.H.H.H.H.H.H.H.H.H.H.H.H.H.H.H.H.H.H.H.H.H.H.H.H.H.H.H.H.H.H.H.H.H.H.H.H.H.H.H.H.H.H.H.H.H.H.H.H.H.H.H.H.H.H.H.H.H.H.H.H.H.H.H.H.H.H.H.H.H.H.H.H.H.H.H.H.H.H.H.H.H.H.H.H.H.H.H.H.H.H.H.H.H.H.H.H.H.H.H.H.H.H.H.H.H.H.H.H.H.H.H.H.H.H.H.H.H.H.H.H.H.H.H.H.H.H.H.",
"H.H.H.H.H.H.H.H.H.H.H.H.H.H.H.H.H.H.H.H.H.H.H.H.H.H.H.H.H.H.H.H.H.H.H.H.H.H.H.H.H.H.H.H.H.H.H.H.H.H.H.H.H.H.H.H.H.H.H.H.H.H.H.H.H.H.H.H.H.H.H.H.H.H.H.H.H.H.H.H.H.H.H.H.H.H.H.H.H.H.H.H.H.H.H.H.H.H.H.H.H.H.H.H.H.H.H.H.H.H.H.H.H.H.H.H.H.H.H.H.H.H.H.H.H.H.H.H.H.H.H.H.H.H.H.H.H.H.H.H.H.H.H.H.H.H.H.H.H.H.H.H.H.H.H.H.H.H.H.H.H.H.H.H.H.H.H.H.H.H.H.H.H.H.H.H.H.H.H.H.H.H.H.H.H.H.H.H.H.H.H.H.H.H.H.H.H.H.H.H.H.H.H.H.H.H.H.H.H.H.H.H.H.H.H.H.H.H.H.H.H.H.H.H.H.H.H.H.H.H.H.H.H.H.H.H.H.H.H.H.H.H.H.H.H.H.H.H.H.H.H.H.H.H.H.H.H.H.H.H.H.H.H.H.H.H.H.H.H.H.H.H.H.H.H.H.H.H.H.H.H.H.H.H.H.H.H.H.H.H.H.H.H.H.H.H.H.H.H.H.H.H.H.H.H.H.H.H.H.H.H.H.H.H.H.H.H.H.H.H.H.H.H.H.H.H.H.H.H.H.H.H.H.H.H.H.H.H.H.H.H.H.H.H.H.H.H.H.H.H.H.H.H.H.H.H.H.H.H.H.H.H.H.H.H.H.H.H.H.H.H.H.H.H.H.H.H.H.H.H.H.H.H.H.H.H.H.H.H.H.H.H.H.H.H.H.H.H.H.H.H.H.H.H.H.H.H.H.H.H.H.H.H.H.H.H.H.H.H.H.H.H.H.H.H.H.H.H.H.H.H.H.H.H.H.H.H.H.H.H.H.H.H.H.H.H.H.H.H.H.H.H.H.H.H.H.H.H.H.H.H.H.H.H.H.H.H.H.H.H.H.H.H.H.H.H.H.H.H.H.H.H.H.H.H.H.H.H.H.H.H.H.H.H.H.H.H.H.H.H.H.H.H.H.H.H.H.H.H.H.H.H.H.H.H.H.H.H.H.H.H.H.H.H.H.H.H.H.H.H.H.H.H.H.H.H.H.H.H.H.H.H.H.H.H.H.H.H.H.H.H.H.H.H.H.H.H.H.H.L.Q.S.S.M.S.Y.F.G.L.P.J.Y.j.E.NXf.f.f.f.f.bXzXzXzXs.s.nXNXV F.Y.J.Y.S.T.S.S.S.P.P.P.J.J.J.H.H.L.L.L.H.H.H.H.H.H.H.H.H.H.H.H.H.H.H.H.H.H.H.H.H.H.H.H.H.H.H.H.H.H.H.H.H.H.H.H.H.H.H.H.H.H.H.H.H.H.H.H.H.H.H.H.H.H.H.H.H.H.H.H.H.H.H.H.H.H.H.H.H.H.H.H.H.H.H.H.H.H.H.H.H.H.H.H.H.H.H.H.H.H.H.H.H.H.H.H.H.H.H.H.H.H.H.H.H.H.H.H.H.H.H.H.H.H.H.H.H.H.H.H.H.H.H.H.H.H.H.H.H.H.H.H.H.H.H.H.H.H.H.H.H.H.H.H.H.H.H.H.H.H.H.H.H.H.H.H.H.H.H.H.H.H.H.H.H.H.H.H.H.H.H.H.H.H.H.H.H.H.H.H.H.H.H.H.H.H.H.H.H.H.H.H.H.H.H.H.H.H.H.H.H.H.H.H.H.H.H.H.H.H.H.H.H.H.H.H.H.H.H.H.H.H.H.H.H.H.H.H.H.H.H.H.H.H.H.H.H.H.H.H.H.",
"H.H.H.H.H.H.H.H.H.H.H.H.H.H.H.H.H.H.H.H.H.H.H.H.H.H.H.H.H.H.H.H.H.H.H.H.H.H.H.H.H.H.H.H.H.H.H.H.H.H.H.H.H.H.H.H.H.H.H.H.H.H.H.H.H.H.H.H.H.H.H.H.H.H.H.H.H.H.H.H.H.H.H.H.H.H.H.H.H.H.H.H.H.H.H.H.H.H.H.H.H.H.H.H.H.H.H.H.H.H.H.H.H.H.H.H.H.H.H.H.H.H.H.H.H.H.H.H.H.H.H.H.H.H.H.H.H.H.H.H.H.H.H.H.H.H.H.H.H.H.H.H.H.H.H.H.H.H.H.H.H.H.H.H.H.H.H.H.H.H.H.H.H.H.H.H.H.H.H.H.H.H.H.H.H.H.H.H.H.H.H.H.H.H.H.H.H.H.H.H.H.H.H.H.H.H.H.H.H.H.H.H.H.H.H.H.H.H.H.H.H.H.H.H.H.H.H.H.H.H.H.H.H.H.H.H.H.H.H.H.H.H.H.H.H.H.H.H.H.H.H.H.H.H.H.H.H.H.H.H.H.H.H.H.H.H.H.H.H.H.H.H.H.H.H.H.H.H.H.H.H.H.H.H.H.H.H.H.H.H.H.H.H.H.H.H.H.H.H.H.H.H.H.H.H.H.H.H.H.H.H.H.H.H.H.H.H.H.H.H.H.H.H.H.H.H.H.H.H.H.H.H.H.H.H.H.H.H.H.H.H.H.H.H.H.H.H.H.H.H.H.H.H.H.H.H.H.H.H.H.H.H.H.H.H.H.H.H.H.H.H.H.H.H.H.H.H.H.H.H.H.H.H.H.H.H.H.H.H.H.H.H.H.H.H.H.H.H.H.H.H.H.H.H.H.H.H.H.H.H.H.H.H.H.H.H.H.H.H.H.H.H.H.H.H.H.H.H.H.H.H.H.H.H.H.H.H.H.H.H.H.H.H.H.H.H.H.H.H.H.H.H.H.H.H.H.H.H.H.H.H.H.H.H.H.H.H.H.H.H.H.H.H.H.H.H.H.H.H.H.H.H.H.H.H.H.H.H.H.H.H.H.H.H.H.H.H.H.H.H.H.H.H.H.H.H.H.H.H.H.H.H.H.H.H.H.H.H.H.H.H.H.H.H.H.H.H.H.H.H.H.H.H.H.H.H.H.H.H.H.H.H.H.H.H.H.H.H.H.H.H.H.H.H.H.H.H.H.H.J.G.P.L.S.J.Q.B.M.OXOXOXOXj.D.NXbXnXnXnXbXzXzXzXbXbXbXnXDXV.OXOXOXOXOXQ.K.Q.P.S.S.L.L.S.S.H.L.U.P.L.H.H.H.H.H.H.H.H.H.H.H.H.H.H.H.H.H.H.H.H.H.H.H.H.H.H.H.H.H.H.H.H.H.H.H.H.H.H.H.H.H.H.H.H.H.H.H.H.H.H.H.H.H.H.H.H.H.H.H.H.H.H.H.H.H.H.H.H.H.H.H.H.H.H.H.H.H.H.H.H.H.H.H.H.H.H.H.H.H.H.H.H.H.H.H.H.H.H.H.H.H.H.H.H.H.H.H.H.H.H.H.H.H.H.H.H.H.H.H.H.H.H.H.H.H.H.H.H.H.H.H.H.H.H.H.H.H.H.H.H.H.H.H.H.H.H.H.H.H.H.H.H.H.H.H.H.H.H.H.H.H.H.H.H.H.H.H.H.H.H.H.H.H.H.H.H.H.H.H.H.H.H.H.H.H.H.H.H.H.H.H.H.H.H.H.H.H.H.H.H.H.H.H.H.H.H.H.H.H.H.H.H.H.H.H.H.H.H.H.H.H.H.H.H.H.H.H.H.H.H.H.H.H.H.H.H.H.H.H.H.H.",
"H.H.H.H.H.H.H.H.H.H.H.H.H.H.H.H.H.H.H.H.H.H.H.H.H.H.H.H.H.H.H.H.H.H.H.H.H.H.H.H.H.H.H.H.H.H.H.H.H.H.H.H.H.H.H.H.H.H.H.H.H.H.H.H.H.H.H.H.H.H.H.H.H.H.H.H.H.H.H.H.H.H.H.H.H.H.H.H.H.H.H.H.H.H.H.H.H.H.H.H.H.H.H.H.H.H.H.H.H.H.H.H.H.H.H.H.H.H.H.H.H.H.H.H.H.H.H.H.H.H.H.H.H.H.H.H.H.H.H.H.H.H.H.H.H.H.H.H.H.H.H.H.H.H.H.H.H.H.H.H.H.H.H.H.H.H.H.H.H.H.H.H.H.H.H.H.H.H.H.H.H.H.H.H.H.H.H.H.H.H.H.H.H.H.H.H.H.H.H.H.H.H.H.H.H.H.H.H.H.H.H.H.H.H.H.H.H.H.H.H.H.H.H.H.H.H.H.H.H.H.H.H.H.H.H.H.H.H.H.H.H.H.H.H.H.H.H.H.H.H.H.H.H.H.H.H.H.H.H.H.H.H.H.H.H.H.H.H.H.H.H.H.H.H.H.H.H.H.H.H.H.H.H.H.H.H.H.H.H.H.H.H.H.H.H.H.H.H.H.H.H.H.H.H.H.H.H.H.H.H.H.H.H.H.H.H.H.H.H.H.H.H.H.H.H.H.H.H.H.H.H.H.H.H.H.H.H.H.H.H.H.H.H.H.H.H.H.H.H.H.H.H.H.H.H.H.H.H.H.H.H.H.H.H.H.H.H.H.H.H.H.H.H.H.H.H.H.H.H.H.H.H.H.H.H.H.H.H.H.H.H.H.H.H.H.H.H.H.H.H.H.H.H.H.H.H.H.H.H.H.H.H.H.H.H.H.H.H.H.H.H.H.H.H.H.H.H.H.H.H.H.H.H.H.H.H.H.H.H.H.H.H.H.H.H.H.H.H.H.H.H.H.H.H.H.H.H.H.H.H.H.H.H.H.H.H.H.H.H.H.H.H.H.H.H.H.H.H.H.H.H.H.H.H.H.H.H.H.H.H.H.H.H.H.H.H.H.H.H.H.H.H.H.H.H.H.H.H.H.H.H.H.H.H.H.H.H.H.H.H.H.H.H.H.H.H.H.H.H.H.H.H.H.H.H.H.H.H.H.H.H.H.H.H.H.H.H.H.H.H.H.H.H.H.H.H.H.H.H.H.F.P.J.F.K.M.C.IX2XgXgXgX2XgXNXf.f.f.f.bXf.bXbXbXbXbXbXNX..2X2X2X2XgX2XC.S.H.F.Q.P.P.J.J.H.H.L.L.H.H.H.H.H.H.H.H.H.H.H.H.H.H.H.H.H.H.H.H.H.H.H.H.H.H.H.H.H.H.H.H.H.H.H.H.H.H.H.H.H.H.H.H.H.H.H.H.H.H.H.H.H.H.H.H.H.H.H.H.H.H.H.H.H.H.H.H.H.H.H.H.H.H.H.H.H.H.H.H.H.H.H.H.H.H.H.H.H.H.H.H.H.H.H.H.H.H.H.H.H.H.H.H.H.H.H.H.H.H.H.H.H.H.H.H.H.H.H.H.H.H.H.H.H.H.H.H.H.H.H.H.H.H.H.H.H.H.H.H.H.H.H.H.H.H.H.H.H.H.H.H.H.H.H.H.H.H.H.H.H.H.H.H.H.H.H.H.H.H.H.H.H.H.H.H.H.H.H.H.H.H.H.H.H.H.H.H.H.H.H.H.H.H.H.H.H.H.H.H.H.H.H.H.H.H.H.H.H.H.H.H.H.H.H.H.H.H.H.H.H.H.H.H.H.H.H.H.H.H.H.H.H.H.H.H.H.H.H.H.H.H.",
"H.H.H.H.H.H.H.H.H.H.H.H.H.H.H.H.H.H.H.H.H.H.H.H.H.H.H.H.H.H.H.H.H.H.H.H.H.H.H.H.H.H.H.H.H.H.H.H.H.H.H.H.H.H.H.H.H.H.H.H.H.H.H.H.H.H.H.H.H.H.H.H.H.H.H.H.H.H.H.H.H.H.H.H.H.H.H.H.H.H.H.H.H.H.H.H.H.H.H.H.H.H.H.H.H.H.H.H.H.H.H.H.H.H.H.H.H.H.H.H.H.H.H.H.H.H.H.H.H.H.H.H.H.H.H.H.H.H.H.H.H.H.H.H.H.H.H.H.H.H.H.H.H.H.H.H.H.H.H.H.H.H.H.H.H.H.H.H.H.H.H.H.H.H.H.H.H.H.H.H.H.H.H.H.H.H.H.H.H.H.H.H.H.H.H.H.H.H.H.H.H.H.H.H.H.H.H.H.H.H.H.H.H.H.H.H.H.H.H.H.H.H.H.H.H.H.H.H.H.H.H.H.H.H.H.H.H.H.H.H.H.H.H.H.H.H.H.H.H.H.H.H.H.H.H.H.H.H.H.H.H.H.H.H.H.H.H.H.H.H.H.H.H.H.H.H.H.H.H.H.H.H.H.H.H.H.H.H.H.H.H.H.H.H.H.H.H.H.H.H.H.H.H.H.H.H.H.H.H.H.H.H.H.H.H.H.H.H.H.H.H.H.H.H.H.H.H.H.H.H.H.H.H.H.H.H.H.H.H.H.H.H.H.H.H.H.H.H.H.H.H.H.H.H.H.H.H.H.H.H.H.H.H.H.H.H.H.H.H.H.H.H.H.H.H.H.H.H.H.H.H.H.H.H.H.H.H.H.H.H.H.H.H.H.H.H.H.H.H.H.H.H.H.H.H.H.H.H.H.H.H.H.H.H.H.H.H.H.H.H.H.H.H.H.H.H.H.H.H.H.H.H.H.H.H.H.H.H.H.H.H.H.H.H.H.H.H.H.H.H.H.H.H.H.H.H.H.H.H.H.H.H.H.H.H.H.H.H.H.H.H.H.H.H.H.H.H.H.H.H.H.H.H.H.H.H.H.H.H.H.H.H.H.H.H.H.H.H.H.H.H.H.H.H.H.H.H.H.H.H.H.H.H.H.H.H.H.H.H.H.H.H.H.H.H.H.H.H.H.H.H.H.H.H.H.H.H.H.H.H.H.H.H.H.H.H.H.H.H.H.H.H.H.H.H.H.H.H.H.H.S.T.G.P.Y.C.gXBXf.f.f.MXMXbXMXf.bXzXbXzXzXbXbXbXzXbXs.MXbXmXf.f.MXBXNXA C.P.K.Q.L.L.U.U.L.H.S.S.H.H.H.H.H.H.H.H.H.H.H.H.H.H.H.H.H.H.H.H.H.H.H.H.H.H.H.H.H.H.H.H.H.H.H.H.H.H.H.H.H.H.H.H.H.H.H.H.H.H.H.H.H.H.H.H.H.H.H.H.H.H.H.H.H.H.H.H.H.H.H.H.H.H.H.H.H.H.H.H.H.H.H.H.H.H.H.H.H.H.H.H.H.H.H.H.H.H.H.H.H.H.H.H.H.H.H.H.H.H.H.H.H.H.H.H.H.H.H.H.H.H.H.H.H.H.H.H.H.H.H.H.H.H.H.H.H.H.H.H.H.H.H.H.H.H.H.H.H.H.H.H.H.H.H.H.H.H.H.H.H.H.H.H.H.H.H.H.H.H.H.H.H.H.H.H.H.H.H.H.H.H.H.H.H.H.H.H.H.H.H.H.H.H.H.H.H.H.H.H.H.H.H.H.H.H.H.H.H.H.H.H.H.H.H.H.H.H.H.H.H.H.H.H.H.H.H.H.H.H.H.H.H.H.H.H.H.H.H.H.H.H.",
"H.H.H.H.H.H.H.H.H.H.H.H.H.H.H.H.H.H.H.H.H.H.H.H.H.H.H.H.H.H.H.H.H.H.H.H.H.H.H.H.H.H.H.H.H.H.H.H.H.H.H.H.H.H.H.H.H.H.H.H.H.H.H.H.H.H.H.H.H.H.H.H.H.H.H.H.H.H.H.H.H.H.H.H.H.H.H.H.H.H.H.H.H.H.H.H.H.H.H.H.H.H.H.H.H.H.H.H.H.H.H.H.H.H.H.H.H.H.H.H.H.H.H.H.H.H.H.H.H.H.H.H.H.H.H.H.H.H.H.H.H.H.H.H.H.H.H.H.H.H.H.H.H.H.H.H.H.H.H.H.H.H.H.H.H.H.H.H.H.H.H.H.H.H.H.H.H.H.H.H.H.H.H.H.H.H.H.H.H.H.H.H.H.H.H.H.H.H.H.H.H.H.H.H.H.H.H.H.H.H.H.H.H.H.H.H.H.H.H.H.H.H.H.H.H.H.H.H.H.H.H.H.H.H.H.H.H.H.H.H.H.H.H.H.H.H.H.H.H.H.H.H.H.H.H.H.H.H.H.H.H.H.H.H.H.H.H.H.H.H.H.H.H.H.H.H.H.H.H.H.H.H.H.H.H.H.H.H.H.H.H.H.H.H.H.H.H.H.H.H.H.H.H.H.H.H.H.H.H.H.H.H.H.H.H.H.H.H.H.H.H.H.H.H.H.H.H.H.H.H.H.H.H.H.H.H.H.H.H.H.H.H.H.H.H.H.H.H.H.H.H.H.H.H.H.H.H.H.H.H.H.H.H.H.H.H.H.H.H.H.H.H.H.H.H.H.H.H.H.H.H.H.H.H.H.H.H.H.H.H.H.H.H.H.H.H.H.H.H.H.H.H.H.H.H.H.H.H.H.H.H.H.H.H.H.H.H.H.H.H.H.H.H.H.H.H.H.H.H.H.H.H.H.H.H.H.H.H.H.H.H.H.H.H.H.H.H.H.H.H.H.H.H.H.H.H.H.H.H.H.H.H.H.H.H.H.H.H.H.H.H.H.H.H.H.H.H.H.H.H.H.H.H.H.H.H.H.H.H.H.H.H.H.H.H.H.H.H.H.H.H.H.H.H.H.H.H.H.H.H.H.H.H.H.H.H.H.H.H.H.H.H.H.H.H.H.H.H.H.H.H.H.H.H.H.H.H.H.H.H.H.H.H.H.H.H.H.H.H.H.H.H.H.H.H.H.H.H.H.H.S.H.Q.Q.OXj.A.HXbXf.f.bXbXbXnXzXzXbXbXbXbXbXbXbXnXnXs.bXxXnXzXs.s.nXDXA k.P.F.J.S.D.L.L.H.H.J.J.H.H.H.H.H.H.H.H.H.H.H.H.H.H.H.H.H.H.H.H.H.H.H.H.H.H.H.H.H.H.H.H.H.H.H.H.H.H.H.H.H.H.H.H.H.H.H.H.H.H.H.H.H.H.H.H.H.H.H.H.H.H.H.H.H.H.H.H.H.H.H.H.H.H.H.H.H.H.H.H.H.H.H.H.H.H.H.H.H.H.H.H.H.H.H.H.H.H.H.H.H.H.H.H.H.H.H.H.H.H.H.H.H.H.H.H.H.H.H.H.H.H.H.H.H.H.H.H.H.H.H.H.H.H.H.H.H.H.H.H.H.H.H.H.H.H.H.H.H.H.H.H.H.H.H.H.H.H.H.H.H.H.H.H.H.H.H.H.H.H.H.H.H.H.H.H.H.H.H.H.H.H.H.H.H.H.H.H.H.H.H.H.H.H.H.H.H.H.H.H.H.H.H.H.H.H.H.H.H.H.H.H.H.H.H.H.H.H.H.H.H.H.H.H.H.H.H.H.H.H.H.H.H.H.H.H.H.H.H.H.H.H.",
"H.H.H.H.H.H.H.H.H.H.H.H.H.H.H.H.H.H.H.H.H.H.H.H.H.H.H.H.H.H.H.H.H.H.H.H.H.H.H.H.H.H.H.H.H.H.H.H.H.H.H.H.H.H.H.H.H.H.H.H.H.H.H.H.H.H.H.H.H.H.H.H.H.H.H.H.H.H.H.H.H.H.H.H.H.H.H.H.H.H.H.H.H.H.H.H.H.H.H.H.H.H.H.H.H.H.H.H.H.H.H.H.H.H.H.H.H.H.H.H.H.H.H.H.H.H.H.H.H.H.H.H.H.H.H.H.H.H.H.H.H.H.H.H.H.H.H.H.H.H.H.H.H.H.H.H.H.H.H.H.H.H.H.H.H.H.H.H.H.H.H.H.H.H.H.H.H.H.H.H.H.H.H.H.H.H.H.H.H.H.H.H.H.H.H.H.H.H.H.H.H.H.H.H.H.H.H.H.H.H.H.H.H.H.H.H.H.H.H.H.H.H.H.H.H.H.H.H.H.H.H.H.H.H.H.H.H.H.H.H.H.H.H.H.H.H.H.H.H.H.H.H.H.H.H.H.H.H.H.H.H.H.H.H.H.H.H.H.H.H.H.H.H.H.H.H.H.H.H.H.H.H.H.H.H.H.H.H.H.H.H.H.H.H.H.H.H.H.H.H.H.H.H.H.H.H.H.H.H.H.H.H.H.H.H.H.H.H.H.H.H.H.H.H.H.H.H.H.H.H.H.H.H.H.H.H.H.H.H.H.H.H.H.H.H.H.H.H.H.H.H.H.H.H.H.H.H.H.H.H.H.H.H.H.H.H.H.H.H.H.H.H.H.H.H.H.H.H.H.H.H.H.H.H.H.H.H.H.H.H.H.H.H.H.H.H.H.H.H.H.H.H.H.H.H.H.H.H.H.H.H.H.H.H.H.H.H.H.H.H.H.H.H.H.H.H.H.H.H.H.H.H.H.H.H.H.H.H.H.H.H.H.H.H.H.H.H.H.H.H.H.H.H.H.H.H.H.H.H.H.H.H.H.H.H.H.H.H.H.H.H.H.H.H.H.H.H.H.H.H.H.H.H.H.H.H.H.H.H.H.H.H.H.H.H.H.H.H.H.H.H.H.H.H.H.H.H.H.H.H.H.H.H.H.H.H.H.H.H.H.H.H.H.H.H.H.H.H.H.H.H.H.H.H.H.H.H.H.H.H.H.H.H.H.H.H.H.H.H.H.H.H.H.H.H.H.H.H.H.J.P.K.M.Y.S.g A NXNXxXxXxXbXbXbXnXbXbXbXbXzXzXbXbXs.f.f.MXf.MXMXSXMXSXDXA C.T.F.Q.J.J.J.J.Q.J.J.J.H.H.H.H.H.H.H.H.H.H.H.H.H.H.H.H.H.H.H.H.H.H.H.H.H.H.H.H.H.H.H.H.H.H.H.H.H.H.H.H.H.H.H.H.H.H.H.H.H.H.H.H.H.H.H.H.H.H.H.H.H.H.H.H.H.H.H.H.H.H.H.H.H.H.H.H.H.H.H.H.H.H.H.H.H.H.H.H.H.H.H.H.H.H.H.H.H.H.H.H.H.H.H.H.H.H.H.H.H.H.H.H.H.H.H.H.H.H.H.H.H.H.H.H.H.H.H.H.H.H.H.H.H.H.H.H.H.H.H.H.H.H.H.H.H.H.H.H.H.H.H.H.H.H.H.H.H.H.H.H.H.H.H.H.H.H.H.H.H.H.H.H.H.H.H.H.H.H.H.H.H.H.H.H.H.H.H.H.H.H.H.H.H.H.H.H.H.H.H.H.H.H.H.H.H.H.H.H.H.H.H.H.H.H.H.H.H.H.H.H.H.H.H.H.H.H.H.H.H.H.H.H.H.H.H.H.H.H.H.H.H.H.",
"H.H.H.H.H.H.H.H.H.H.H.H.H.H.H.H.H.H.H.H.H.H.H.H.H.H.H.H.H.H.H.H.H.H.H.H.H.H.H.H.H.H.H.H.H.H.H.H.H.H.H.H.H.H.H.H.H.H.H.H.H.H.H.H.H.H.H.H.H.H.H.H.H.H.H.H.H.H.H.H.H.H.H.H.H.H.H.H.H.H.H.H.H.H.H.H.H.H.H.H.H.H.H.H.H.H.H.H.H.H.H.H.H.H.H.H.H.H.H.H.H.H.H.H.H.H.H.H.H.H.H.H.H.H.H.H.H.H.H.H.H.H.H.H.H.H.H.H.H.H.H.H.H.H.H.H.H.H.H.H.H.H.H.H.H.H.H.H.H.H.H.H.H.H.H.H.H.H.H.H.H.H.H.H.H.H.H.H.H.H.H.H.H.H.H.H.H.H.H.H.H.H.H.H.H.H.H.H.H.H.H.H.H.H.H.H.H.H.H.H.H.H.H.H.H.H.H.H.H.H.H.H.H.H.H.H.H.H.H.H.H.H.H.H.H.H.H.H.H.H.H.H.H.H.H.H.H.H.H.H.H.H.H.H.H.H.H.H.H.H.H.H.H.H.H.H.H.H.H.H.H.H.H.H.H.H.H.H.H.H.H.H.H.H.H.H.H.H.H.H.H.H.H.H.H.H.H.H.H.H.H.H.H.H.H.H.H.H.H.H.H.H.H.H.H.H.H.H.H.H.H.H.H.H.H.H.H.H.H.H.H.H.H.H.H.H.H.H.H.H.H.H.H.H.H.H.H.H.H.H.H.H.H.H.H.H.H.H.H.H.H.H.H.H.H.H.H.H.H.H.H.H.H.H.H.H.H.H.H.H.H.H.H.H.H.H.H.H.H.H.H.H.H.H.H.H.H.H.H.H.H.H.H.H.H.H.H.H.H.H.H.H.H.H.H.H.H.H.H.H.H.H.H.H.H.H.H.H.H.H.H.H.H.H.H.H.H.H.H.H.H.H.H.H.H.H.H.H.H.H.H.H.H.H.H.H.H.H.H.H.H.H.H.H.H.H.H.H.H.H.H.H.H.H.H.H.H.H.H.H.H.H.H.H.H.H.H.H.H.H.H.H.H.H.H.H.H.H.H.H.H.H.H.H.H.H.H.H.H.H.H.H.H.H.H.H.H.H.H.H.H.H.H.H.H.H.H.H.H.H.H.H.H.H.H.H.H.H.H.H.H.H.H.H.H.H.H.H.H.L.L.C.A gXHXnXf.f.s.bXbXzXMXf.s.bXbXbXf.bXzXzXbXbXbXbXnXvXC.M.M.M.G.M.(.M.K.Q.M.Q.H.H.S.S.S.S.L.L.L.H.H.H.H.H.H.H.H.H.H.H.H.H.H.H.H.H.H.H.H.H.H.H.H.H.H.H.H.H.H.H.H.H.H.H.H.H.H.H.H.H.H.H.H.H.H.H.H.H.H.H.H.H.H.H.H.H.H.H.H.H.H.H.H.H.H.H.H.H.H.H.H.H.H.H.H.H.H.H.H.H.H.H.H.H.H.H.H.H.H.H.H.H.H.H.H.H.H.H.H.H.H.H.H.H.H.H.H.H.H.H.H.H.H.H.H.H.H.H.H.H.H.H.H.H.H.H.H.H.H.H.H.H.H.H.H.H.H.H.H.H.H.H.H.H.H.H.H.H.H.H.H.H.H.H.H.H.H.H.H.H.H.H.H.H.H.H.H.H.H.H.H.H.H.H.H.H.H.H.H.H.H.H.H.H.H.H.H.H.H.H.H.H.H.H.H.H.H.H.H.H.H.H.H.H.H.H.H.H.H.H.H.H.H.H.H.H.H.H.H.H.H.H.H.H.H.H.H.H.H.H.H.H.H.H.H.H.H.H.H.H.",
"H.H.H.H.H.H.H.H.H.H.H.H.H.H.H.H.H.H.H.H.H.H.H.H.H.H.H.H.H.H.H.H.H.H.H.H.H.H.H.H.H.H.H.H.H.H.H.H.H.H.H.H.H.H.H.H.H.H.H.H.H.H.H.H.H.H.H.H.H.H.H.H.H.H.H.H.H.H.H.H.H.H.H.H.H.H.H.H.H.H.H.H.H.H.H.H.H.H.H.H.H.H.H.H.H.H.H.H.H.H.H.H.H.H.H.H.H.H.H.H.H.H.H.H.H.H.H.H.H.H.H.H.H.H.H.H.H.H.H.H.H.H.H.H.H.H.H.H.H.H.H.H.H.H.H.H.H.H.H.H.H.H.H.H.H.H.H.H.H.H.H.H.H.H.H.H.H.H.H.H.H.H.H.H.H.H.H.H.H.H.H.H.H.H.H.H.H.H.H.H.H.H.H.H.H.H.H.H.H.H.H.H.H.H.H.H.H.H.H.H.H.H.H.H.H.H.H.H.H.H.H.H.H.H.H.H.H.H.H.H.H.H.H.H.H.H.H.H.H.H.H.H.H.H.H.H.H.H.H.H.H.H.H.H.H.H.H.H.H.H.H.H.H.H.H.H.H.H.H.H.H.H.H.H.H.H.H.H.H.H.H.H.H.H.H.H.H.H.H.H.H.H.H.H.H.H.H.H.H.H.H.H.H.H.H.H.H.H.H.H.H.H.H.H.H.H.H.H.H.H.H.H.H.H.H.H.H.H.H.H.H.H.H.H.H.H.H.H.H.H.H.H.H.H.H.H.H.H.H.H.H.H.H.H.H.H.H.H.H.H.H.H.H.H.H.H.H.H.H.H.H.H.H.H.H.H.H.H.H.H.H.H.L.L.L.L.L.L.L.L.H.H.H.H.H.H.H.H.H.H.H.H.H.H.H.H.H.H.P.P.P.P.H.S.H.S.Y.L.S.P.J.Q.G.H.L.L.H.H.H.H.H.H.H.H.H.H.H.H.H.H.H.H.H.H.H.H.H.H.H.H.H.H.H.H.H.H.H.H.H.H.H.H.H.H.H.H.H.H.H.H.H.H.H.H.H.H.H.H.H.H.H.H.H.H.H.H.H.H.H.H.H.H.H.H.H.H.H.H.H.H.H.H.H.H.H.H.H.H.H.H.H.H.H.H.H.H.H.H.H.H.H.H.H.H.H.H.H.H.H.H.H.H.H.H.J.J.H.H.H.H.L.L.L.G.G.P.M.Y.L.G.P.C.V HXCXbXbXbXbXbXbXbXbXzXbXzXzXnXs.f.bXbXbXzXs.zXbXNXg Q.B.F.H.H.H.H.H.H.H.H.H.H.H.H.H.H.H.H.H.H.H.H.H.H.H.H.H.H.H.H.H.H.H.H.H.H.H.H.H.H.H.H.L.L.L.L.L.L.L.L.H.H.H.H.H.H.H.H.H.H.H.H.H.H.H.H.H.H.H.H.H.H.H.H.H.H.H.H.H.H.H.H.H.H.H.H.H.H.H.H.H.H.H.H.H.H.H.H.H.H.H.H.H.H.H.H.H.H.H.H.H.H.H.H.H.H.H.H.H.H.H.H.H.H.H.H.H.H.H.H.H.H.H.H.H.H.H.H.H.H.H.H.H.H.H.H.H.H.H.H.H.H.H.H.H.H.H.H.H.H.H.H.H.H.H.H.H.H.H.H.H.H.H.H.H.H.H.H.H.H.H.H.H.H.H.H.H.H.H.H.H.H.H.H.H.H.H.H.H.H.H.H.H.H.H.H.H.H.H.H.H.H.H.H.H.H.H.H.H.H.H.H.H.H.H.H.H.H.H.H.H.H.H.H.H.H.H.H.H.H.H.H.H.H.H.H.H.H.H.H.H.H.H.H.H.H.H.H.H.H.",
"H.H.H.H.H.H.H.H.H.H.H.H.H.H.H.H.H.H.H.H.H.H.H.H.H.H.H.H.H.H.H.H.H.H.H.H.H.H.H.H.H.H.H.H.H.H.H.H.H.H.H.H.H.H.H.H.H.H.H.H.H.H.H.H.H.H.H.H.H.H.H.H.H.H.H.H.H.H.H.H.H.H.H.H.H.H.H.H.H.H.H.H.H.H.H.H.H.H.H.H.H.H.H.H.H.H.H.H.H.H.H.H.H.H.H.H.H.H.H.H.H.H.H.H.H.H.H.H.H.H.H.H.H.H.H.H.H.H.H.H.H.H.H.H.H.H.H.H.H.H.H.H.H.H.H.H.H.H.H.H.H.H.H.H.H.H.H.H.H.H.H.H.H.H.H.H.H.H.H.H.H.H.H.H.H.H.H.H.H.H.H.H.H.H.H.H.H.H.H.H.H.H.H.H.H.H.H.H.H.H.H.H.H.H.H.H.H.H.H.H.H.H.H.H.H.H.H.H.H.H.H.H.H.H.H.H.H.H.H.H.H.H.H.H.H.H.H.H.H.H.H.H.H.H.H.H.H.H.H.H.H.H.H.H.H.H.H.H.H.H.H.H.H.H.H.H.H.H.H.H.H.H.H.H.H.H.H.H.H.H.H.H.H.H.H.H.H.H.H.H.H.H.H.H.H.H.H.H.H.H.H.H.H.H.H.H.H.H.H.H.H.H.H.H.H.H.H.H.H.H.H.H.H.H.H.H.H.H.H.H.H.H.H.H.H.H.H.H.H.H.H.H.H.H.H.H.H.H.H.H.H.H.H.H.H.H.H.H.H.H.H.H.H.H.H.H.H.H.H.H.H.H.H.H.H.H.H.H.H.H.H.H.L.L.L.L.L.L.L.L.H.H.H.H.H.H.H.H.H.H.H.H.H.H.H.H.H.H.L.L.L.L.H.H.H.K.P.M.j.j.j.j.G.G.H.L.H.H.H.L.H.H.H.H.H.H.H.H.H.H.H.H.H.H.H.H.H.H.H.H.H.H.H.H.H.H.H.H.H.H.H.H.H.H.H.H.H.H.H.H.H.H.H.H.H.H.H.H.H.H.H.H.H.H.H.H.H.H.H.H.H.H.H.H.H.H.H.H.H.H.H.H.H.H.H.H.H.H.H.H.H.H.H.H.H.H.H.H.H.H.H.H.H.H.H.H.H.H.H.H.H.H.H.H.H.J.H.H.H.H.L.L.P.L.G.P.M.L.M.P.OXj.g DXNXbXbXf.bXbXbXbXbXbXbXbXzXnXzXnXzXbXf.f.MXMXmXNXC.U.G.J.H.H.H.H.H.H.H.H.H.H.H.H.H.H.H.H.H.H.H.H.H.H.H.H.H.H.H.H.H.H.H.H.H.H.H.H.H.H.H.H.L.L.L.L.L.L.L.L.H.H.H.H.H.H.H.H.H.H.H.H.H.H.H.H.H.H.H.H.H.H.H.H.H.H.H.H.H.H.H.H.H.H.H.H.H.H.H.H.H.H.H.H.H.H.H.H.H.H.H.H.H.H.H.H.H.H.H.H.H.H.H.H.H.H.H.H.H.H.H.H.H.H.H.H.H.H.H.H.H.H.H.H.H.H.H.H.H.H.H.H.H.H.H.H.H.H.H.H.H.H.H.H.H.H.H.H.H.H.H.H.H.H.H.H.H.H.H.H.H.H.H.H.H.H.H.H.H.H.H.H.H.H.H.H.H.H.H.H.H.H.H.H.H.H.H.H.H.H.H.H.H.H.H.H.H.H.H.H.H.H.H.H.H.H.H.H.H.H.H.H.H.H.H.H.H.H.H.H.H.H.H.H.H.H.H.H.H.H.H.H.H.H.H.H.H.H.H.H.H.H.H.H.H.H.H.H.H.H.",
"H.H.H.H.H.H.H.H.H.H.H.H.H.H.H.H.H.H.H.H.H.H.H.H.H.H.H.H.H.H.H.H.H.H.H.H.H.H.H.H.H.H.H.H.H.H.H.H.H.H.H.H.H.H.H.H.H.H.H.H.H.H.H.H.H.H.H.H.H.H.H.H.H.H.H.H.H.H.H.H.H.H.H.H.H.H.H.H.H.H.H.H.H.H.H.H.H.H.H.H.H.H.H.H.H.H.H.H.H.H.H.H.H.H.H.H.H.H.H.H.H.H.H.H.H.H.H.H.H.H.H.H.H.H.H.H.H.H.H.H.H.H.H.H.H.H.H.H.H.H.H.H.H.H.H.H.H.H.H.H.H.H.H.H.H.H.H.H.H.H.H.H.H.H.H.H.H.H.H.H.H.H.H.H.H.H.H.H.H.H.H.H.H.H.H.H.H.H.H.H.H.H.H.H.H.H.H.H.H.H.H.H.H.H.H.H.H.H.H.H.H.H.H.H.H.H.H.H.H.H.H.H.H.H.H.H.H.H.H.H.H.H.H.H.H.H.H.H.H.H.H.H.H.H.H.H.H.H.H.H.H.H.H.H.H.H.H.H.H.H.H.H.H.H.H.H.H.H.H.H.H.H.H.H.H.H.H.H.H.H.H.H.H.H.H.H.H.H.H.H.H.H.H.H.H.H.H.H.H.H.H.H.H.H.H.H.H.H.H.H.H.H.H.H.H.H.H.H.H.H.H.H.H.H.H.H.H.H.H.H.H.H.H.H.H.H.H.H.H.H.H.H.H.H.H.H.H.H.H.H.H.H.H.H.H.H.H.H.H.H.H.H.H.H.H.H.H.H.H.H.H.H.H.H.H.H.H.H.H.H.H.H.L.L.L.L.L.L.L.L.H.H.H.H.H.H.H.H.H.H.H.H.H.H.H.H.H.H.H.H.L.L.S.H.P.Q.Q.S..XIXaXIXS.G.G.H.H.H.H.L.H.H.H.H.H.H.H.H.H.H.H.H.H.H.H.H.H.H.H.H.H.H.H.H.H.H.H.H.H.H.H.H.H.H.H.H.H.H.H.H.H.H.H.H.H.H.H.H.H.H.H.H.H.H.H.H.H.H.H.H.H.H.H.H.H.H.H.H.H.H.H.H.H.H.H.H.H.H.H.H.H.H.H.H.H.H.H.H.H.H.H.H.H.H.H.H.H.H.H.H.H.H.H.H.H.J.H.H.H.H.L.L.P.P.G.L.S.G.M.R.2X2X..cXnXbXzXbXbXbXbXbXbXbXbXf.s.f.bXnXzXf.s.mXvXgXgXgXC.S.L.G.H.H.H.H.H.H.H.H.H.H.H.H.H.H.H.H.H.H.H.H.H.H.H.H.H.H.H.H.H.H.H.H.H.H.H.H.H.H.H.H.L.L.L.L.L.L.L.L.H.H.H.H.H.H.H.H.H.H.H.H.H.H.H.H.H.H.H.H.H.H.H.H.H.H.H.H.H.H.H.H.H.H.H.H.H.H.H.H.H.H.H.H.H.H.H.H.H.H.H.H.H.H.H.H.H.H.H.H.H.H.H.H.H.H.H.H.H.H.H.H.H.H.H.H.H.H.H.H.H.H.H.H.H.H.H.H.H.H.H.H.H.H.H.H.H.H.H.H.H.H.H.H.H.H.H.H.H.H.H.H.H.H.H.H.H.H.H.H.H.H.H.H.H.H.H.H.H.H.H.H.H.H.H.H.H.H.H.H.H.H.H.H.H.H.H.H.H.H.H.H.H.H.H.H.H.H.H.H.H.H.H.H.H.H.H.H.H.H.H.H.H.H.H.H.H.H.H.H.H.H.H.H.H.H.H.H.H.H.H.H.H.H.H.H.H.H.H.H.H.H.H.H.H.H.H.H.H.H.",
"H.H.H.H.H.H.H.H.H.H.H.H.H.H.H.H.H.H.H.H.H.H.H.H.H.H.H.H.H.H.H.H.H.H.H.H.H.H.H.H.H.H.H.H.H.H.H.H.H.H.H.H.H.H.H.H.H.H.H.H.H.H.H.H.H.H.H.H.H.H.H.H.H.H.H.H.H.H.H.H.H.H.H.H.H.H.H.H.H.H.H.H.H.H.H.H.H.H.H.H.H.H.H.H.H.H.H.H.H.H.H.H.H.H.H.H.H.H.H.H.H.H.H.H.H.H.H.H.H.H.H.H.H.H.H.H.H.H.H.H.H.H.H.H.H.H.H.H.H.H.H.H.H.H.H.H.H.H.H.H.H.H.H.H.H.H.H.H.H.H.H.H.H.H.H.H.H.H.H.H.H.H.H.H.H.H.H.H.H.H.H.H.H.H.H.H.H.H.H.H.H.H.H.H.H.H.H.H.H.H.H.H.H.H.H.H.H.H.H.H.H.H.H.H.H.H.H.H.H.H.H.H.H.H.H.H.H.H.H.H.H.H.H.H.H.H.H.H.H.H.H.H.H.H.H.H.H.H.H.H.H.H.H.H.H.H.H.H.H.H.H.H.H.H.H.H.H.H.H.H.H.H.H.H.H.H.H.H.H.H.H.H.H.H.H.H.H.H.H.H.H.H.H.H.H.H.H.H.H.H.H.H.H.H.H.H.H.H.H.H.H.H.H.H.H.H.H.H.H.H.H.H.H.H.H.H.H.H.H.H.H.H.H.H.H.H.H.H.H.H.H.H.H.H.H.H.H.H.H.H.H.H.H.H.H.H.H.H.H.H.H.H.H.H.H.H.H.H.H.H.H.H.H.H.H.H.H.H.H.H.H.H.L.L.L.L.L.L.L.L.H.H.H.H.H.H.H.H.H.H.H.H.H.H.H.H.H.H.H.H.L.L.L.U.G.J.M.k.IXLXLXLXC.G.G.H.H.H.L.L.H.H.H.H.H.H.H.H.H.H.H.H.H.H.H.H.H.H.H.H.H.H.H.H.H.H.H.H.H.H.H.H.H.H.H.H.H.H.H.H.H.H.H.H.H.H.H.H.H.H.H.H.H.H.H.H.H.H.H.H.H.H.H.H.H.H.H.H.H.H.H.H.H.H.H.H.H.H.H.H.H.H.H.H.H.H.H.H.H.H.H.H.H.H.H.H.H.H.H.H.H.H.H.H.H.J.H.H.H.H.L.L.G.P.G.L.U.L.M.2XCXf.f.MXbXnXzXzXbXbXbXbXzXzXbXbXf.f.nXzXzXbXbXHXA.j.j.B.B.M.Q.J.H.H.H.H.H.H.H.H.H.H.H.H.H.H.H.H.H.H.H.H.H.H.H.H.H.H.H.H.H.H.H.H.H.H.H.H.H.H.H.H.L.L.L.L.L.L.L.L.H.H.H.H.H.H.H.H.H.H.H.H.H.H.H.H.H.H.H.H.H.H.H.H.H.H.H.H.H.H.H.H.H.H.H.H.H.H.H.H.H.H.H.H.H.H.H.H.H.H.H.H.H.H.H.H.H.H.H.H.H.H.H.H.H.H.H.H.H.H.H.H.H.H.H.H.H.H.H.H.H.H.H.H.H.H.H.H.H.H.H.H.H.H.H.H.H.H.H.H.H.H.H.H.H.H.H.H.H.H.H.H.H.H.H.H.H.H.H.H.H.H.H.H.H.H.H.H.H.H.H.H.H.H.H.H.H.H.H.H.H.H.H.H.H.H.H.H.H.H.H.H.H.H.H.H.H.H.H.H.H.H.H.H.H.H.H.H.H.H.H.H.H.H.H.H.H.H.H.H.H.H.H.H.H.H.H.H.H.H.H.H.H.H.H.H.H.H.H.H.H.H.H.H.H.H.H.H.H.H.",
"H.H.H.H.H.H.H.H.H.H.H.H.H.H.H.H.H.H.H.H.H.H.H.H.H.H.H.H.H.H.H.H.H.H.H.H.H.H.H.H.H.H.H.H.H.H.H.H.H.H.H.H.H.H.H.H.H.H.H.H.H.H.H.H.H.H.H.H.H.H.H.H.H.H.H.H.H.H.H.H.H.H.H.H.H.H.H.H.H.H.H.H.H.H.H.H.H.H.H.H.H.H.H.H.H.H.H.H.H.H.H.H.H.H.H.H.H.H.H.H.H.H.H.H.H.H.H.H.H.H.H.H.H.H.H.H.H.H.H.H.H.H.H.H.H.H.H.H.H.H.H.H.H.H.H.H.H.H.H.H.H.H.H.H.H.H.H.H.H.H.H.H.H.H.H.H.H.H.H.H.H.H.H.H.H.H.H.H.H.H.H.H.H.H.H.H.H.H.H.H.H.H.H.H.H.H.H.H.H.H.H.H.H.H.H.H.H.H.H.H.H.H.H.H.H.H.H.H.H.H.H.H.H.H.H.H.H.H.H.H.H.H.H.H.H.H.H.H.H.H.H.H.H.H.H.H.H.H.H.H.H.H.H.H.H.H.H.H.H.H.H.H.H.H.H.H.H.H.H.H.H.H.H.H.H.H.H.H.H.H.H.H.H.H.H.H.H.H.H.H.H.H.H.H.H.H.H.H.H.H.H.H.H.H.H.H.H.H.H.H.H.H.H.H.H.H.H.H.H.H.H.H.H.H.H.H.H.H.H.H.H.H.H.H.H.H.H.H.H.H.H.H.H.H.H.H.H.H.H.H.H.H.H.H.H.H.H.H.H.H.H.H.H.H.H.H.H.H.H.H.H.H.H.H.H.H.H.H.H.H.H.H.L.L.L.L.L.L.L.L.H.H.H.H.H.H.H.H.H.H.H.H.H.H.H.H.H.J.J.H.L.L.L.P.Q.'.M.g IXLXLXLXC.G.G.G.G.H.L.L.H.H.H.H.H.H.H.H.H.H.H.H.H.H.H.H.H.H.H.H.H.H.H.H.H.H.H.H.H.H.H.H.H.H.H.H.H.H.H.H.H.H.H.H.H.H.H.H.H.H.H.H.H.H.H.H.H.H.H.H.H.H.H.H.H.H.H.H.H.H.H.H.H.H.H.H.H.H.H.H.H.H.H.H.H.H.H.H.H.H.H.H.H.H.H.H.H.H.H.H.H.H.H.H.J.H.H.H.H.H.L.L.H.P.H.L.P.L.j.2XCXf.bXnXzXnXzXbXbXbXbXbXbXbXbXbXbXbXbXs.s.f.f.NX2XM.F.K.Q.G.P.S.H.H.H.H.H.H.H.H.H.H.H.H.H.H.H.H.H.H.H.H.H.H.H.H.H.H.H.H.H.H.H.H.H.H.H.H.H.H.H.H.L.L.L.L.L.L.L.L.H.H.H.H.H.H.H.H.H.H.H.H.H.H.H.H.H.H.H.H.H.H.H.H.H.H.H.H.H.H.H.H.H.H.H.H.H.H.H.H.H.H.H.H.H.H.H.H.H.H.H.H.H.H.H.H.H.H.H.H.H.H.H.H.H.H.H.H.H.H.H.H.H.H.H.H.H.H.H.H.H.H.H.H.H.H.H.H.H.H.H.H.H.H.H.H.H.H.H.H.H.H.H.H.H.H.H.H.H.H.H.H.H.H.H.H.H.H.H.H.H.H.H.H.H.H.H.H.H.H.H.H.H.H.H.H.H.H.H.H.H.H.H.H.H.H.H.H.H.H.H.H.H.H.H.H.H.H.H.H.H.H.H.H.H.H.H.H.H.H.H.H.H.H.H.H.H.H.H.H.H.H.H.H.H.H.H.H.H.H.H.H.H.H.H.H.H.H.H.H.H.H.H.H.H.H.H.H.H.H.",
"H.H.H.H.H.H.H.H.H.H.H.H.H.H.H.H.H.H.H.H.H.H.H.H.H.H.H.H.H.H.H.H.H.H.H.H.H.H.H.H.H.H.H.H.H.H.H.H.H.H.H.H.H.H.H.H.H.H.H.H.H.H.H.H.H.H.H.H.H.H.H.H.H.H.H.H.H.H.H.H.H.H.H.H.H.H.H.H.H.H.H.H.H.H.H.H.H.H.H.H.H.H.H.H.H.H.H.H.H.H.H.H.H.H.H.H.H.H.H.H.H.H.H.H.H.H.H.H.H.H.H.H.H.H.H.H.H.H.H.H.H.H.H.H.H.H.H.H.H.H.H.H.H.H.H.H.H.H.H.H.H.H.H.H.H.H.H.H.H.H.H.H.H.H.H.H.H.H.H.H.H.H.H.H.H.H.H.H.H.H.H.H.H.H.H.H.H.H.H.H.L.L.L.L.L.L.L.L.H.H.H.H.H.H.H.H.H.H.H.H.H.H.H.H.H.H.H.H.H.H.H.H.H.H.H.H.H.H.H.H.H.H.H.H.H.H.H.H.H.H.H.H.H.H.H.H.H.H.H.H.H.H.H.H.H.H.H.H.H.H.H.H.H.H.H.H.H.H.H.H.H.H.H.H.H.H.H.H.H.H.H.H.H.H.H.H.H.H.H.H.H.H.H.H.H.H.H.H.H.H.H.H.H.H.H.H.H.H.H.H.H.H.H.H.H.H.H.H.H.H.H.H.H.H.H.H.H.H.H.H.H.H.H.H.H.H.H.H.H.H.H.H.H.H.H.H.H.H.H.H.H.H.H.H.H.H.H.H.H.H.H.H.H.H.H.H.H.H.H.H.H.H.H.H.H.H.H.H.H.H.H.H.L.L.L.L.L.L.L.L.H.H.H.H.H.H.H.H.H.H.H.H.H.H.H.H.H.H.J.J.H.L.H.H.M.J.S.S.IXLXLXLXC.G.G.H.H.H.H.L.H.H.H.H.H.H.H.H.H.H.H.H.H.H.H.H.H.H.H.H.H.H.H.H.H.H.H.H.H.H.H.H.H.H.H.H.H.H.H.H.H.H.H.H.H.H.H.H.H.H.H.H.H.H.H.H.H.H.H.H.H.H.H.H.H.H.H.H.H.H.H.H.H.H.H.H.H.H.H.H.H.H.H.H.H.H.H.H.H.H.H.H.H.H.H.H.H.H.H.H.H.H.H.H.J.H.H.H.H.H.L.L.P.L.H.L.L.D.j.2XNXs.bXbXs.bXbXbXbXbXbXbXbXbXbXbXbXbXbXnXmXbXmXJXE.C.C.S.D.S.L.P.H.H.H.H.H.H.H.H.H.H.H.H.H.H.H.H.H.H.H.H.H.H.H.H.H.H.H.H.H.H.H.H.H.H.H.H.H.H.H.H.L.L.L.L.L.L.L.L.H.H.H.H.H.H.H.H.H.H.H.H.H.H.H.H.H.H.H.H.H.H.H.H.H.H.H.H.H.H.H.H.H.H.H.H.H.H.H.H.H.H.H.H.H.H.H.H.H.H.H.H.H.H.H.H.H.H.H.H.H.H.H.H.H.H.H.H.H.H.H.H.H.H.H.H.H.H.H.H.H.H.H.H.H.H.H.H.H.H.H.H.H.H.H.H.H.H.H.H.H.H.H.H.H.H.H.H.H.H.H.H.H.H.H.H.H.H.H.H.H.H.H.H.H.H.H.H.H.H.H.H.H.H.H.H.H.H.H.H.H.H.H.H.H.H.H.H.H.H.H.H.H.H.H.H.H.H.H.H.H.H.H.H.H.H.H.H.H.H.H.H.H.H.H.H.H.H.H.H.H.H.H.H.H.H.H.H.H.H.H.H.H.H.H.H.H.H.H.H.H.H.H.H.H.H.H.H.H.H.",
"H.H.H.H.H.H.H.H.H.H.H.H.H.H.H.H.H.H.H.H.H.H.H.H.H.H.H.H.H.H.H.H.H.H.H.H.H.H.H.H.H.H.H.H.H.H.H.H.H.H.H.H.H.H.H.H.H.H.H.H.H.H.H.H.H.H.H.H.H.H.H.H.H.H.H.H.H.H.H.H.H.H.H.H.H.H.H.H.H.H.H.H.H.H.H.H.H.H.H.H.H.H.H.H.H.H.H.H.H.H.H.H.H.H.H.H.H.H.H.H.H.H.H.H.H.H.H.H.H.H.H.H.H.H.H.H.H.H.H.H.H.H.H.H.H.H.H.H.H.H.H.H.H.H.H.H.H.H.H.H.H.H.H.H.H.H.H.H.H.H.H.H.H.H.H.H.H.H.H.H.H.H.H.H.H.H.H.H.H.H.H.H.H.H.H.H.H.H.H.H.L.L.L.L.L.L.L.L.H.H.H.H.H.H.H.H.H.H.H.H.H.H.H.H.H.H.H.H.H.H.H.H.H.H.H.H.H.H.H.H.H.H.H.H.H.H.H.H.H.H.H.H.H.H.H.H.H.H.H.H.H.H.H.H.H.H.H.H.H.H.H.H.H.H.H.H.H.H.H.H.H.H.H.H.H.H.H.H.H.H.H.H.H.H.H.H.H.H.H.H.H.H.H.H.H.H.H.H.H.H.H.H.H.H.H.H.H.H.H.H.H.H.H.H.H.H.H.H.H.H.H.H.H.H.H.H.H.H.H.H.H.H.H.H.H.H.H.H.H.H.H.H.H.H.H.H.H.H.H.H.H.H.H.H.H.H.H.H.H.H.H.H.H.H.H.H.H.H.H.H.H.H.H.H.H.H.H.H.H.H.H.H.L.L.L.L.L.L.L.L.H.H.H.H.H.H.H.H.H.H.H.H.H.H.H.H.H.H.L.P.P.P.H.H.J.P.P.j.T.E.T.Y.S.G.H.H.H.H.H.L.H.H.H.H.H.H.H.H.H.H.H.H.H.H.H.H.H.H.H.H.H.H.H.H.H.H.H.H.H.H.H.H.H.H.H.H.H.H.H.H.H.H.H.H.H.H.H.H.H.H.H.H.H.H.H.H.H.H.H.H.H.H.H.H.H.H.H.H.H.H.H.H.H.H.H.H.H.H.H.H.H.H.H.H.H.H.H.H.H.H.H.H.H.H.H.H.H.H.H.H.H.H.H.H.H.H.L.H.H.H.L.L.L.G.L.L.L.L.j.2XNXf.f.f.f.bXbXzXbXzXbXzXbXbXbXbXMXbXs.nXvXA C.T.Y.J.J.P.M.Q.K.Q.J.H.H.H.H.H.H.H.H.H.H.H.H.H.H.H.H.H.H.H.H.H.H.H.H.H.H.H.H.H.H.H.H.H.H.H.H.H.H.H.L.L.L.L.L.L.L.L.H.H.H.H.H.H.H.H.H.H.H.H.H.H.H.H.H.H.H.H.H.H.H.H.H.H.H.H.H.H.H.H.H.H.H.H.H.H.H.H.H.H.H.H.H.H.H.H.H.H.H.H.H.H.H.H.H.H.H.H.H.H.H.H.H.H.H.H.H.H.H.H.H.H.H.H.H.H.H.H.H.H.H.H.H.H.H.H.H.H.H.H.H.H.H.H.H.H.H.H.H.H.H.H.H.H.H.H.H.H.H.H.H.H.H.H.H.H.H.H.H.H.H.H.H.H.H.H.H.H.H.H.H.H.H.H.H.H.H.H.H.H.H.H.H.H.H.H.H.H.H.H.H.H.H.H.H.H.H.H.H.H.H.H.H.H.H.H.H.H.H.H.H.H.H.H.H.H.H.H.H.H.H.H.H.H.H.H.H.H.H.H.H.H.H.H.H.H.H.H.H.H.H.H.H.H.H.H.H.H.",
"H.H.H.H.H.H.H.H.H.H.H.H.H.H.H.H.H.H.H.H.H.H.H.H.H.H.H.H.H.H.H.H.H.H.H.H.H.H.H.H.H.H.H.H.H.H.H.H.H.H.H.H.H.H.H.H.H.H.H.H.H.H.H.H.H.H.H.H.H.H.H.H.H.H.H.H.H.H.H.H.H.H.H.H.H.H.H.H.H.H.H.H.H.H.H.H.H.H.H.H.H.H.H.H.H.H.H.H.H.H.H.H.H.H.H.H.H.H.H.H.H.H.H.H.H.H.H.H.H.H.H.H.H.H.H.H.H.H.H.H.H.H.H.H.H.H.H.H.H.H.H.H.H.H.H.H.H.H.H.H.H.H.H.H.H.H.H.H.H.H.H.H.H.H.H.H.H.H.H.H.H.H.H.H.H.H.H.H.H.H.H.H.H.H.H.H.H.H.H.H.P.P.P.P.P.P.P.P.H.H.H.H.H.H.H.H.H.H.H.H.H.H.H.H.H.H.H.H.H.H.H.H.H.H.H.H.H.H.H.H.H.H.H.H.H.H.H.H.H.H.H.H.H.H.H.H.H.H.H.H.H.H.H.H.H.H.H.H.H.H.H.H.H.H.H.H.H.H.H.H.H.H.H.H.H.H.H.H.H.H.H.H.H.H.H.H.H.H.H.H.H.H.H.H.H.H.H.H.H.H.H.H.H.H.H.H.H.H.H.H.H.H.H.H.H.H.H.H.H.H.H.H.H.H.H.H.H.H.H.H.H.H.H.H.H.H.H.H.H.H.H.H.H.H.H.H.H.H.H.H.H.H.H.H.H.H.H.H.H.H.H.H.H.H.H.H.H.H.H.H.H.H.H.H.H.H.H.H.H.H.H.H.L.L.L.L.L.L.L.L.H.H.H.H.H.H.H.H.H.H.H.H.H.H.H.H.H.H.P.P.P.L.H.H.G.G.P.F.K.M.j.M.G.H.H.H.H.H.H.H.H.H.H.H.H.H.H.H.H.H.H.H.H.H.H.H.H.H.H.H.H.H.H.H.H.H.H.H.H.H.H.H.H.H.H.H.H.H.H.H.H.H.H.H.H.H.H.H.H.H.H.H.H.H.H.H.H.H.H.H.H.H.H.H.H.H.H.H.H.H.H.H.H.H.H.H.H.H.H.H.H.H.H.H.H.H.H.H.H.H.H.H.H.H.H.H.H.H.H.H.H.H.H.H.H.H.H.H.H.H.L.L.L.G.L.L.L.T.k.2XNXbXs.bXbXzXbXbXbXbXf.f.bXzXbXzXbXf.s.NXDXV.j.K.Q.Q.F.Y.M.'.S.S.H.H.H.H.H.H.H.H.H.H.H.H.H.H.H.H.H.H.H.H.H.H.H.H.H.H.H.H.H.H.H.H.H.H.H.H.H.H.H.H.L.L.L.L.L.L.L.L.H.H.H.H.H.H.H.H.H.H.H.H.H.H.H.H.H.H.H.H.H.H.H.H.H.H.H.H.H.H.H.H.H.H.H.H.H.H.H.H.H.H.H.H.H.H.H.H.H.H.H.H.H.H.H.H.H.H.H.H.H.H.H.H.H.H.H.H.H.H.H.H.H.H.H.H.H.H.H.H.H.H.H.H.H.H.H.H.H.H.H.H.H.H.H.H.H.H.H.H.H.H.H.H.H.H.H.H.H.H.H.H.H.H.H.H.H.H.H.H.H.H.H.H.H.H.H.H.H.H.H.H.H.H.H.H.H.H.H.H.H.H.H.H.H.H.H.H.H.H.H.H.H.H.H.H.H.H.H.H.H.H.H.H.H.H.H.H.H.H.H.H.H.H.H.H.H.H.H.H.H.H.H.H.H.H.H.H.H.H.H.H.H.H.H.H.H.H.H.H.H.H.H.H.H.H.H.H.H.H.",
"H.H.H.H.H.H.H.H.H.H.H.H.H.H.H.H.H.H.H.H.H.H.H.H.H.H.H.H.H.H.H.H.H.H.H.H.H.H.H.H.H.H.H.H.H.H.H.H.H.H.H.H.H.H.H.H.H.H.H.H.H.H.H.H.H.H.H.H.H.H.H.H.H.H.H.H.H.H.H.H.H.H.H.H.H.H.H.H.H.H.H.H.H.H.H.H.H.H.H.H.H.H.H.H.H.H.H.H.H.H.H.H.H.H.H.H.H.H.H.H.H.H.H.H.H.H.H.H.H.H.H.H.H.H.H.H.H.H.H.H.H.H.H.H.H.H.H.H.H.H.H.H.H.H.H.H.H.H.H.H.H.H.H.H.H.H.H.H.H.H.H.H.H.H.H.H.H.H.H.H.H.H.H.H.H.H.H.H.H.H.H.H.H.P.M.Q.J.Q.S.G.Q.K.M.j.j.OXJ.L.S.S.P.G.G.P.M.P.J.H.H.H.H.H.J.J.H.H.H.H.H.H.H.H.H.H.H.H.H.H.H.H.H.H.H.H.H.H.H.H.H.H.H.H.H.H.H.H.H.H.H.H.H.H.H.H.H.H.H.H.H.H.H.H.H.H.H.H.H.H.H.H.H.H.H.H.H.H.H.H.H.H.H.H.H.H.H.H.H.H.H.H.H.H.H.H.H.H.H.H.H.H.H.H.H.H.H.H.H.H.H.H.H.H.H.H.H.H.H.H.H.H.H.H.H.H.H.H.H.H.H.H.H.H.H.H.H.H.H.H.H.H.H.H.H.H.H.H.H.H.H.H.H.H.H.H.H.H.H.H.H.H.H.H.H.H.H.H.H.H.H.H.H.H.H.J.P.P.P.L.H.H.H.H.H.S.L.H.M.j.j.M.G.H.P.G.L.P.G.L.H.H.H.H.H.H.H.H.H.H.H.H.H.H.H.H.L.L.L.L.L.L.L.L.H.H.H.H.H.H.H.H.H.H.H.H.H.H.H.H.H.H.H.H.H.H.H.H.H.H.H.H.H.H.H.H.H.H.H.H.H.H.H.H.H.H.H.H.H.H.H.H.H.H.H.H.H.H.H.H.H.H.H.H.H.H.H.H.H.H.H.H.H.H.H.H.H.H.H.H.H.H.H.H.H.H.H.H.H.H.H.H.H.H.H.H.H.H.H.H.H.H.H.H.H.H.H.H.H.H.H.H.H.H.H.H.J.J.H.H.U.U.H.H.S.Y.Q.B.J.j.j.E.HXbXbXzXbXbXbXbXbXbXbXbXbXbXbXzXbXbXbXNXDXV D.H.H.H.H.H.H.H.H.L.H.H.H.H.H.H.H.H.H.H.H.H.H.H.H.H.H.H.H.H.H.H.H.H.H.H.H.H.H.H.H.H.H.H.L.L.S.S.S.H.Y.M.M.j.j.M.Q.J.H.H.H.H.H.H.H.H.H.H.H.H.H.H.H.H.H.H.H.H.H.H.H.H.H.H.H.H.H.H.H.H.H.H.H.H.H.H.H.H.H.H.H.H.H.H.H.H.H.H.H.H.H.H.H.H.H.H.H.H.H.H.H.H.H.H.H.H.H.H.H.H.H.H.H.H.H.H.H.H.L.P.J.Q.J.G.P.M.J.K.Y.P.P.J.S.H.H.H.H.H.H.H.H.H.H.H.H.H.H.H.H.H.H.H.H.H.H.H.H.H.H.H.H.H.H.H.H.H.H.H.H.H.H.H.H.H.H.H.H.H.H.H.H.H.K.H.L.L.L.G.J.J.L.H.H.H.H.J.P.P.H.H.H.H.H.H.H.H.H.H.H.H.H.H.H.H.H.H.H.H.H.H.H.H.H.H.H.H.H.H.H.H.H.H.H.H.H.H.H.H.H.H.H.H.H.H.H.H.H.H.",
"H.H.H.H.H.H.H.H.H.H.H.H.H.H.H.H.H.H.H.H.H.H.H.H.H.H.H.H.H.H.H.H.H.H.H.H.H.H.H.H.H.H.H.H.H.H.H.H.H.H.H.H.H.H.H.H.H.H.H.H.H.H.H.H.H.H.H.H.H.H.H.H.H.H.H.H.H.H.H.H.H.H.H.H.H.H.H.H.H.H.H.H.H.H.H.H.H.H.H.H.H.H.H.H.H.H.H.H.H.H.H.H.H.H.H.H.H.H.H.H.H.H.H.H.H.H.H.H.H.H.H.H.H.H.H.H.H.H.H.H.H.H.H.H.H.H.H.H.H.H.H.H.H.H.H.H.H.H.H.H.H.H.H.H.H.H.H.H.H.H.H.H.H.H.H.H.H.H.H.H.H.H.H.H.H.H.H.H.H.H.H.H.G.P.K.J.F.Q.F.Q.M.M..X.XaXY.j.F.P.H.H.P.Q.P.S.P.H.H.H.H.H.H.H.J.H.H.H.H.H.H.H.H.H.H.H.H.H.H.H.H.H.H.H.H.H.H.H.H.H.H.H.H.H.H.H.H.H.H.H.H.H.H.H.H.H.H.H.H.H.H.H.H.H.H.H.H.H.H.H.H.H.H.H.H.H.H.H.H.H.H.H.H.H.H.H.H.H.H.H.H.H.H.H.H.H.H.H.H.H.H.H.H.H.H.H.H.H.H.H.H.H.H.H.H.H.H.H.H.H.H.H.H.H.H.H.H.H.H.H.H.H.H.H.H.H.H.H.H.H.H.H.H.H.H.H.H.H.H.H.H.H.H.H.H.H.H.H.H.H.H.H.H.H.H.H.H.H.H.H.H.H.H.H.H.L.L.H.H.H.H.H.J.J.K.J.M.Y..X.X.XS.G.P.H.H.P.G.L.H.H.H.H.H.H.H.H.H.H.H.H.H.H.H.H.L.L.L.L.L.L.L.L.H.H.H.H.H.H.H.H.H.H.H.H.H.H.H.H.H.H.H.H.H.H.H.H.H.H.H.H.H.H.H.H.H.H.H.H.H.H.H.H.H.H.H.H.H.H.H.H.H.H.H.H.H.H.H.H.H.H.H.H.H.H.H.H.H.H.H.H.H.H.H.H.H.H.H.H.H.H.H.H.H.H.H.H.H.H.H.H.H.H.H.H.H.H.H.H.H.H.H.H.H.H.H.H.H.H.H.H.H.H.H.H.L.H.H.H.U.P.J.Q.K.Q.K.j.E.A.A.2XNXbXbXbXbXbXbXbXbXbXbXbXbXbXbXzXbXbXbXNXDXV D.H.H.H.H.H.H.H.H.L.H.H.H.H.H.H.H.H.H.H.H.H.H.H.H.H.H.H.H.H.H.H.H.H.H.H.H.H.H.H.H.H.H.H.L.L.H.H.J.J.M.M.aXaXaXY.j.M.H.H.H.H.H.H.H.H.H.H.H.H.H.H.H.H.H.H.H.H.H.H.H.H.H.H.H.H.H.H.H.H.H.H.H.H.H.H.H.H.H.H.H.H.H.H.H.H.H.H.H.H.H.H.H.H.H.H.H.H.H.H.H.H.H.H.H.H.H.H.H.H.H.H.H.H.H.H.H.H.S.P.J.J.G.S.P.P.H.S.S.S.J.P.G.G.H.H.H.H.H.H.H.H.H.H.H.H.H.H.H.H.H.H.H.H.H.H.H.H.H.H.H.H.H.H.H.H.H.H.H.H.H.H.H.H.H.H.H.H.H.H.H.J.Q.Q.F.S.M.M.P.P.L.P.J.J.H.H.L.L.H.H.H.H.H.H.H.H.H.H.H.H.H.H.H.H.H.H.H.H.H.H.H.H.H.H.H.H.H.H.H.H.H.H.H.H.H.H.H.H.H.H.H.H.H.H.H.H.H.H.",
"H.H.H.H.H.H.H.H.H.H.H.H.H.H.H.H.H.H.H.H.H.H.H.H.H.H.H.H.H.H.H.H.H.H.H.H.H.H.H.H.H.H.H.H.H.H.H.H.H.H.H.H.H.H.H.H.H.H.H.H.H.H.H.H.H.H.H.H.H.H.H.H.H.H.H.H.H.H.H.H.H.H.H.H.H.H.H.H.H.H.H.H.H.H.H.H.H.H.H.H.H.H.H.H.H.H.H.H.H.H.H.H.H.H.H.H.H.H.H.H.H.H.H.H.H.H.H.H.H.H.H.H.H.H.H.H.H.H.H.H.H.H.H.H.H.H.H.H.H.H.H.H.H.H.H.H.H.H.H.H.H.H.H.H.H.H.H.H.H.H.H.H.H.H.H.H.H.H.H.H.H.H.H.H.H.H.H.H.H.H.H.H.L.S.S.S.S.Y.J.P.L.E.PXLXLXIXC.!.G.H.G.F.H.S.S.H.H.J.L.H.H.H.H.J.H.H.H.H.H.H.H.H.H.H.H.H.H.H.H.H.H.H.H.H.H.H.H.H.H.H.H.H.H.H.H.H.H.H.H.H.H.H.H.H.H.H.H.H.H.H.H.H.H.H.H.H.H.H.H.H.H.H.H.H.H.H.H.H.H.H.H.H.H.H.H.H.H.H.H.H.H.H.H.H.H.H.H.H.H.H.H.H.H.H.H.H.H.H.H.H.H.H.H.H.H.H.H.H.H.H.H.H.H.H.H.H.H.H.H.H.H.H.H.H.H.H.H.H.H.H.H.H.H.H.H.H.H.H.H.H.H.H.H.H.H.H.H.H.H.H.H.H.H.H.H.H.H.H.H.H.H.H.H.H.H.H.H.H.H.H.J.J.Q.Q.Q.M.IXLXLXLXT.M.H.L.G.L.H.H.H.H.H.H.H.H.H.H.H.H.H.H.H.H.H.H.L.L.L.L.L.L.L.L.H.H.H.H.H.H.H.H.H.H.H.H.H.H.H.H.H.H.H.H.H.H.H.H.H.H.H.H.H.H.H.H.H.H.H.H.H.H.H.H.H.H.H.H.H.H.H.H.H.H.H.H.H.H.H.H.H.H.H.H.H.H.H.H.H.H.H.H.H.H.H.H.H.H.H.H.H.H.H.H.H.H.H.H.H.H.H.H.H.H.H.H.H.H.H.H.H.H.H.H.H.H.H.H.H.H.H.H.H.H.H.H.H.H.J.J.L.H.F.K.J.P.S.C.NXSXf.mXbXbXbXbXbXbXbXzXbXbXbXbXbXbXbXzXbXbXbXNXDXV D.H.H.H.H.H.H.H.H.L.H.H.H.H.H.H.H.H.H.H.H.H.H.H.H.H.H.H.H.H.H.H.H.H.H.H.H.H.H.H.H.H.H.H.H.L.H.H.Q.J.H.T.LXLXLXIXV.!.H.H.H.H.H.H.H.H.H.H.H.H.H.H.H.H.H.H.H.H.H.H.H.H.H.H.H.H.H.H.H.H.H.H.H.H.H.H.H.H.H.H.H.H.H.H.H.H.H.H.H.H.H.H.H.H.H.H.H.H.H.H.H.H.H.H.H.H.H.H.H.H.H.H.H.H.H.H.H.H.Y.P.L.S.S.S.G.L.L.P.S.L.S.H.L.L.H.H.H.H.H.H.H.H.H.H.H.H.H.H.H.H.H.H.H.H.H.H.H.H.H.H.H.H.H.H.H.H.H.H.H.H.H.H.H.H.H.H.H.H.H.H.H.H.M.L.H.Q.Q.G.L.M.H.H.J.J.H.H.L.L.H.H.H.H.H.H.H.H.H.H.H.H.H.H.H.H.H.H.H.H.H.H.H.H.H.H.H.H.H.H.H.H.H.H.H.H.H.H.H.H.H.H.H.H.H.H.H.H.H.H.",
"H.H.H.H.H.H.H.H.H.H.H.H.H.H.H.H.H.H.H.H.H.H.H.H.H.H.H.H.H.H.H.H.H.H.H.H.H.H.H.H.H.H.H.H.H.H.H.H.H.H.H.H.H.H.H.H.H.H.H.H.H.H.H.H.H.H.H.H.H.H.H.H.H.H.H.H.H.H.H.H.H.H.H.H.H.H.H.H.H.H.H.H.H.H.H.H.H.H.H.H.H.H.H.H.H.H.H.H.H.H.H.H.H.H.H.H.H.H.H.H.H.H.H.H.H.H.H.H.H.H.H.H.H.H.H.H.H.H.H.H.H.H.H.H.H.H.H.H.H.H.H.H.H.H.H.H.H.H.H.H.H.H.H.H.H.H.H.H.H.H.H.H.H.H.H.H.H.H.H.H.H.H.H.H.H.H.H.H.H.H.H.H.J.F.P.J.Q.Q.Q.M.j.T.LXLXLXIXj.Q.G.Q.!.P.P.S.Y.S.H.H.P.H.H.H.H.H.H.H.H.H.H.H.H.H.H.H.H.H.H.H.H.H.H.H.H.H.H.H.H.H.H.H.H.H.H.H.H.H.H.H.H.H.H.H.H.H.H.H.H.H.H.H.H.H.H.H.H.H.H.H.H.H.H.H.H.H.H.H.H.H.H.H.H.H.H.H.H.H.H.H.H.H.H.H.H.H.H.H.H.H.H.H.H.H.H.H.H.H.H.H.H.H.H.H.H.H.H.H.H.H.H.H.H.H.H.H.H.H.H.H.H.H.H.H.H.H.H.H.H.H.H.H.H.H.H.H.H.H.H.H.H.H.H.H.H.H.H.H.H.H.H.H.H.H.H.H.H.H.H.H.H.H.H.H.H.H.H.H.H.H.H.H.H.J.Q.P.L.g E.LXJXLXT.M.G.P.G.H.H.G.H.H.H.H.H.H.H.H.H.H.H.H.H.H.H.H.L.L.L.L.L.L.L.L.H.H.H.H.H.H.H.H.H.H.H.H.H.H.H.H.H.H.H.H.H.H.H.H.H.H.H.H.H.H.H.H.H.H.H.H.H.H.H.H.H.H.H.H.H.H.H.H.H.H.H.H.H.H.H.H.H.H.H.H.H.H.H.H.H.H.H.H.H.H.H.H.H.H.H.H.H.H.H.H.H.H.H.H.H.H.H.H.H.H.H.H.H.H.H.H.H.H.H.H.H.H.H.H.H.H.H.H.H.H.H.H.H.J.J.J.L.L.S.F.Q.Q.M.C.NXmXs.s.bXbXbXbXbXbXbXzXbXbXbXbXbXbXbXzXbXbXbXNXDXV D.H.H.H.H.H.H.H.H.L.H.H.H.H.H.H.H.H.H.H.H.H.H.H.H.H.H.H.H.H.H.H.H.H.H.H.H.H.H.H.H.H.H.H.H.H.H.H.J.J.j.k.LXLXLXIXh G.H.H.H.H.H.H.H.H.H.H.H.H.H.H.H.H.H.H.H.H.H.H.H.H.H.H.H.H.H.H.H.H.H.H.H.H.H.H.H.H.H.H.H.H.H.H.H.H.H.H.H.H.H.H.H.H.H.H.H.H.H.H.H.H.H.H.H.H.H.H.H.H.H.H.H.H.H.H.H.H.G.S.H.H.Q.P.P.M.M.Q.J.!.L.S.L.L.H.H.H.H.H.H.H.H.H.H.H.H.H.H.H.H.H.H.H.H.H.H.H.H.H.H.H.H.H.H.H.H.H.H.H.H.H.H.H.H.H.H.H.H.H.H.H.H.Y.Y.M.M.M.M.Q.Q.H.H.H.H.H.H.J.J.H.H.H.H.H.H.H.H.H.H.H.H.H.H.H.H.H.H.H.H.H.H.H.H.H.H.H.H.H.H.H.H.H.H.H.H.H.H.H.H.H.H.H.H.H.H.H.H.H.H.",
"H.H.H.H.H.H.H.H.H.H.H.H.H.H.H.H.H.H.H.H.H.H.H.H.H.H.H.H.H.H.H.H.H.H.H.H.H.H.H.H.H.H.H.H.H.H.H.H.H.H.H.H.H.H.H.H.H.H.H.H.H.H.H.H.H.H.H.H.H.H.H.H.H.H.H.H.H.H.H.H.H.H.H.H.H.H.H.H.H.H.H.H.H.H.H.H.H.H.H.H.H.H.H.H.H.H.H.H.H.H.H.H.H.H.H.H.H.H.H.H.H.H.H.H.H.H.H.H.H.H.H.H.H.H.H.H.H.H.H.H.H.H.H.H.H.H.H.H.H.H.H.H.H.H.H.H.H.H.H.H.H.H.H.H.H.H.H.H.H.H.H.H.H.H.H.H.H.H.H.H.H.H.H.H.H.H.H.H.H.H.H.H.G.F.P.K.J.j.M.M.j.C.PXLXPXIXh M.M.j.G.F.H.G.Y.S.H.H.H.H.H.H.H.H.H.H.H.H.H.H.H.H.H.H.H.H.H.H.H.H.H.H.H.H.H.H.H.H.H.H.H.H.H.H.H.H.H.H.H.H.H.H.H.H.H.H.H.H.H.H.H.H.H.H.H.H.H.H.H.H.H.H.H.H.H.H.H.H.H.H.H.H.H.H.H.H.H.H.H.H.H.H.H.H.H.H.H.H.H.H.H.H.H.H.H.H.H.H.H.H.H.H.H.H.H.H.H.H.H.H.H.H.H.H.H.H.H.H.H.H.H.H.H.H.H.H.H.H.H.H.H.H.H.H.H.H.H.H.H.H.H.H.H.H.H.H.H.H.H.H.H.H.H.H.H.H.H.H.H.H.H.H.H.H.H.H.J.J.J.J.H.H.G.G.Y.k.IXLXLXLXT.M.G.P.G.H.H.G.H.H.H.H.H.H.H.H.H.H.H.H.H.H.H.H.L.L.L.L.L.L.L.L.H.H.H.H.H.H.H.H.H.H.H.H.H.H.H.H.H.H.H.H.H.H.H.H.H.H.H.H.H.H.H.H.H.H.H.H.H.H.H.H.H.H.H.H.H.H.H.H.H.H.H.H.H.H.H.H.H.H.H.H.H.H.H.H.H.H.H.H.H.H.H.H.H.H.H.H.H.H.H.H.H.H.H.H.H.H.H.H.H.H.H.H.H.H.H.H.H.H.H.H.H.H.H.H.H.H.H.H.H.H.H.H.H.J.J.J.L.L.S.S.K.Q.K.k.cXmXzXzXbXbXzXzXbXbXzXzXbXbXbXbXbXbXbXzXbXzXbXNXDXV D.H.H.H.H.H.H.J.H.L.H.H.H.H.H.H.H.H.H.H.H.H.H.H.H.H.H.H.H.H.H.H.H.H.H.H.H.H.H.H.H.H.S.H.H.H.H.H.H.H.G.D.LXLXLXFXV.'.H.H.H.H.H.H.H.H.H.H.H.H.H.H.H.H.H.H.H.H.H.H.H.H.H.H.H.H.H.H.H.H.H.H.H.H.H.H.H.H.H.H.H.H.H.H.H.H.H.H.H.H.H.H.H.H.H.H.H.H.H.H.H.H.H.H.H.H.H.H.H.H.H.H.H.H.H.H.H.H.Q.P.P.G.G.j.M.j.j.M.j.Q.K.G.P.J.H.H.H.H.H.H.H.H.H.H.H.H.H.H.H.H.H.H.H.H.H.H.H.H.H.H.H.H.H.H.H.H.H.H.H.H.H.H.H.H.H.H.H.H.H.H.H.J.G.j.j.j.j.M.j.M.J.J.H.H.L.U.H.H.H.H.H.H.H.H.H.H.H.H.H.H.H.H.H.H.H.H.H.H.H.H.H.H.H.H.H.H.H.H.H.H.H.H.H.H.H.H.H.H.H.H.H.H.H.H.H.H.H.H.",
"H.H.H.H.H.H.H.H.H.H.H.H.H.H.H.H.H.H.H.H.H.H.H.H.H.H.H.H.H.H.H.H.H.H.H.H.H.H.H.H.H.H.H.H.H.H.H.H.H.H.H.H.H.H.H.H.H.H.H.H.H.H.H.H.H.H.H.H.H.H.H.H.H.H.H.H.H.H.H.H.H.H.H.H.H.H.H.H.H.H.H.H.H.H.H.H.H.H.H.H.H.H.H.H.H.H.H.H.H.H.H.H.H.H.H.H.H.H.H.H.H.H.H.H.H.H.H.H.H.H.H.H.H.H.H.H.H.H.H.H.H.H.H.H.H.H.H.H.H.H.H.H.H.H.H.H.H.H.H.H.H.H.H.H.H.H.H.H.H.H.H.H.H.H.H.H.H.H.H.H.H.H.H.H.H.H.H.H.H.H.H.H.S.S.Y.L.Y.C.IXPXFXPXLXLXLXPXIXPXFXD.Y.P.P.G.H.S.H.H.H.H.H.H.H.H.H.H.H.H.H.H.H.H.H.H.H.H.H.H.H.H.H.H.H.H.H.H.H.H.H.H.H.H.H.H.H.H.H.H.H.H.H.H.H.H.H.H.H.H.H.H.H.H.H.H.H.H.H.H.H.H.H.H.H.H.H.H.H.H.H.H.H.H.H.H.H.H.H.H.H.H.H.H.H.H.H.H.H.H.H.H.H.H.H.H.H.H.H.H.H.H.H.H.H.H.H.H.H.H.H.H.H.H.H.H.H.H.H.H.H.H.H.H.H.H.H.H.H.H.H.H.H.H.H.H.H.H.H.H.H.H.H.H.H.H.H.H.H.H.H.H.H.H.H.H.H.H.H.H.H.H.H.H.H.H.H.H.H.J.J.J.H.H.G.G.I.j.I.aXR..XY.M.L.L.G.L.H.H.H.H.H.H.H.H.H.H.H.H.H.H.H.H.H.H.L.L.L.L.L.L.L.L.H.H.H.H.H.H.H.H.H.H.H.H.H.H.H.H.H.H.H.H.H.H.H.H.H.H.H.H.H.H.H.H.H.H.H.H.H.H.H.H.H.H.H.H.H.H.H.H.H.H.H.H.H.H.H.H.H.H.H.H.H.H.H.H.H.H.H.H.H.H.H.H.H.H.H.H.H.H.H.H.H.H.H.H.H.H.H.H.H.H.H.H.H.H.H.H.H.H.H.H.H.H.H.H.H.H.H.H.H.H.H.H.H.H.H.L.U.L.D.S.G.P.L.V nXbXs.bXbXbXbXbXbXbXbXbXbXbXbXbXbXbXbXzXbXzXbXNXDXV D.H.H.H.H.H.H.H.H.L.H.H.H.H.H.H.H.H.H.H.H.H.H.H.H.H.H.H.H.H.H.H.H.H.H.H.H.H.H.H.H.H.H.H.J.P.H.H.H.H.F.j.aXE.E.E.j.P.H.H.H.H.H.H.H.H.H.H.H.H.H.H.H.H.H.H.H.H.H.H.H.H.H.H.H.H.H.H.H.H.H.H.H.H.H.H.H.H.H.H.H.H.H.H.H.H.H.H.H.H.H.H.H.H.H.H.H.H.H.H.H.H.H.H.H.H.H.H.H.H.H.H.H.H.H.H.H.H.F.G.S.P.Y.T.KXKXKXIXS.Q.L.H.P.G.H.H.H.H.H.H.H.H.H.H.H.H.H.H.H.H.H.H.H.H.H.H.H.H.H.H.H.H.H.H.H.H.H.H.H.H.H.H.H.H.H.H.H.H.H.H.H.H.Q.S.FXKXPXFXC.I.J.J.H.U.U.L.H.H.H.H.H.H.H.H.H.H.H.H.H.H.H.H.H.H.H.H.H.H.H.H.H.H.H.H.H.H.H.H.H.H.H.H.H.H.H.H.H.H.H.H.H.H.H.H.H.H.H.H.",
"H.H.H.H.H.H.H.H.H.H.H.H.H.H.H.H.H.H.H.H.H.H.H.H.H.H.H.H.H.H.H.H.H.H.H.H.H.H.H.H.H.H.H.H.H.H.H.H.H.H.H.H.H.H.H.H.H.H.H.H.H.H.H.H.H.H.H.H.H.H.H.H.H.H.H.H.H.H.H.H.H.H.H.H.H.H.H.H.H.H.H.H.H.H.H.H.H.H.H.H.H.H.H.H.H.H.H.H.H.H.H.H.H.H.H.H.H.H.H.H.H.H.H.H.H.H.H.H.H.H.H.H.H.H.H.H.H.H.H.H.H.H.H.H.H.H.H.H.H.H.H.H.H.H.H.H.H.H.H.H.H.H.H.H.H.H.H.H.H.H.H.H.H.H.H.H.H.H.H.H.H.H.H.H.H.H.H.H.H.H.H.H.J.Q.K.M.J.g PXLXLXLXJXJXJXJXLXLXLXV.S.S.K.G.P.Y.H.H.H.H.H.H.H.H.H.H.H.H.H.H.H.H.H.H.H.H.H.H.H.H.H.H.H.H.H.H.H.H.H.H.H.H.H.H.H.H.H.H.H.H.H.H.H.H.H.H.H.H.H.H.H.H.H.H.H.H.H.H.H.H.H.H.H.H.H.H.H.H.H.H.H.H.H.H.H.H.H.H.H.H.H.H.H.H.H.H.H.H.H.H.H.H.H.H.H.H.H.H.H.H.H.H.H.H.H.H.H.H.H.H.H.H.H.H.H.H.H.H.H.H.H.H.H.H.H.H.H.H.H.H.H.H.H.H.H.H.H.H.H.H.H.H.H.H.H.H.H.H.H.H.H.H.H.H.H.H.H.H.H.H.H.H.H.H.L.L.H.H.H.H.H.H.P.K.P.M.M.G.j.j.H.S.P.H.H.P.G.L.H.H.H.H.H.H.H.H.H.H.H.H.H.H.H.H.L.L.L.L.L.L.L.L.H.H.H.H.H.H.H.H.H.H.H.H.H.H.H.H.H.H.H.H.H.H.H.H.H.H.H.H.H.H.H.H.H.H.H.H.H.H.H.H.H.H.H.H.H.H.H.H.H.H.H.H.H.H.H.H.H.H.H.H.H.H.H.H.H.H.H.H.H.H.H.H.H.H.H.H.H.H.H.H.H.H.H.H.H.H.H.H.H.H.H.H.H.H.H.H.H.H.H.H.H.H.H.H.H.H.H.H.H.H.H.H.H.L.S.H.J.J.P.P.K.Q.K.k.NXnXbXnXzXbXbXbXbXzXbXbXbXbXbXbXbXbXbXzXbXbXbXNXDXV D.L.H.H.H.H.H.H.H.H.H.H.H.H.H.H.H.H.H.H.H.H.H.H.H.H.H.H.H.H.H.H.H.H.H.H.H.H.H.H.H.H.H.H.P.P.H.H.H.H.Q.M.M.j.j.j.G.Q.H.H.H.H.H.H.H.H.H.H.H.H.H.H.H.H.H.H.H.H.H.H.H.H.H.H.H.H.H.H.H.H.H.H.H.H.H.H.H.H.H.H.H.H.H.H.H.H.H.H.H.H.H.H.H.H.H.H.H.H.H.H.H.H.H.H.H.H.H.H.H.H.H.H.H.H.H.H.H.H.P.Y.S.L.M.k.LXLXLXFXV.M.S.S.T.S.H.H.H.H.H.H.H.H.H.H.H.H.H.H.H.H.H.H.H.H.H.H.H.H.H.H.H.H.H.H.H.H.H.H.H.H.H.H.H.H.H.H.H.H.H.H.H.H.G.g LXLXLXLXg S.H.J.H.L.P.J.H.H.H.H.H.H.H.H.H.H.H.H.H.H.H.H.H.H.H.H.H.H.H.H.H.H.H.H.H.H.H.H.H.H.H.H.H.H.H.H.H.H.H.H.H.H.H.H.H.H.H.H.",
"H.H.H.H.H.H.H.H.H.H.H.H.H.H.H.H.H.H.H.H.H.H.H.H.H.H.H.H.H.H.H.H.H.H.H.H.H.H.H.H.H.H.H.H.H.H.H.H.H.H.H.H.H.H.H.H.H.H.H.H.H.H.H.H.H.H.H.H.H.H.H.H.H.H.H.H.H.H.H.H.H.H.H.H.H.H.H.H.H.H.H.H.H.H.H.H.H.H.H.H.H.H.H.H.H.H.H.H.H.H.H.H.H.H.H.H.H.H.H.H.H.H.H.H.H.H.H.H.H.H.H.H.H.H.H.H.H.H.H.H.H.H.H.H.H.H.H.H.H.H.H.H.H.H.H.H.H.H.H.H.H.H.H.H.H.H.H.H.H.H.H.H.H.H.H.H.H.H.H.H.H.H.H.H.H.H.H.H.H.H.H.H.S.Y.G.P.Q.g PXLXJXLXJXLXLXLXLXLXLXg D.L.J.P.G.S.H.H.H.H.H.H.H.H.H.H.H.H.H.H.H.H.H.H.H.H.H.H.H.H.H.H.H.H.H.H.H.H.H.H.H.H.H.H.H.H.H.H.H.H.H.H.H.H.H.H.H.H.H.H.H.H.H.H.H.H.H.H.H.H.H.H.H.H.H.H.H.H.H.H.H.H.H.H.H.H.H.H.H.H.H.H.H.H.H.H.H.H.H.H.H.H.H.H.H.H.H.H.H.H.H.H.H.H.H.H.H.H.H.H.H.H.H.H.H.H.H.H.H.H.H.H.H.H.H.H.H.H.H.H.H.H.H.H.H.H.H.H.H.H.H.H.H.H.H.H.H.H.H.H.H.H.H.H.H.H.H.H.H.H.H.H.H.H.L.L.L.L.H.H.H.H.P.S.H.H.L.L.H.Y.S.H.P.G.L.P.G.L.H.H.H.H.H.H.H.H.H.H.H.H.H.H.H.H.L.L.L.L.L.L.L.L.H.H.H.H.H.H.H.H.H.H.H.H.H.H.H.H.H.H.H.H.H.H.H.H.H.H.H.H.H.H.H.H.H.H.H.H.H.H.H.H.H.H.H.H.H.H.H.H.H.H.H.H.H.H.H.H.H.H.H.H.H.H.H.H.H.H.H.H.H.H.H.H.H.H.H.H.H.H.H.H.H.H.H.H.H.H.H.H.H.H.H.H.H.H.H.H.H.H.H.H.H.H.H.H.H.H.H.H.H.H.H.H.L.L.S.S.J.J.H.L.P.P.F.V NXMXs.s.bXbXbXbXbXzXbXbXbXbXbXbXbXbXbXzXbXbXbXNXDXV D.L.H.H.H.H.H.H.H.H.H.H.H.H.H.H.H.H.H.H.H.H.H.H.H.H.H.H.H.H.H.H.H.H.H.H.H.H.H.H.H.H.H.H.L.L.H.H.G.H.F.P.J.Q.Q.M.!.S.H.H.H.H.H.H.H.H.H.H.H.H.H.H.H.H.H.H.H.H.H.H.H.H.H.H.H.H.H.H.H.H.H.H.H.H.H.H.H.H.H.H.H.H.H.H.H.H.H.H.H.H.H.H.H.H.H.H.H.H.H.H.H.H.H.H.H.H.H.H.H.H.H.H.H.H.H.H.H.H.K.P.M.'.M.V.LXLXLXIXj.Q.Q.P.L.S.H.H.H.H.H.H.H.H.H.H.H.H.H.H.H.H.H.H.H.H.H.H.H.H.H.H.H.H.H.H.H.H.H.H.H.H.H.H.H.H.H.H.H.H.H.H.H.J.(.g LXLXLXLXg Q.Q.J.S.L.U.P.H.H.H.H.H.H.H.H.H.H.H.H.H.H.H.H.H.H.H.H.H.H.H.H.H.H.H.H.H.H.H.H.H.H.H.H.H.H.H.H.H.H.H.H.H.H.H.H.H.H.H.H.",
"H.H.H.H.H.H.H.H.H.H.H.H.H.H.H.H.H.H.H.H.H.H.H.H.H.H.H.H.H.H.H.H.H.H.H.H.H.H.H.H.H.H.H.H.H.H.H.H.H.H.H.H.H.H.H.H.L.L.L.L.L.L.L.L.H.H.H.H.H.H.H.H.H.H.H.H.H.H.H.H.H.H.H.H.H.H.H.H.H.H.H.H.H.H.H.H.H.H.H.H.H.H.H.H.H.H.H.H.H.H.H.H.H.H.H.H.H.H.H.H.H.H.H.H.H.H.H.H.H.H.H.H.H.H.H.H.H.H.H.H.H.H.H.H.H.H.H.H.H.H.H.H.H.H.H.H.H.H.H.H.H.H.H.H.H.H.H.H.H.H.H.H.H.H.H.H.H.H.H.H.H.H.H.H.H.H.H.H.H.H.H.L.L.U.G.G.M.C.IXLXPXDXLXJXLXJXDXLXKXT.V.L.S.S.Y.G.H.H.H.H.H.H.L.H.H.H.H.H.H.H.H.H.H.H.H.H.H.H.H.H.H.H.H.H.H.H.H.H.H.H.H.H.H.H.H.H.H.H.H.H.H.H.H.H.H.H.H.H.H.H.H.H.H.H.H.H.H.H.H.H.H.H.H.H.H.H.H.H.H.H.H.H.H.H.H.H.H.H.H.H.H.H.H.H.H.H.H.H.H.H.H.H.H.H.H.H.H.H.H.H.H.H.H.H.H.H.H.H.H.H.H.H.H.H.H.H.H.H.H.H.H.H.H.H.H.H.H.H.H.H.H.H.H.H.H.H.H.H.H.H.H.H.H.H.H.H.H.H.H.H.H.H.H.H.H.H.H.H.H.H.H.H.H.H.H.H.H.H.H.H.H.H.H.H.H.H.H.H.H.H.H.H.H.H.H.H.H.H.H.H.H.H.H.H.H.H.H.H.H.H.H.H.H.H.H.H.H.H.H.H.H.H.H.H.H.H.H.H.H.H.H.H.H.H.H.H.H.H.H.H.H.H.H.H.H.H.H.H.H.H.H.H.H.H.H.H.H.H.H.H.H.H.H.H.H.H.H.H.H.H.H.H.H.H.H.H.H.H.H.H.H.H.H.H.H.H.H.H.H.H.H.H.H.H.H.H.H.H.H.H.H.H.H.H.H.H.H.H.H.H.H.H.H.H.H.H.H.H.H.H.H.H.H.H.H.H.H.H.H.H.H.H.H.H.L.L.L.L.H.H.H.H.H.P.F.k.NXbXbXbXbXbXbXbXbXbXbXbXbXbXbXbXbXbXbXbXf.bXs.NXDXV D.M.G.U.U.L.Y.Y.H.H.H.H.H.H.H.H.H.H.H.H.H.H.H.H.H.H.H.H.H.H.H.H.H.H.H.H.H.H.H.H.H.H.H.H.H.H.H.H.H.H.H.H.H.H.H.H.H.H.H.H.H.H.H.H.H.H.H.H.H.H.H.H.H.H.H.H.H.H.H.H.H.H.H.H.H.H.H.H.H.H.H.H.H.H.H.H.H.H.H.H.H.H.H.H.H.H.H.H.H.H.H.H.H.H.H.H.H.H.H.H.H.H.H.H.H.H.H.H.H.H.H.H.H.H.H.H.H.H.L.P.J.L.V.T.FXLXLXIXC.V.G.P.G.L.H.H.H.H.H.H.H.H.H.H.H.H.H.H.H.H.H.H.H.H.H.H.H.H.H.H.H.H.H.H.H.H.H.H.H.H.H.H.H.H.H.H.H.H.H.H.H.H.S.k.FXLXLXFXC.S.H.H.H.H.H.L.L.L.H.H.H.H.H.H.H.H.H.H.H.H.H.H.H.H.H.H.H.H.H.H.H.H.H.H.H.H.H.H.H.H.H.H.H.H.H.H.H.H.H.H.H.H.H.H.H.H.H.H.",
"H.H.H.H.H.H.H.H.H.H.H.H.H.H.H.H.H.H.H.H.H.H.H.H.H.H.H.H.H.H.H.H.H.H.H.H.H.H.H.H.H.H.H.H.H.H.H.H.H.H.H.H.H.H.H.H.L.L.L.L.L.L.L.L.H.H.H.H.H.H.H.H.H.H.H.H.H.H.H.H.H.H.H.H.H.H.H.H.H.H.H.H.H.H.H.H.H.H.H.H.H.H.H.H.H.H.H.H.H.H.H.H.H.H.H.H.H.H.H.H.H.H.H.H.H.H.H.H.H.H.H.H.H.H.H.H.H.H.H.H.H.H.H.H.H.H.H.H.H.H.H.H.H.H.H.H.H.H.H.H.H.H.H.H.H.H.H.H.H.H.H.H.H.H.H.H.H.H.H.H.H.H.H.H.H.H.H.H.H.H.H.L.G.P.P.'.Q.M.j.j.j.C.PXLXLXaXh j.S.j.S.Y.L.L.H.G.H.H.H.H.H.H.H.H.H.H.H.H.H.H.H.H.H.H.H.H.H.H.H.H.H.H.H.H.H.H.H.H.H.H.H.H.H.H.H.H.H.H.H.H.H.H.H.H.H.H.H.H.H.H.H.H.H.H.H.H.H.H.H.H.H.H.H.H.H.H.H.H.H.H.H.H.H.H.H.H.H.H.H.H.H.H.H.H.H.H.H.H.H.H.H.H.H.H.H.H.H.H.H.H.H.H.H.H.H.H.H.H.H.H.H.H.H.H.H.H.H.H.H.H.H.H.H.H.H.H.H.H.H.H.H.H.H.H.H.H.H.H.H.H.H.H.H.H.H.H.H.H.H.H.H.H.H.H.H.H.H.H.H.H.H.H.H.H.H.H.H.H.H.H.H.H.H.H.H.H.H.H.H.H.H.H.H.H.H.H.H.H.H.H.H.H.H.H.H.H.H.H.H.H.H.H.H.H.H.H.H.H.H.H.H.H.H.H.H.H.H.H.H.H.H.H.H.H.H.H.H.H.H.H.H.H.H.H.H.H.H.H.H.H.H.H.H.H.H.H.H.H.H.H.H.H.H.H.H.H.H.H.H.H.H.H.H.H.H.H.H.H.H.H.H.H.H.H.H.H.H.H.H.H.H.H.H.H.H.H.H.H.H.H.H.H.H.H.H.H.H.H.H.H.H.H.H.H.H.H.H.H.H.H.H.H.H.H.H.H.H.H.H.H.H.H.H.H.L.L.H.L.H.H.H.H.H.P.F.k.NXbXbXbXbXbXbXbXbXbXbXbXbXbXbXbXbXbXbXzXnXzXzXNXDXV D.Q.S.L.L.L.J.G.M.G.L.H.H.H.H.H.H.H.H.H.H.H.H.H.H.H.H.H.H.H.H.H.H.H.H.H.H.H.H.H.H.H.H.H.H.H.H.H.H.H.H.H.H.H.H.H.H.H.H.H.H.H.H.H.H.H.H.H.H.H.H.H.H.H.H.H.H.H.H.H.H.H.H.H.H.H.H.H.H.H.H.H.H.H.H.H.H.H.H.H.H.H.H.H.H.H.H.H.H.H.H.H.H.H.H.H.H.H.H.H.H.H.H.H.H.H.H.H.H.H.H.H.H.H.H.H.H.H.H.G.K.Q.M.j.M.j.j.j.M.Q.Q.Q.J.H.H.H.H.H.H.H.H.H.H.H.H.H.H.H.H.H.H.H.H.H.H.H.H.H.H.H.H.H.H.H.H.H.H.H.H.H.H.H.H.H.H.H.H.H.H.H.H.J.Q.j.j.j.j.M.j.Q.Q.J.H.J.P.P.P.P.H.H.H.H.H.H.H.H.H.H.H.H.H.H.H.H.H.H.H.H.H.H.H.H.H.H.H.H.H.H.H.H.H.H.H.H.H.H.H.H.H.H.H.H.H.H.H.H.H.H.",
"H.H.H.H.H.H.H.H.H.H.H.H.H.H.H.H.H.H.H.H.H.H.H.H.H.H.H.H.H.H.H.H.H.H.H.H.H.H.H.H.H.H.H.H.H.H.H.H.H.H.H.H.H.H.H.H.H.H.H.H.H.H.H.H.H.H.H.H.H.H.H.H.H.H.H.H.H.H.H.H.H.H.H.H.H.H.H.H.H.H.H.H.H.H.H.H.H.H.H.H.H.H.H.H.H.H.H.H.H.H.H.H.H.H.H.H.H.H.H.H.H.H.H.H.H.H.H.H.H.H.H.H.H.H.H.H.H.H.H.H.H.H.H.H.H.H.H.H.H.H.H.H.H.H.H.H.H.H.H.H.H.H.H.H.H.H.H.H.H.H.H.H.H.H.H.H.H.H.H.H.H.H.H.H.H.H.H.H.H.H.H.H.S.S.S.S.P.Q.Q.K.j.T.LXLXLXgXj.Q.M.L.Y.S.G.P.H.P.J.J.J.H.H.H.H.H.H.H.H.H.H.H.H.H.H.H.H.H.H.H.H.H.H.H.H.H.H.H.H.H.H.H.H.H.H.H.H.H.H.H.H.H.H.H.H.H.H.H.H.H.H.H.H.H.H.H.H.H.H.H.H.H.H.H.H.H.H.H.H.H.H.H.H.H.H.H.H.H.H.H.H.H.H.H.H.H.H.H.H.H.H.H.H.H.H.H.H.H.H.H.H.H.H.H.H.H.H.H.H.H.H.H.H.H.H.H.H.H.H.H.H.H.H.H.H.H.H.H.H.H.H.H.H.H.H.H.H.H.H.H.H.H.H.H.H.H.H.H.H.H.H.H.H.H.H.H.H.H.H.H.H.H.H.H.H.H.H.H.H.H.H.H.H.H.H.H.H.H.H.H.H.H.H.H.H.H.H.H.H.H.H.H.H.H.H.H.H.H.H.H.H.H.H.H.H.H.H.H.H.H.H.H.H.H.H.H.H.H.H.H.H.H.H.H.H.H.H.H.H.H.H.H.H.H.H.H.H.H.H.H.H.H.H.H.H.H.H.H.H.H.H.H.H.H.H.H.H.H.H.H.H.H.H.H.H.H.H.H.H.H.H.H.H.H.H.H.H.H.H.H.H.H.H.H.H.H.H.H.H.H.H.H.H.H.H.H.H.H.H.H.H.H.H.H.H.H.H.H.H.H.H.H.H.H.H.H.H.H.H.H.H.H.H.H.H.H.L.L.L.L.H.H.H.H.H.P.F.k.NXbXzXbXbXbXbXbXbXbXbXbXbXbXbXbXbXbXbXbXzXs.f.NXDXV S.Q.K.F.J.J.J.G.L.L.H.H.H.H.H.H.H.H.H.H.H.H.H.H.H.H.H.H.H.H.H.H.H.H.H.H.H.H.H.H.H.H.H.H.H.H.H.H.H.H.H.H.H.H.H.H.H.H.H.H.H.H.H.H.H.H.H.H.H.H.H.H.H.H.H.H.H.H.H.H.H.H.H.H.H.H.H.H.H.H.H.H.H.H.H.H.H.H.H.H.H.H.H.H.H.H.H.H.H.H.H.H.H.H.H.H.H.H.H.H.H.H.H.H.H.H.H.H.H.H.H.H.H.H.H.H.H.H.P.P.S.Y.Y.P.Q.K.G.P.P.H.S.S.S.S.H.H.H.H.H.H.H.H.H.H.H.H.H.H.H.H.H.H.H.H.H.H.H.H.H.H.H.H.H.H.H.H.H.H.H.H.H.H.H.H.H.H.H.H.H.H.H.H.H.Y.H.G.K.Q.Q.P.S.S.S.S.H.J.L.H.H.H.H.H.H.H.H.H.H.H.H.H.H.H.H.H.H.H.H.H.H.H.H.H.H.H.H.H.H.H.H.H.H.H.H.H.H.H.H.H.H.H.H.H.H.H.H.H.H.H.",
"H.H.H.H.H.H.H.H.H.H.H.H.H.H.H.H.H.H.H.H.H.H.H.H.H.H.H.H.H.H.H.H.H.H.H.H.H.H.H.H.H.H.H.H.H.H.H.H.H.H.H.H.H.H.H.H.H.H.H.H.H.H.H.H.H.H.H.H.H.H.H.H.H.H.H.H.H.H.H.H.H.H.H.H.H.H.H.H.H.H.H.H.H.H.H.H.H.H.H.H.H.H.H.H.H.H.H.H.H.H.H.H.H.H.H.H.H.H.H.H.H.H.H.H.H.H.H.H.H.H.H.H.H.H.H.H.H.H.H.H.H.H.H.H.H.H.H.H.H.H.H.H.H.H.H.H.H.H.H.H.H.H.H.H.H.H.H.H.H.H.H.H.H.H.H.H.H.H.H.H.H.H.H.H.H.H.H.H.H.H.H.J.Q.Q.Y.S.S.H.P.P.M.T.PXLXLXIXC.P.L.P.H.G.P.P.G.G.J.J.H.H.H.H.H.H.H.H.H.H.H.H.H.H.H.H.H.H.H.H.H.H.H.H.H.H.H.H.H.H.H.H.H.H.H.H.H.H.H.H.H.H.H.H.H.H.H.H.H.H.H.H.H.H.H.H.H.H.H.H.H.H.H.H.H.H.H.H.H.H.H.H.H.H.H.H.H.H.H.H.H.H.H.H.H.H.H.H.H.H.H.H.H.H.H.H.H.H.H.H.H.H.H.H.H.H.H.H.H.H.H.H.H.H.H.H.H.H.H.H.H.H.H.H.H.H.H.H.H.H.H.H.H.H.H.H.H.H.H.H.H.H.H.H.H.H.H.H.H.H.H.H.H.H.H.H.H.H.H.H.H.H.H.H.H.H.H.H.H.H.H.H.H.H.H.H.H.H.H.H.H.H.H.H.H.H.H.H.H.H.H.H.H.H.H.H.H.H.H.H.H.H.H.H.H.H.H.H.H.H.H.H.H.H.H.H.H.H.H.H.H.H.H.H.H.H.H.H.H.H.H.H.H.H.H.H.H.H.H.H.H.H.H.H.H.H.H.H.H.H.H.H.H.H.H.H.H.H.H.H.H.H.H.H.H.H.H.H.H.H.H.H.H.H.H.H.H.H.H.H.H.H.H.H.H.H.H.H.H.H.H.H.H.H.H.H.H.H.H.H.H.H.H.H.H.H.H.H.H.H.H.H.H.H.H.H.H.H.H.H.H.H.H.H.H.H.L.L.L.L.H.H.H.H.H.P.F.k.NXbXzXbXbXbXbXbXbXbXbXbXbXbXbXbXbXbXbXbXf.s.zXNXvXV V.j.Q.B.F.F.F.G.G.H.H.H.H.H.H.H.H.H.H.H.H.H.H.H.H.H.H.H.H.H.H.H.H.H.H.H.H.H.H.H.H.H.H.H.H.H.H.H.H.H.H.H.H.H.H.H.H.H.H.H.H.H.H.H.H.H.H.H.H.H.H.H.H.H.H.H.H.H.H.H.H.H.H.H.H.H.H.H.H.H.H.H.H.H.H.H.H.H.H.H.H.H.H.H.H.H.H.H.H.H.H.H.H.H.H.H.H.H.H.H.H.H.H.H.H.H.H.H.H.H.H.H.H.H.H.H.H.H.G.P.S.S.S.M.L.P.Y.Y.S.S.S.P.Q.Q.H.H.H.H.H.H.H.H.H.H.H.H.H.H.H.H.H.H.H.H.H.H.H.H.H.H.H.H.H.H.H.H.H.H.H.H.H.H.H.H.H.H.H.H.H.H.H.H.S.L.S.Y.Y.G.P.S.S.H.J.J.Q.Q.H.H.H.H.H.H.H.H.H.H.H.H.H.H.H.H.H.H.H.H.H.H.H.H.H.H.H.H.H.H.H.H.H.H.H.H.H.H.H.H.H.H.H.H.H.H.H.H.H.H.H.H.",
"H.H.H.H.H.H.H.H.H.H.H.H.H.H.H.H.H.H.H.H.H.H.H.H.H.H.H.H.H.H.H.H.H.H.H.H.H.H.H.H.H.H.H.H.H.H.H.H.H.H.H.H.H.H.H.H.H.H.H.H.H.H.H.H.H.H.H.H.H.H.H.H.H.H.H.H.H.H.H.H.H.H.H.H.H.H.H.H.H.H.H.H.H.H.H.H.H.H.H.H.H.H.H.H.H.H.H.H.H.H.H.H.H.H.H.H.H.H.H.H.H.H.H.H.H.H.H.H.H.H.H.H.H.H.H.H.H.H.H.H.H.H.H.H.H.H.H.H.H.H.H.H.H.H.H.H.H.H.H.H.H.H.H.H.H.H.H.H.H.H.H.H.H.H.H.H.H.H.H.H.H.H.H.H.H.H.H.H.H.H.H.H.G.M.S.H.P.P.S.G.M.G.aXaXIXY.M.M.M.G.H.P.P.G.H.P.H.H.H.H.H.H.H.H.H.H.H.H.H.H.H.H.H.H.H.H.H.H.H.H.H.H.H.H.H.H.H.H.H.H.H.H.H.H.H.H.H.H.H.H.H.H.H.H.H.H.H.H.H.H.H.H.H.H.H.H.H.H.H.H.H.H.H.H.H.H.H.H.H.H.H.H.H.H.H.H.H.H.H.H.H.H.H.H.H.H.H.H.H.H.H.H.H.H.H.H.H.H.H.H.H.H.H.H.H.H.H.H.H.H.H.H.H.H.H.H.H.H.H.H.H.H.H.H.H.H.H.H.H.H.H.H.H.H.H.H.H.H.H.H.H.H.H.H.H.H.H.H.H.H.H.H.H.H.H.H.H.H.H.H.H.H.H.H.H.H.H.H.H.H.H.H.H.H.H.H.H.H.H.H.H.H.H.H.H.H.H.H.H.H.H.H.H.H.H.H.H.H.H.H.H.H.H.H.H.H.H.H.H.H.H.H.H.H.H.H.H.H.H.H.H.H.H.H.H.H.H.H.H.H.H.H.H.H.H.H.H.H.H.H.H.H.H.H.H.H.H.H.H.H.H.H.H.H.H.H.H.H.H.H.H.H.H.H.H.H.H.H.H.H.H.H.H.H.H.H.H.H.H.H.H.H.H.H.H.H.H.H.H.H.H.H.H.H.H.H.H.H.H.H.H.H.H.H.H.H.H.H.H.H.H.H.H.H.H.H.H.H.H.H.H.H.H.H.L.L.L.L.H.H.H.H.H.P.F.k.NXbXzXbXbXbXbXbXbXbXbXbXbXbXbXbXbXbXbXzXbXzXbXnXNXgXgXDXE.S.S.L.S.L.J.J.J.H.H.H.H.H.H.H.H.H.H.H.H.H.H.H.H.H.H.H.H.H.H.H.H.H.H.H.H.H.H.H.H.H.H.H.H.H.H.H.H.H.H.H.H.H.H.H.H.H.H.H.H.H.H.H.H.H.H.H.H.H.H.H.H.H.H.H.H.H.H.H.H.H.H.H.H.H.H.H.H.H.H.H.H.H.H.H.H.H.H.H.H.H.H.H.H.H.H.H.H.H.H.H.H.H.H.H.H.H.H.H.H.H.H.H.H.H.H.H.H.H.H.H.H.H.H.H.S.L.G.P.Q.P.P.G.G.J.P.P.H.S.S.S.H.H.H.H.H.H.H.H.H.H.H.H.H.H.H.H.H.H.H.H.H.H.H.H.H.H.H.H.H.H.H.H.H.H.H.H.H.H.H.H.H.H.H.H.H.H.H.H.Q.J.S.G.S.S.H.Y.H.J.G.J.J.H.S.H.H.H.H.H.H.H.H.H.H.H.H.H.H.H.H.H.H.H.H.H.H.H.H.H.H.H.H.H.H.H.H.H.H.H.H.H.H.H.H.H.H.H.H.H.H.H.H.H.H.H.",
"H.H.H.H.H.H.H.H.H.H.H.H.H.H.H.H.H.H.H.H.H.H.H.H.H.H.H.H.H.H.H.H.H.H.H.H.H.H.H.H.H.H.H.H.H.H.H.H.H.H.H.H.H.H.H.H.H.H.H.H.H.H.H.H.H.H.H.H.H.H.H.H.H.H.H.H.H.H.H.H.H.H.H.H.H.H.H.H.H.H.H.H.H.H.H.H.H.H.H.H.H.H.H.H.H.H.H.H.H.H.H.H.H.H.H.H.H.H.H.H.H.H.H.H.H.H.H.H.H.H.H.H.H.H.H.H.H.H.H.H.H.H.H.H.H.H.H.H.H.H.H.H.H.H.H.H.H.H.H.H.H.H.H.H.H.H.H.H.H.H.H.H.H.H.H.H.H.H.H.H.H.H.H.H.H.H.H.H.H.H.H.H.Y.S.S.S.H.H.S.Y.Q.M.M.j.j.j.H.!.P.Y.L.H.F.G.P.L.H.H.H.H.H.H.H.H.H.H.H.H.H.H.H.H.H.H.H.H.H.H.H.H.H.H.H.H.H.H.H.H.H.H.H.H.H.H.H.H.H.H.H.H.H.H.H.H.H.H.H.H.H.H.H.H.H.H.H.H.H.H.H.H.H.H.H.H.H.H.H.H.H.H.H.H.H.H.H.H.H.H.H.H.H.H.H.H.H.H.H.H.H.H.H.H.H.H.H.H.H.H.H.H.H.H.H.H.H.H.H.H.H.H.H.H.H.H.H.H.H.H.H.H.H.H.H.H.H.H.H.H.H.H.H.H.H.H.H.H.H.H.H.H.H.H.H.H.H.H.H.H.H.H.H.H.H.H.H.H.H.H.H.H.H.H.H.H.H.H.H.H.H.H.H.H.H.H.H.H.H.H.H.H.H.H.H.H.H.H.H.H.H.H.H.H.H.H.H.H.H.H.H.H.H.H.H.H.H.H.H.H.H.H.H.H.H.H.H.H.H.H.H.H.H.H.H.H.H.H.H.H.H.H.H.H.H.H.H.H.H.H.H.H.H.H.H.H.H.H.H.H.H.H.H.H.H.H.H.H.H.H.H.H.H.H.H.H.H.H.H.H.H.H.H.H.H.H.H.H.H.H.H.H.H.H.H.H.H.H.H.H.H.H.H.H.H.H.H.H.H.H.H.H.H.H.H.H.H.H.H.H.H.H.H.H.H.H.H.H.H.H.H.H.H.H.H.H.L.L.L.L.H.H.H.H.H.P.F.k.NXbXbXbXbXbXbXbXbXbXbXbXbXbXbXbXbXbXbXbXzXzXbXf.f.f.f.BX2Xk.D.P.D.Y.L.P.H.H.H.H.H.H.H.H.H.H.H.H.H.H.H.H.H.H.H.H.H.H.H.H.H.H.H.H.H.H.H.H.H.H.H.H.H.H.H.H.H.H.H.H.H.H.H.H.H.H.H.H.H.H.H.H.H.H.H.H.H.H.H.H.H.H.H.H.H.H.H.H.H.H.H.H.H.H.H.H.H.H.H.H.H.H.H.H.H.H.H.H.H.H.H.H.H.H.H.H.H.H.H.H.H.H.H.H.H.H.H.H.H.H.H.H.H.H.H.H.H.H.H.H.H.H.H.H.L.L.S.S.G.G.S.L.Y.L.H.H.H.S.S.Y.H.H.H.H.H.H.H.H.H.H.H.H.H.H.H.H.H.H.H.H.H.H.H.H.H.H.H.H.H.H.H.H.H.H.H.H.H.H.H.H.H.H.H.H.H.H.H.H.F.S.Y.L.L.Y.G.F.H.S.S.S.S.S.H.H.H.H.H.H.H.H.H.H.H.H.H.H.H.H.H.H.H.H.H.H.H.H.H.H.H.H.H.H.H.H.H.H.H.H.H.H.H.H.H.H.H.H.H.H.H.H.H.H.H.H.",
"H.H.H.H.H.H.H.H.H.H.H.H.H.H.H.H.H.H.H.H.H.H.H.H.H.H.H.H.H.H.H.H.H.H.H.H.H.H.H.H.H.H.H.H.H.H.H.H.H.H.H.H.H.H.H.H.H.H.H.H.H.H.H.H.H.H.H.H.H.H.H.H.H.H.H.H.H.H.H.H.H.H.H.H.H.H.H.H.H.H.H.H.H.H.H.H.H.H.H.H.H.H.H.H.H.H.H.H.H.H.H.H.H.H.H.H.H.H.H.H.H.H.H.H.H.H.H.H.H.H.H.H.H.H.H.H.H.H.H.H.H.H.H.H.H.H.H.H.H.H.H.H.H.H.H.H.H.H.H.H.H.H.H.H.H.H.H.H.H.H.H.H.H.H.H.H.H.H.H.H.H.H.H.H.H.H.H.H.H.H.H.H.G.G.Q.P.K.K.S.Y.M.Q.!.P.{.H.L.S.S.H.S.L.P.L.L.j.H.H.H.H.H.H.H.H.H.H.H.H.H.H.H.H.H.H.H.H.H.H.H.H.H.H.H.H.H.H.H.H.H.H.H.H.H.H.H.H.H.H.H.H.H.H.H.H.H.H.H.H.H.H.H.H.H.H.H.H.H.H.H.H.H.H.H.H.H.H.H.H.H.H.H.H.H.H.H.H.H.H.H.H.H.H.H.H.H.H.H.H.H.H.H.H.H.H.H.H.H.H.H.H.H.H.H.H.H.H.H.H.H.H.H.H.H.H.H.H.H.H.H.H.H.H.H.H.H.H.H.H.H.H.H.H.H.H.H.H.H.H.H.H.H.H.H.H.H.H.H.H.H.H.H.H.H.H.H.H.H.H.H.H.H.H.H.H.H.H.H.H.H.H.H.H.H.H.H.H.H.H.H.H.H.H.H.H.H.H.H.H.H.H.H.H.H.H.H.H.H.H.H.H.H.H.H.H.H.H.H.H.H.H.H.H.H.H.H.H.H.H.H.H.H.H.H.H.H.H.H.H.H.H.H.H.H.H.H.H.H.H.H.H.H.H.H.H.H.H.H.H.H.H.H.H.H.H.H.H.H.H.H.H.H.H.H.H.H.H.H.H.H.H.H.H.H.H.H.H.H.H.H.H.H.H.H.H.H.H.H.H.H.H.H.H.H.H.H.H.H.H.H.H.H.H.H.H.H.H.H.H.H.H.H.H.H.H.H.H.H.H.H.H.H.H.H.H.L.L.L.L.H.H.H.H.H.P.F.k.NXbXbXbXbXbXbXbXbXbXbXbXbXbXbXbXbXbXbXbXzXzXMXbXbXbXf.NXE.j.M.Q.M.J.F.J.H.H.H.H.H.H.H.H.H.H.H.H.H.H.H.H.H.H.H.H.H.H.H.H.H.H.H.H.H.H.H.H.H.H.H.H.H.H.H.H.H.H.H.H.H.H.H.H.H.H.H.H.H.H.H.H.H.H.H.H.H.H.H.H.H.H.H.H.H.H.H.H.H.H.H.H.H.H.H.H.H.H.H.H.H.H.H.H.H.H.H.H.H.H.H.H.H.H.H.H.H.H.H.H.H.H.H.H.H.H.H.H.H.H.H.H.H.H.H.H.H.H.H.H.H.H.H.H.G.J.Q.Q.J.G.L.P.L.G.G.P.Q.Q.J.G.H.H.H.H.H.H.H.H.H.H.H.H.H.H.H.H.H.H.H.H.H.H.H.H.H.H.H.H.H.H.H.H.H.H.H.H.H.H.H.H.H.H.H.H.H.H.H.H.Y.Y.H.M.M.P.Q.Q.J.J.H.H.J.J.Q.Q.J.H.H.H.H.H.H.H.H.H.H.H.H.H.H.H.H.H.H.H.H.H.H.H.H.H.H.H.H.H.H.H.H.H.H.H.H.H.H.H.H.H.H.H.H.H.H.H.H.H.",
"H.H.H.H.H.H.H.H.H.H.H.H.H.H.H.H.H.H.H.H.H.H.H.H.H.H.H.H.H.H.H.H.H.H.H.H.H.H.H.H.H.H.H.H.H.H.H.H.H.H.H.H.H.H.H.H.H.H.H.H.H.H.H.H.H.H.H.H.H.H.H.H.H.H.H.H.H.H.H.H.H.H.H.H.H.H.H.H.H.H.H.H.H.H.H.H.H.H.H.H.H.H.H.H.H.H.H.H.H.H.H.H.H.H.H.H.H.H.H.H.H.H.H.H.H.H.H.H.H.H.H.H.H.H.H.H.H.H.H.H.H.H.H.H.H.H.H.H.H.H.H.H.H.H.H.H.H.H.H.H.H.H.H.H.H.H.H.H.H.H.H.H.H.H.H.H.H.H.H.H.H.H.H.H.H.H.H.H.H.H.H.L.P.G.L.S.G.P.S.S.P.G.S.j.Y.M.Q.J.G.P.S.L.P.F.G.Y.H.H.H.H.H.J.J.J.H.H.H.H.H.H.H.H.H.H.H.H.H.H.H.H.H.H.H.H.H.H.H.H.H.H.H.H.H.H.H.H.H.H.H.H.H.H.H.H.H.H.H.H.H.H.H.H.H.H.H.H.H.H.H.H.H.H.H.H.H.H.H.H.H.H.H.H.H.H.H.H.H.H.H.H.H.H.H.H.H.H.H.H.H.H.H.H.H.H.H.H.H.H.H.H.H.H.H.H.H.H.H.H.H.H.H.H.H.H.H.H.H.H.H.H.H.H.H.H.H.H.H.H.H.H.H.H.H.H.H.H.H.H.H.H.H.H.H.H.H.H.H.H.H.H.H.H.H.H.H.H.H.H.H.H.H.H.H.H.H.H.H.H.H.H.H.H.H.H.H.H.H.H.H.H.H.H.H.H.H.H.H.H.H.H.H.H.H.H.H.H.H.H.H.H.H.H.H.H.H.H.H.H.H.H.H.H.H.H.H.H.H.H.H.H.H.H.H.H.H.H.H.H.H.H.H.H.H.H.H.H.H.H.H.H.H.H.H.H.H.H.H.H.H.H.H.H.H.H.H.H.H.H.H.H.H.H.H.H.H.H.H.H.H.H.H.H.H.H.H.H.H.H.H.H.H.H.H.H.H.H.H.H.H.H.H.H.H.H.H.H.H.H.H.H.H.H.H.H.H.H.H.H.H.H.H.H.H.H.H.H.H.H.H.H.H.H.H.H.L.L.L.L.H.H.H.H.H.P.F.k.NXbXbXbXbXbXbXbXbXbXbXbXbXbXbXbXbXbXbXbXbXs.bXs.zXnXzXNX2Xk.L.P.S.G.K.P.H.H.H.H.H.H.H.H.H.H.H.H.H.H.H.H.H.H.H.H.H.H.H.H.H.H.H.H.H.H.H.H.H.H.H.H.H.H.H.H.H.H.H.H.H.H.H.H.H.H.H.H.H.H.H.H.H.H.H.H.H.H.H.H.H.H.H.H.H.H.H.H.H.H.H.H.H.H.H.H.H.H.H.H.H.H.H.H.H.H.H.H.H.H.H.H.H.H.H.H.H.H.H.H.H.H.H.H.H.H.H.H.H.H.H.H.H.H.H.H.H.H.H.H.H.H.H.H.Y.S.L.L.S.L.P.J.G.J.L.S.S.S.H.H.H.H.H.H.H.H.H.H.H.H.H.H.H.H.H.H.H.H.H.H.H.H.H.H.H.H.H.H.H.H.H.H.H.H.H.H.H.H.H.H.H.H.H.H.H.H.H.H.S.L.G.P.L.S.L.S.H.H.P.L.H.H.H.H.H.H.H.H.H.H.H.H.H.H.H.H.H.H.H.H.H.H.H.H.H.H.H.H.H.H.H.H.H.H.H.H.H.H.H.H.H.H.H.H.H.H.H.H.H.H.H.H.H.H.",
"H.H.H.H.H.H.H.H.H.H.H.H.H.H.H.H.H.H.H.H.H.H.H.H.H.H.H.H.H.H.H.H.H.H.H.H.H.H.H.H.H.H.H.H.H.H.H.H.H.G.L.L.S.P.P.j.IXLXLXLXE.M.!.F.H.H.H.H.H.H.H.H.H.H.H.H.H.H.H.H.H.H.H.H.H.H.H.H.H.H.H.H.H.H.H.H.H.H.H.H.H.H.H.H.H.H.H.H.H.H.H.H.H.H.H.H.H.H.H.H.H.H.H.H.H.H.H.H.H.H.H.H.H.H.H.H.H.H.H.H.H.H.H.H.H.H.H.H.H.H.H.H.H.H.H.H.H.H.H.H.H.H.H.H.H.H.H.H.H.H.H.H.H.H.H.H.H.H.H.H.H.H.H.H.H.H.H.H.H.H.H.H.H.H.H.H.H.H.H.H.H.H.H.H.H.H.H.H.H.H.H.H.H.H.H.H.H.H.H.H.H.H.H.H.H.H.H.H.H.H.H.H.H.H.H.H.H.H.H.H.H.H.H.H.H.H.H.H.H.H.H.H.H.H.H.H.S.S.H.H.J.J.J.J.P.G.P.P.H.G.P.K.L.G.P.G.G.L.M.P.H.H.H.H.J.J.J.J.H.H.H.H.H.H.H.H.H.H.H.H.H.H.H.H.H.H.H.H.H.H.H.H.H.H.H.H.H.H.H.H.H.H.H.H.H.H.H.H.H.H.H.H.H.H.H.H.H.H.H.H.H.H.H.H.H.H.H.H.H.H.H.H.H.H.H.H.H.H.H.H.H.H.H.H.H.H.H.H.H.H.H.H.H.H.H.H.H.H.H.H.H.H.H.H.H.H.H.H.H.H.H.H.H.H.H.H.H.H.H.H.H.H.H.H.H.H.H.H.H.H.H.H.H.H.H.H.H.H.H.H.H.H.H.H.H.H.H.H.H.H.H.H.H.H.H.H.H.H.H.H.H.H.H.H.H.H.H.H.H.H.H.H.H.H.H.H.H.H.H.H.H.H.H.H.H.H.H.H.H.H.H.H.H.H.H.H.H.H.H.H.H.H.H.H.H.H.H.H.H.H.H.H.H.H.H.H.H.H.H.H.H.H.H.H.H.H.H.H.H.H.H.H.H.H.H.H.H.H.H.H.H.H.H.H.H.H.H.H.H.H.H.H.H.H.H.H.H.H.H.H.H.H.H.H.H.J.H.H.H.H.H.H.G.J.Q.M.M.M.j.E.NXs.bXzXzXnXbXbXbXbXzXzXzXzXf.f.bXbXbXbXzXbXbXf.MXMXmXNXC.F.Y.D.Y.L.K.P.L.L.G.U.U.U.L.L.S.Q.S.L.H.H.H.H.H.H.H.H.H.H.H.H.H.H.H.H.H.H.H.H.H.H.H.H.H.H.H.H.H.H.H.H.H.H.H.H.H.H.H.H.H.H.H.H.H.H.H.H.H.H.H.H.H.H.H.H.H.H.H.H.H.H.H.H.H.H.H.H.H.H.H.H.H.H.H.H.H.H.H.H.H.H.H.H.H.H.H.H.H.H.H.H.H.H.H.H.H.H.H.H.H.H.H.H.H.H.H.H.H.H.H.H.H.H.H.H.H.H.H.H.H.H.H.H.H.H.H.H.H.H.H.H.H.H.H.H.H.H.H.H.H.H.H.H.H.H.H.H.H.H.H.H.H.H.H.H.H.H.H.H.H.H.H.H.H.H.H.H.H.H.H.H.H.H.H.H.H.H.H.H.H.H.H.H.H.H.H.H.H.H.H.H.H.H.H.H.H.H.H.H.H.H.H.H.H.H.H.H.H.H.H.H.H.H.H.H.H.H.H.H.H.H.H.H.H.H.H.H.H.H.H.H.H.H.H.H.H.H.H.H.H.H.",
"H.H.H.H.H.H.H.H.H.H.H.H.H.H.H.H.H.H.H.H.H.H.H.H.H.H.H.H.H.H.H.H.H.H.H.H.H.H.H.H.H.H.H.H.H.H.H.H.H.S.L.L.S.P.L.V.E.LXLXLXT.j.P.P.H.H.H.H.H.H.H.H.H.H.H.H.H.H.H.H.H.H.H.H.H.H.H.H.H.H.H.H.H.H.H.H.H.H.H.H.H.H.H.H.H.H.H.H.H.H.H.H.H.H.H.H.H.H.H.H.H.H.H.H.H.H.H.H.H.H.H.H.H.H.H.H.H.H.H.H.H.H.H.H.H.H.H.H.H.H.H.H.H.H.H.H.H.H.H.H.H.H.H.H.H.H.H.H.H.H.H.H.H.H.H.H.H.H.H.H.H.H.H.H.H.H.H.H.H.H.H.H.H.H.H.H.H.H.H.H.H.H.H.H.H.H.H.H.H.H.H.H.H.H.H.H.H.H.H.H.H.H.H.H.H.H.H.H.H.H.H.H.H.H.H.H.H.H.H.H.H.H.H.H.H.H.H.H.H.H.H.H.H.H.H.H.H.J.H.H.H.H.H.H.Y.S.S.S.S.S.S.S.L.G.H.S.S.Y.Y.S.H.H.H.H.H.H.H.H.H.H.H.H.H.H.H.H.H.H.H.H.H.H.H.H.H.H.H.H.H.H.H.H.H.H.H.H.H.H.H.H.H.H.H.H.H.H.H.H.H.H.H.H.H.H.H.H.H.H.H.H.H.H.H.H.H.H.H.H.H.H.H.H.H.H.H.H.H.H.H.H.H.H.H.H.H.H.H.H.H.H.H.H.H.H.H.H.H.H.H.H.H.H.H.H.H.H.H.H.H.H.H.H.H.H.H.H.H.H.H.H.H.H.H.H.H.H.H.H.H.H.H.H.H.H.H.H.H.H.H.H.H.H.H.H.H.H.H.H.H.H.H.H.H.H.H.H.H.H.H.H.H.H.H.H.H.H.H.H.H.H.H.H.H.H.H.H.H.H.H.H.H.H.H.H.H.H.H.H.H.H.H.H.H.H.H.H.H.H.H.H.H.H.H.H.H.H.H.H.H.H.H.H.H.H.H.H.H.H.H.H.H.H.H.H.H.H.H.H.H.H.H.H.H.H.H.H.H.H.H.H.H.H.H.H.H.H.H.H.H.H.H.H.H.H.H.H.H.H.H.H.H.H.H.H.H.H.H.H.H.H.H.H.H.H.P.G.H.P.j.2XCXf.MXbXs.zXf.f.f.f.f.bXbXbXbXbXbXbXbXbXzXzXf.f.s.f.MXcXC.B.Q.Q.J.J.L.H.Y.Y.T.L.G.P.L.Y.G.P.P.P.H.H.H.H.H.H.H.H.H.H.H.H.H.H.H.H.H.H.H.H.H.H.H.H.H.H.H.H.H.H.H.H.H.H.H.H.H.H.H.H.H.H.H.H.H.H.H.H.H.H.H.H.H.H.H.H.H.H.H.H.H.H.H.H.H.H.H.H.H.H.H.H.H.H.H.H.H.H.H.H.H.H.H.H.H.H.H.H.H.H.H.H.H.H.H.H.H.H.H.H.H.H.H.H.H.H.H.H.H.H.H.H.H.H.H.H.H.H.H.H.H.H.H.H.H.H.H.H.H.H.H.H.H.H.H.H.H.H.H.H.H.H.H.H.H.H.H.H.H.H.H.H.H.H.H.H.H.H.H.H.H.H.H.H.H.H.H.H.H.H.H.H.H.H.H.H.H.H.H.H.H.H.H.H.H.H.H.H.H.H.H.H.H.H.H.H.H.H.H.H.H.H.H.H.H.H.H.H.H.H.H.H.H.H.H.H.H.H.H.H.H.H.H.H.H.H.H.H.H.H.H.H.H.H.H.H.H.H.H.H.H.H.",
"H.H.H.H.H.H.H.H.H.H.H.H.H.H.H.H.H.H.H.H.H.H.H.H.H.H.H.H.H.H.H.H.H.H.H.H.H.H.H.H.H.H.H.H.H.H.H.H.H.G.H.H.G.P.P.k.IXLXLXLXE.j.H.P.H.H.H.H.H.H.H.H.H.H.H.H.H.H.H.H.H.H.H.H.H.H.H.H.H.H.H.H.H.H.H.H.H.H.H.H.H.H.H.H.H.H.H.H.H.H.H.H.H.H.H.H.H.H.H.H.H.H.H.H.H.H.H.H.H.H.H.H.H.H.H.H.H.H.H.H.H.H.H.H.H.H.H.H.H.H.H.H.H.H.H.H.H.H.H.H.H.H.H.H.H.H.H.H.H.H.H.H.H.H.H.H.H.H.H.H.H.H.H.H.H.H.H.H.H.H.H.H.H.H.H.H.H.H.H.H.H.H.H.H.H.H.H.H.H.H.H.H.H.H.H.H.H.H.H.H.H.H.H.H.H.H.H.H.H.H.H.H.H.H.H.H.H.H.H.H.H.H.H.H.H.H.H.H.H.H.H.H.H.H.H.H.J.P.H.H.H.S.H.H.G.P.H.J.P.Q.P.P.G.L.P.P.S.G.P.M.H.H.H.H.H.H.H.H.H.H.H.H.H.H.H.H.H.H.H.H.H.H.H.H.H.H.H.H.H.H.H.H.H.H.H.H.H.H.H.H.H.H.H.H.H.H.H.H.H.H.H.H.H.H.H.H.H.H.H.H.H.H.H.H.H.H.H.H.H.H.H.H.H.H.H.H.H.H.H.H.H.H.H.H.H.H.H.H.H.H.H.H.H.H.H.H.H.H.H.H.H.H.H.H.H.H.H.H.H.H.H.H.H.H.H.H.H.H.H.H.H.H.H.H.H.H.H.H.H.H.H.H.H.H.H.H.H.H.H.H.H.H.H.H.H.H.H.H.H.H.H.H.H.H.H.H.H.H.H.H.H.H.H.H.H.H.H.H.H.H.H.H.H.H.H.H.H.H.H.H.H.H.H.H.H.H.H.H.H.H.H.H.H.H.H.H.H.H.H.H.H.H.H.H.H.H.H.H.H.H.H.H.H.H.H.H.H.H.H.H.H.H.H.H.H.H.H.H.H.H.H.H.H.H.H.H.H.H.H.H.H.H.H.H.H.H.H.H.H.H.H.H.H.H.H.H.H.H.H.H.H.H.H.H.H.H.H.H.H.H.H.H.P.G.L.H.Y.Y.j.2XNXs.s.bXzXzXnXnXbXbXbXzXbXbXbXbXbXbXbXbXzXzXbXbXnXnXnXvXk.j.OXOXOXOXOXj.OXOXOXOXj.OXOXQ.J.L.Y.S.H.H.H.H.H.H.H.H.H.H.H.H.H.H.H.H.H.H.H.H.H.H.H.H.H.H.H.H.H.H.H.H.H.H.H.H.H.H.H.H.H.H.H.H.H.H.H.H.H.H.H.H.H.H.H.H.H.H.H.H.H.H.H.H.H.H.H.H.H.H.H.H.H.H.H.H.H.H.H.H.H.H.H.H.H.H.H.H.H.H.H.H.H.H.H.H.H.H.H.H.H.H.H.H.H.H.H.H.H.H.H.H.H.H.H.H.H.H.H.H.H.H.H.H.H.H.H.H.H.H.H.H.H.H.H.H.H.H.H.H.H.H.H.H.H.H.H.H.H.H.H.H.H.H.H.H.H.H.H.H.H.H.H.H.H.H.H.H.H.H.H.H.H.H.H.H.H.H.H.H.H.H.H.H.H.H.H.H.H.H.H.H.H.H.H.H.H.H.H.H.H.H.H.H.H.H.H.H.H.H.H.H.H.H.H.H.H.H.H.H.H.H.H.H.H.H.H.H.H.H.H.H.H.H.H.H.H.H.H.H.H.H.",
"H.H.H.H.H.H.H.H.H.H.H.H.H.H.H.H.H.H.H.H.H.H.H.H.H.H.H.H.H.H.H.H.H.H.H.H.H.H.H.H.H.H.H.H.H.H.H.H.H.H.J.H.G.P.P.M.T.IXIXIXT.M.P.P.H.H.H.H.H.H.H.H.H.H.H.H.H.H.H.H.H.H.H.H.H.H.H.H.H.H.H.H.H.H.H.H.H.H.H.H.H.H.H.H.H.H.H.H.H.H.H.H.H.H.H.H.H.H.H.H.H.H.H.H.H.H.H.H.H.H.H.H.H.H.H.H.H.H.H.H.H.H.H.H.H.H.H.H.H.H.H.H.H.H.H.H.H.H.H.H.H.H.H.H.H.H.H.H.H.H.H.H.H.H.H.H.H.H.H.H.H.H.H.H.H.H.H.H.H.H.H.H.H.H.H.H.H.H.H.H.H.H.H.H.H.H.H.H.H.H.H.H.H.H.H.H.H.H.H.H.H.H.H.H.H.H.H.H.H.H.H.H.H.H.H.H.H.H.H.H.H.H.H.H.H.H.H.H.H.H.H.H.H.H.H.H.H.H.H.H.H.H.H.J.G.P.P.G.M.P.M.M.G.L.G.P.H.M.P.P.H.H.H.H.H.H.H.H.H.H.H.H.H.H.H.H.H.H.H.H.H.H.H.H.H.H.H.H.H.H.H.H.H.H.H.H.H.H.H.H.H.H.H.H.H.H.H.H.H.H.H.H.H.H.H.H.H.H.H.H.H.H.H.H.H.H.H.H.H.H.H.H.H.H.H.H.H.H.H.H.H.H.H.H.H.H.H.H.H.H.H.H.H.H.H.H.H.H.H.H.H.H.H.H.H.H.H.H.H.H.H.H.H.H.H.H.H.H.H.H.H.H.H.H.H.H.H.H.H.H.H.H.H.H.H.H.H.H.H.H.H.H.H.H.H.H.H.H.H.H.H.H.H.H.H.H.H.H.H.H.H.H.H.H.H.H.H.H.H.H.H.H.H.H.H.H.H.H.H.H.H.H.H.H.H.H.H.H.H.H.H.H.H.H.H.H.H.H.H.H.H.H.H.H.H.H.H.H.H.H.H.H.H.H.H.H.H.H.H.H.H.H.H.H.H.H.H.H.H.H.H.H.H.H.H.H.H.H.H.H.H.H.H.H.H.H.H.H.H.H.H.H.H.H.H.H.H.H.H.H.H.H.H.H.H.H.H.H.H.J.H.J.P.G.G.H.L.Y.j.2XCXf.f.bXbXbXbXs.bXbXbXbXbXbXzXbXbXbXbXbXbXzXbXbXbXf.f.bXgXgXgXgXgXgXgXgXgXgXgXgXgXgXC.G.S.S.P.J.L.H.H.H.H.H.H.H.H.H.H.H.H.H.H.H.H.H.H.H.H.H.H.H.H.H.H.H.H.H.H.H.H.H.H.H.H.H.H.H.H.H.H.H.H.H.H.H.H.H.H.H.H.H.H.H.H.H.H.H.H.H.H.H.H.H.H.H.H.H.H.H.H.H.H.H.H.H.H.H.H.H.H.H.H.H.H.H.H.H.H.H.H.H.H.H.H.H.H.H.H.H.H.H.H.H.H.H.H.H.H.H.H.H.H.H.H.H.H.H.H.H.H.H.H.H.H.H.H.H.H.H.H.H.H.H.H.H.H.H.H.H.H.H.H.H.H.H.H.H.H.H.H.H.H.H.H.H.H.H.H.H.H.H.H.H.H.H.H.H.H.H.H.H.H.H.H.H.H.H.H.H.H.H.H.H.H.H.H.H.H.H.H.H.H.H.H.H.H.H.H.H.H.H.H.H.H.H.H.H.H.H.H.H.H.H.H.H.H.H.H.H.H.H.H.H.H.H.H.H.H.H.H.H.H.H.H.H.H.H.H.H.",
"H.H.H.H.H.H.H.H.H.H.H.H.H.H.H.H.H.H.H.H.H.H.H.H.H.H.H.H.H.H.H.H.H.H.H.H.H.H.H.H.H.H.H.H.H.H.H.H.H.H.H.H.G.J.P.M.j.M.j.S.j.J.P.L.H.H.H.H.H.H.H.H.H.H.H.H.H.H.H.H.H.H.H.H.H.H.H.H.H.H.H.H.H.H.H.H.H.H.H.H.H.H.H.H.H.H.H.H.H.H.H.H.H.H.H.H.H.H.H.H.H.H.H.H.H.H.H.H.H.H.H.H.H.H.H.H.H.H.H.H.H.H.H.H.H.H.H.H.H.H.H.H.H.H.H.H.H.H.H.H.H.H.H.H.H.H.H.H.H.H.H.H.H.H.H.H.H.H.H.H.H.H.H.H.H.H.H.H.H.H.H.H.H.H.H.H.H.H.H.H.H.H.H.H.H.H.H.H.H.H.H.H.H.H.H.H.H.H.H.H.H.H.H.H.H.H.H.H.H.H.H.H.H.H.H.H.H.H.H.H.H.H.H.H.H.H.H.H.H.H.H.H.H.H.H.H.H.H.H.L.H.H.H.H.S.L.L.Y.S.Y.G.Q.P.P.G.G.P.J.P.P.J.J.H.H.H.H.H.H.H.H.H.H.H.H.H.H.H.H.H.H.H.H.H.H.H.H.H.H.H.H.H.H.H.H.H.H.H.H.H.H.H.H.H.H.H.H.H.H.H.H.H.H.H.H.H.H.H.H.H.H.H.H.H.H.H.H.H.H.H.H.H.H.H.H.H.H.H.H.H.H.H.H.H.H.H.H.H.H.H.H.H.H.H.H.H.H.H.H.H.H.H.H.H.H.H.H.H.H.H.H.H.H.H.H.H.H.H.H.H.H.H.H.H.H.H.H.H.H.H.H.H.H.H.H.H.H.H.H.H.H.H.H.H.H.H.H.H.H.H.H.H.H.H.H.H.H.H.H.H.H.H.H.H.H.H.H.H.H.H.H.H.H.H.H.H.H.H.H.H.H.H.H.H.H.H.H.H.H.H.H.H.H.H.H.H.H.H.H.H.H.H.H.H.H.H.H.H.H.H.H.H.H.H.H.H.H.H.H.H.H.H.H.H.H.H.H.H.H.H.H.H.H.H.H.H.H.H.H.H.H.H.H.H.H.H.H.H.H.H.H.H.H.H.H.H.H.H.H.H.H.H.H.H.H.H.H.H.H.H.H.H.H.J.K.G.G.S.S.j.2XNXzXzXnXbXbXbXs.bXbXf.bXbXbXzXzXzXzXbXbXbXbXbXbXf.s.f.f.f.mXmXf.f.f.MXSXmXMXf.f.f.NXC.M.P.J.H.H.H.H.H.H.H.H.H.H.H.H.H.H.H.H.H.H.H.H.H.H.H.H.H.H.H.H.H.H.H.H.H.H.H.H.H.H.H.H.H.H.H.H.H.H.H.H.H.H.H.H.H.H.H.H.H.H.H.H.H.H.H.H.H.H.H.H.H.H.H.H.H.H.H.H.H.H.H.H.H.H.H.H.H.H.H.H.H.H.H.H.H.H.H.H.H.H.H.H.H.H.H.H.H.H.H.H.H.H.H.H.H.H.H.H.H.H.H.H.H.H.H.H.H.H.H.H.H.H.H.H.H.H.H.H.H.H.H.H.H.H.H.H.H.H.H.H.H.H.H.H.H.H.H.H.H.H.H.H.H.H.H.H.H.H.H.H.H.H.H.H.H.H.H.H.H.H.H.H.H.H.H.H.H.H.H.H.H.H.H.H.H.H.H.H.H.H.H.H.H.H.H.H.H.H.H.H.H.H.H.H.H.H.H.H.H.H.H.H.H.H.H.H.H.H.H.H.H.H.H.H.H.H.H.H.H.H.H.H.H.H.H.H.",
"H.H.H.H.H.H.H.H.H.H.H.H.H.H.H.H.H.H.H.H.H.H.H.H.H.H.H.H.H.H.H.H.H.H.H.H.H.H.H.H.H.H.H.H.H.H.H.H.H.L.H.S.S.H.J.J.Q.Q.M.Q.G.P.S.S.H.H.H.H.H.H.H.H.H.H.H.H.H.H.H.H.H.H.H.H.H.H.H.H.H.H.H.H.H.H.H.H.H.H.H.H.H.H.H.H.H.H.H.H.H.H.H.H.H.H.H.H.H.H.H.H.H.H.H.H.H.H.H.H.H.H.H.H.H.H.H.H.H.H.H.H.H.H.H.H.H.H.H.H.H.H.H.H.H.H.H.H.H.H.H.H.H.H.H.H.H.H.H.H.H.H.H.H.H.H.H.H.H.H.H.H.H.H.H.H.H.H.H.H.H.H.H.H.H.H.H.H.H.H.H.H.H.H.H.H.H.H.H.H.H.H.H.H.H.H.H.H.H.H.H.H.H.H.H.H.H.H.H.H.H.H.H.H.H.H.H.H.H.H.H.H.H.H.H.H.H.H.H.H.H.H.H.H.H.H.H.H.H.H.L.L.H.H.H.H.L.S.L.!.G.Q.j.M.j.S.Y.H.G.P.G.G.J.J.J.J.H.H.H.H.H.H.H.H.H.H.H.H.H.H.H.H.H.H.H.H.H.H.H.H.H.H.H.H.H.H.H.H.H.H.H.H.H.H.H.H.H.H.H.H.H.H.H.H.H.H.H.H.H.H.H.H.H.H.H.H.H.H.H.H.H.H.H.H.H.H.H.H.H.H.H.H.H.H.H.H.H.H.H.H.H.H.H.H.H.H.H.H.H.H.H.H.H.H.H.H.H.H.H.H.H.H.H.H.H.H.H.H.H.H.H.H.H.H.H.H.H.H.H.H.H.H.H.H.H.H.H.H.H.H.H.H.H.H.H.H.H.H.H.H.H.H.H.H.H.H.H.H.H.H.H.H.H.H.H.H.H.H.H.H.H.H.H.H.H.H.H.H.H.H.H.H.H.H.H.H.H.H.H.H.H.H.H.H.H.H.H.H.H.H.H.H.H.H.H.H.H.H.H.H.H.H.H.H.H.H.H.H.H.H.H.H.H.H.H.H.H.H.H.H.H.H.H.H.H.H.H.H.H.H.H.H.H.H.H.H.H.H.H.H.H.H.H.H.H.H.H.H.H.H.H.H.H.H.H.H.H.H.H.H.H.H.H.H.H.H.L.L.S.L.M.2XNXf.f.nXzXzXnXNXzXbXbXbXbXbXbXzXbXzXbXbXbXbXbXbXnXnXnXnXzXzXs.s.s.zXxXxXxXzXzXbXMXNXC.M.Q.J.S.S.H.H.H.H.H.H.H.H.H.H.H.H.H.H.H.H.H.H.H.H.H.H.H.H.H.H.H.H.H.H.H.H.H.H.H.H.H.H.H.H.H.H.H.H.H.H.H.H.H.H.H.H.H.H.H.H.H.H.H.H.H.H.H.H.H.H.H.H.H.H.H.H.H.H.H.H.H.H.H.H.H.H.H.H.H.H.H.H.H.H.H.H.H.H.H.H.H.H.H.H.H.H.H.H.H.H.H.H.H.H.H.H.H.H.H.H.H.H.H.H.H.H.H.H.H.H.H.H.H.H.H.H.H.H.H.H.H.H.H.H.H.H.H.H.H.H.H.H.H.H.H.H.H.H.H.H.H.H.H.H.H.H.H.H.H.H.H.H.H.H.H.H.H.H.H.H.H.H.H.H.H.H.H.H.H.H.H.H.H.H.H.H.H.H.H.H.H.H.H.H.H.H.H.H.H.H.H.H.H.H.H.H.H.H.H.H.H.H.H.H.H.H.H.H.H.H.H.H.H.H.H.H.H.H.H.H.H.H.H.H.H.H.",
"H.H.H.H.H.H.H.H.H.H.H.H.H.H.H.H.H.H.H.H.H.H.H.H.H.H.H.H.H.H.H.H.H.H.H.H.H.H.H.H.H.H.H.H.H.H.H.H.H.L.H.H.H.H.H.H.P.P.P.Q.G.P.S.P.H.H.H.H.H.H.H.H.H.H.H.H.H.H.H.H.H.H.H.H.H.H.H.H.H.H.H.H.H.H.H.H.H.H.H.H.H.H.H.H.H.H.H.H.H.H.H.H.H.H.H.H.H.H.H.H.H.H.H.H.H.H.H.H.H.H.H.H.H.H.H.H.H.H.H.H.H.H.H.H.H.H.H.H.H.H.H.H.H.H.H.H.H.H.H.H.H.H.H.H.H.H.H.H.H.H.H.H.H.H.H.H.H.H.H.H.H.H.H.H.H.H.H.H.H.H.H.H.H.H.H.H.H.H.H.H.H.H.H.H.H.H.H.H.H.H.H.H.H.H.H.H.H.H.H.H.H.H.H.H.H.H.H.H.H.H.H.H.H.H.H.H.H.H.H.H.H.H.H.H.H.H.H.H.H.H.H.H.H.H.H.H.H.H.L.L.H.H.H.J.Q.J.J.J.j.!.S.S.Y.j.L.Y.S.P.G.P.H.H.H.H.H.H.H.H.H.H.H.H.H.H.H.H.H.H.H.H.H.H.H.H.H.H.H.H.H.H.H.H.H.H.H.H.H.H.H.H.H.H.H.H.H.H.H.H.H.H.H.H.H.H.H.H.H.H.H.H.H.H.H.H.H.H.H.H.H.H.H.H.H.H.H.H.H.H.H.H.H.H.H.H.H.H.H.H.H.H.H.H.H.H.H.H.H.H.H.H.H.H.H.H.H.H.H.H.H.H.H.H.H.H.H.H.H.H.H.H.H.H.H.H.H.H.H.H.H.H.H.H.H.H.H.H.H.H.H.H.H.H.H.H.H.H.H.H.H.H.H.H.H.H.H.H.H.H.H.H.H.H.H.H.H.H.H.H.H.H.H.H.H.H.H.H.H.H.H.H.H.H.H.H.H.H.H.H.H.H.H.H.H.H.H.H.H.H.H.H.H.H.H.H.H.H.H.H.H.H.H.H.H.H.H.H.H.H.H.H.H.H.H.H.H.H.H.H.H.H.H.H.H.H.H.H.H.H.H.H.H.H.H.H.H.H.H.H.H.H.H.H.H.H.H.H.H.H.H.H.H.H.H.H.H.H.H.H.H.H.H.H.S.L.L.L.L.Y.M.E.AXf.s.MXf.s.s.bXbXbXbXbXbXbXbXbXbXbXbXbXbXbXbXbXzXbXbXbXbXbXbXnXzXnXbXs.f.MXnXzXmXDXA.D.D.G.M.I.U.H.H.H.H.H.H.H.H.H.H.H.H.H.H.H.H.H.H.H.H.H.H.H.H.H.H.H.H.H.H.H.H.H.H.H.H.H.H.H.H.H.H.H.H.H.H.H.H.H.H.H.H.H.H.H.H.H.H.H.H.H.H.H.H.H.H.H.H.H.H.H.H.H.H.H.H.H.H.H.H.H.H.H.H.H.H.H.H.H.H.H.H.H.H.H.H.H.H.H.H.H.H.H.H.H.H.H.H.H.H.H.H.H.H.H.H.H.H.H.H.H.H.H.H.H.H.H.H.H.H.H.H.H.H.H.H.H.H.H.H.H.H.H.H.H.H.H.H.H.H.H.H.H.H.H.H.H.H.H.H.H.H.H.H.H.H.H.H.H.H.H.H.H.H.H.H.H.H.H.H.H.H.H.H.H.H.H.H.H.H.H.H.H.H.H.H.H.H.H.H.H.H.H.H.H.H.H.H.H.H.H.H.H.H.H.H.H.H.H.H.H.H.H.H.H.H.H.H.H.H.H.H.H.H.H.H.H.H.H.H.H.",
"H.H.H.H.H.H.H.H.H.H.H.H.H.H.H.H.H.H.H.H.H.H.H.H.H.H.H.H.H.H.H.H.H.H.H.H.H.H.H.H.H.H.H.H.H.H.H.H.H.P.J.J.J.J.H.L.H.H.G.L.S.Y.S.P.H.H.H.H.H.H.H.H.H.H.H.H.H.H.H.H.H.H.H.H.H.H.H.H.H.H.H.H.H.H.H.H.H.H.H.H.H.H.H.H.H.H.H.H.H.H.H.H.H.H.H.H.H.H.H.H.H.H.H.H.H.H.H.H.H.H.H.H.H.H.H.H.H.H.H.H.H.H.H.H.H.H.H.H.H.H.H.H.H.H.H.H.H.H.H.H.H.H.H.H.H.H.H.H.H.H.H.H.H.H.H.H.H.H.H.H.H.H.H.H.H.H.H.H.H.H.H.H.H.H.H.H.H.H.H.H.H.H.H.H.H.H.H.H.H.H.H.H.H.H.H.H.H.H.H.H.H.H.H.H.H.H.H.H.H.H.H.H.H.H.H.H.H.H.H.H.H.H.H.H.H.H.H.H.H.H.H.H.H.H.H.H.J.J.H.H.H.H.H.J.K.P.L.C.C.KXLXLXKXS.S.T.S.Y.S.G.L.H.H.H.H.H.H.H.H.H.H.H.H.H.H.H.H.H.H.H.H.H.H.H.H.H.H.H.H.H.H.H.H.H.H.H.H.H.H.H.H.H.H.H.H.H.H.H.H.H.H.H.H.H.H.H.H.H.H.H.H.H.H.H.H.H.H.H.H.H.H.H.H.H.H.H.H.H.H.H.H.H.H.H.H.H.H.H.H.H.H.H.H.H.H.H.H.H.H.H.H.H.H.H.H.H.H.H.H.H.H.H.H.H.H.H.H.H.H.H.H.H.H.H.H.H.H.H.H.H.H.H.H.H.H.H.H.H.H.H.H.H.H.H.H.H.H.H.H.H.H.H.H.H.H.H.H.H.H.H.H.H.H.H.H.H.H.H.H.H.H.H.H.H.H.H.H.H.H.H.H.H.H.H.H.H.H.H.H.H.H.H.H.H.H.H.H.H.H.H.H.H.H.H.H.H.H.H.H.H.H.H.H.H.H.H.H.H.H.H.H.H.H.H.H.H.H.H.H.H.H.H.H.H.H.H.H.H.H.H.H.H.H.H.H.H.H.H.H.H.H.H.H.H.H.H.H.H.H.H.H.H.H.H.J.J.J.J.H.H.H.H.G.P.L.G.G.P.j.Q.M.j.C.gXNXbXbXs.f.bXbXbXbXbXbXbXbXbXbXzXzXzXzXzXzXbXzXzXbXbXzXbXzXbXzXzXnXNXaXj.j.F.j.Q.J.Y.S.S.H.H.H.H.H.H.H.H.H.H.H.H.H.H.H.H.H.H.H.H.H.H.H.H.H.H.H.H.H.H.H.H.H.H.H.H.H.H.H.H.H.H.H.H.H.H.H.H.H.H.H.H.H.H.H.H.H.H.H.H.H.H.H.H.H.H.H.H.H.H.H.H.H.H.H.H.H.H.H.H.H.H.H.H.H.H.H.H.H.H.H.H.H.H.H.H.H.H.H.H.H.H.H.H.H.H.H.H.H.H.H.H.H.H.H.H.H.H.H.H.H.H.H.H.H.H.H.H.H.H.H.H.H.H.H.H.H.H.H.H.H.H.H.H.H.H.H.H.H.H.H.H.H.H.H.H.H.H.H.H.H.H.H.H.H.H.H.H.H.H.H.H.H.H.H.H.H.H.H.H.H.H.H.H.H.H.H.H.H.H.H.H.H.H.H.H.H.H.H.H.H.H.H.H.H.H.H.H.H.H.H.H.H.H.H.H.H.H.H.H.H.H.H.H.H.H.H.H.H.H.H.H.H.H.H.H.H.H.H.H.H.H.",
"H.H.H.H.H.H.H.H.H.H.H.H.H.H.H.H.H.H.H.H.H.H.H.H.H.H.H.H.H.H.H.H.H.H.H.H.H.H.H.H.H.H.H.H.H.H.H.H.H.H.H.H.H.H.H.H.H.H.H.H.H.H.H.H.H.H.H.H.H.H.H.H.H.H.H.H.H.H.H.H.H.H.H.H.H.H.H.H.H.H.H.H.H.H.H.H.H.H.H.H.H.H.H.H.H.H.H.H.H.H.H.H.H.H.H.H.H.H.H.H.H.H.H.H.H.H.H.H.H.H.H.H.H.H.H.H.H.H.H.H.H.H.H.H.H.H.H.H.H.H.H.H.H.H.H.H.H.H.H.H.H.H.H.H.H.H.H.H.H.H.H.H.H.H.H.H.H.H.H.H.H.H.H.H.H.H.H.H.H.H.H.H.H.H.H.H.H.H.H.H.H.H.H.H.H.H.H.H.H.H.H.H.H.H.H.H.H.H.H.H.H.H.H.H.H.H.H.H.H.H.H.H.H.H.H.H.H.H.H.H.H.H.H.H.H.H.H.H.H.H.H.H.H.H.H.H.H.H.H.J.J.H.H.J.J.P.I.S.g LXLXLXKXg Y.U.M.P.G.G.H.H.H.H.H.H.H.H.H.H.H.H.H.H.H.H.H.H.H.H.H.H.H.H.H.H.H.H.H.H.H.H.H.H.H.H.H.H.H.H.H.H.H.H.H.H.H.H.H.H.H.H.H.H.H.H.H.H.H.H.H.H.H.H.H.H.H.H.H.H.H.H.H.H.H.H.H.H.H.H.H.H.H.H.H.H.H.H.H.H.H.H.H.H.H.H.H.H.H.H.H.H.H.H.H.H.H.H.H.H.H.H.H.H.H.H.H.H.H.H.H.H.H.H.H.H.H.H.H.H.H.H.H.H.H.H.H.H.H.H.H.H.H.H.H.H.H.H.H.H.H.H.H.H.H.H.H.H.H.H.H.H.H.H.H.H.H.H.H.H.H.H.H.H.H.H.H.H.H.H.H.H.H.H.L.S.Q.G.Q.K.Q.J.J.J.H.H.H.P.P.H.H.H.H.H.H.H.H.H.H.H.H.H.H.H.H.H.H.H.H.H.H.H.H.H.H.H.H.H.H.H.H.H.H.H.H.H.H.H.H.H.H.H.H.H.H.H.H.H.H.H.H.H.H.H.H.H.H.H.H.H.H.H.H.H.H.H.H.H.H.H.H.H.H.H.H.H.H.H.H.J.J.S.g DXNXs.bXs.zXbXbXf.zXnXzXzXzXzXzXbXf.f.zXzXbXf.zXzXnXzXbXbXnXzXMXs.bXNXgXg Q.Q.J.H.H.H.J.J.H.H.H.H.H.H.H.H.H.H.H.H.H.H.H.H.H.H.H.H.H.H.H.H.H.H.H.H.H.H.H.H.H.H.H.H.H.H.H.H.H.H.H.H.H.H.H.H.H.H.H.H.H.H.H.H.H.H.H.H.H.H.H.H.H.H.H.H.H.H.H.H.H.H.H.H.H.H.H.H.H.H.H.H.H.H.H.H.H.H.H.H.H.H.H.H.H.H.H.H.H.H.H.H.H.H.H.H.H.H.H.H.H.H.H.H.H.H.H.H.H.H.H.H.H.H.H.H.H.H.H.H.H.H.H.H.H.H.H.H.H.H.H.H.H.H.H.H.H.H.H.H.H.H.H.H.H.H.H.H.H.H.H.H.H.H.H.H.H.H.H.H.H.H.H.H.H.H.H.H.H.H.H.H.H.H.H.H.H.H.H.H.H.H.H.H.H.H.H.H.H.H.H.H.H.H.H.H.H.H.H.H.H.H.H.H.H.H.H.H.H.H.H.H.H.H.H.H.H.H.H.H.H.H.H.H.H.H.H.H.H.H.",
"H.H.H.H.H.H.H.H.H.H.H.H.H.H.H.H.H.H.H.H.H.H.H.H.H.H.H.H.H.H.H.H.H.H.H.H.H.H.H.H.H.H.H.H.H.H.H.H.H.H.H.H.H.H.H.H.H.H.H.H.H.H.H.H.H.H.H.H.H.H.H.H.H.H.H.H.H.H.H.H.H.H.H.H.H.H.H.H.H.H.H.H.H.H.H.H.H.H.H.H.H.H.H.H.H.H.H.H.H.H.H.H.H.H.H.H.H.H.H.H.H.H.H.H.H.H.H.H.H.H.H.H.H.H.H.H.H.H.H.H.H.H.H.H.H.H.H.H.H.H.H.H.H.H.H.H.H.H.H.H.H.H.H.H.H.H.H.H.H.H.H.H.H.H.H.H.H.H.H.H.H.H.H.H.H.H.H.H.H.H.H.H.H.H.H.H.H.H.H.H.H.H.H.H.H.H.H.H.H.H.H.H.H.H.H.H.H.H.H.H.H.H.H.H.H.H.H.H.H.H.H.H.H.H.H.H.H.H.H.H.H.H.H.H.H.H.H.H.H.H.H.H.H.H.H.H.H.H.J.J.H.H.H.H.L.S.L.C.V KXLXLXKXV.S.S.L.P.H.L.H.H.H.H.H.H.H.H.H.H.H.H.H.H.H.H.H.H.H.H.H.H.H.H.H.H.H.H.H.H.H.H.H.H.H.H.H.H.H.H.H.H.H.H.H.H.H.H.H.H.H.H.H.H.H.H.H.H.H.H.H.H.H.H.H.H.H.H.H.H.H.H.H.H.H.H.H.H.H.H.H.H.H.H.H.H.H.H.H.H.H.H.H.H.H.H.H.H.H.H.H.H.H.H.H.H.H.H.H.H.H.H.H.H.H.H.H.H.H.H.H.H.H.H.H.H.H.H.H.H.H.H.H.H.H.H.H.H.H.H.H.H.H.H.H.H.H.H.H.H.H.H.H.H.H.H.H.H.H.H.H.H.H.H.H.H.H.H.H.H.H.H.H.H.H.H.H.H.H.H.H.H.H.H.Y.H.H.F.P.H.Y.H.L.H.S.S.S.G.H.K.H.H.H.H.H.H.H.H.H.H.H.H.H.H.H.H.H.H.H.H.H.H.H.H.H.H.H.H.H.H.H.H.H.H.H.H.H.H.H.H.H.H.H.H.H.H.H.H.H.H.H.H.H.H.H.H.H.H.H.H.H.H.H.H.H.H.H.H.H.H.H.H.H.H.H.H.H.H.H.H.S.C.A PXCXmXMXbXbXnXbXzXf.bXf.bXbXzXbXbXbXbXzXzXbXbXbXzXbXzXzXbXs.s.MXf.mXCXgXV D.H.S.S.D.S.S.S.H.H.H.H.H.H.H.H.H.H.H.H.H.H.H.H.H.H.H.H.H.H.H.H.H.H.H.H.H.H.H.H.H.H.H.H.H.H.H.H.H.H.H.H.H.H.H.H.H.H.H.H.H.H.H.H.H.H.H.H.H.H.H.H.H.H.H.H.H.H.H.H.H.H.H.H.H.H.H.H.H.H.H.H.H.H.H.H.H.H.H.H.H.H.H.H.H.H.H.H.H.H.H.H.H.H.H.H.H.H.H.H.H.H.H.H.H.H.H.H.H.H.H.H.H.H.H.H.H.H.H.H.H.H.H.H.H.H.H.H.H.H.H.H.H.H.H.H.H.H.H.H.H.H.H.H.H.H.H.H.H.H.H.H.H.H.H.H.H.H.H.H.H.H.H.H.H.H.H.H.H.H.H.H.H.H.H.H.H.H.H.H.H.H.H.H.H.H.H.H.H.H.H.H.H.H.H.H.H.H.H.H.H.H.H.H.H.H.H.H.H.H.H.H.H.H.H.H.H.H.H.H.H.H.H.H.H.H.H.H.H.H.",
"H.H.H.H.H.H.H.H.H.H.H.H.H.H.H.H.H.H.H.H.H.H.H.H.H.H.H.H.H.H.H.H.H.H.H.H.H.H.H.H.H.H.H.H.H.H.H.H.H.H.H.H.H.H.H.H.H.H.H.H.H.H.H.H.H.H.H.H.H.H.H.H.H.H.H.H.H.H.H.H.H.H.H.H.H.H.H.H.H.H.H.H.H.H.H.H.H.H.H.H.H.H.H.H.H.H.H.H.H.H.H.H.H.H.H.H.H.H.H.H.H.H.H.H.H.H.H.H.H.H.H.H.H.H.H.H.H.H.H.H.H.H.H.H.H.H.H.H.H.H.H.H.H.H.H.H.H.H.H.H.H.H.H.H.H.H.H.H.H.H.H.H.H.H.H.H.H.H.H.H.H.H.H.H.H.H.H.H.H.H.H.H.H.H.H.H.H.H.H.H.H.H.H.H.H.H.H.H.H.H.H.H.H.H.H.H.H.H.H.H.H.H.H.H.H.H.H.H.H.H.H.H.H.H.H.H.H.H.H.H.H.H.H.H.H.H.H.H.H.H.H.H.H.H.H.H.H.H.H.H.H.H.H.H.L.L.I.P.k.IXIXIXIXj.S.G.Q.G.G.L.H.H.H.H.H.H.H.H.H.H.H.H.H.H.H.H.H.H.H.H.H.H.H.H.H.H.H.H.H.H.H.H.H.H.H.H.H.H.H.H.H.H.H.H.H.H.H.H.H.H.H.H.H.H.H.H.H.H.H.H.H.H.H.H.H.H.H.H.H.H.H.H.H.H.H.H.H.H.H.H.H.H.H.H.H.H.H.H.H.H.H.H.H.H.H.H.H.H.H.H.H.H.H.H.H.H.H.H.H.H.H.H.H.H.H.H.H.H.H.H.H.H.H.H.H.H.H.H.H.H.H.H.H.H.H.H.H.H.H.H.H.H.H.H.H.H.H.H.H.H.H.H.H.H.H.H.H.H.H.H.H.H.H.H.H.H.H.H.H.H.H.H.H.H.H.H.H.H.H.H.H.H.H.J.j.K.J.J.Y.S.P.G.F.G.Q.Q.P.P.Q.K.H.H.H.H.H.H.H.H.H.H.H.H.H.H.H.H.H.H.H.H.H.H.H.H.H.H.H.H.H.H.H.H.H.H.H.H.H.H.H.H.H.H.H.H.H.H.H.H.H.H.H.H.H.H.H.H.H.H.H.H.H.H.H.H.H.H.H.H.H.H.H.H.H.H.H.H.H.H.H.U.I.U.k.aXgXgXh.NXzXbXzXzXbXzXzXzXbXf.bXbXbXbXbXbXbXbXbXbXf.f.f.bXnXnXNX..2XgXE.S.H.J.H.J.P.P.P.P.H.H.H.H.H.H.H.H.H.H.H.H.H.H.H.H.H.H.H.H.H.H.H.H.H.H.H.H.H.H.H.H.H.H.H.H.H.H.H.H.H.H.H.H.H.H.H.H.H.H.H.H.H.H.H.H.H.H.H.H.H.H.H.H.H.H.H.H.H.H.H.H.H.H.H.H.H.H.H.H.H.H.H.H.H.H.H.H.H.H.H.H.H.H.H.H.H.H.H.H.H.H.H.H.H.H.H.H.H.H.H.H.H.H.H.H.H.H.H.H.H.H.H.H.H.H.H.H.H.H.H.H.H.H.H.H.H.H.H.H.H.H.H.H.H.H.H.H.H.H.H.H.H.H.H.H.H.H.H.H.H.H.H.H.H.H.H.H.H.H.H.H.H.H.H.H.H.H.H.H.H.H.H.H.H.H.H.H.H.H.H.H.H.H.H.H.H.H.H.H.H.H.H.H.H.H.H.H.H.H.H.H.H.H.H.H.H.H.H.H.H.H.H.H.H.H.H.H.H.H.H.H.H.H.H.H.H.H.H.H.H.H.",
"H.H.H.H.H.H.H.H.H.H.H.H.H.H.H.H.H.H.H.H.H.H.H.H.H.H.H.H.H.H.H.H.H.H.H.H.H.H.H.H.H.H.H.H.H.H.H.H.H.H.H.H.H.H.H.H.H.H.H.H.H.H.H.H.H.H.H.H.H.H.H.H.H.H.H.H.H.H.H.H.H.H.H.H.H.H.H.H.H.H.H.H.H.H.H.H.H.H.H.H.H.H.H.H.H.H.H.H.H.H.H.H.H.H.H.H.H.H.H.H.H.H.H.H.H.H.H.H.H.H.H.H.H.H.H.H.H.H.H.H.H.H.H.H.H.H.H.H.H.H.H.H.H.H.H.H.H.H.H.H.H.H.H.H.H.H.H.H.H.H.H.H.H.H.H.H.H.H.H.H.H.H.H.H.H.H.H.H.H.H.H.H.H.H.H.H.H.H.H.H.H.H.H.H.H.H.H.H.H.H.H.H.H.H.H.H.H.H.H.H.H.H.H.H.H.H.H.H.H.H.H.H.H.H.H.H.H.H.H.H.H.H.H.H.H.H.H.H.H.H.H.H.H.H.H.H.L.L.H.H.H.L.J.J.P.Q.Q.Q.j.M.j.j.M.j.Y.G.Q.F.H.H.H.H.H.H.H.H.H.H.H.H.H.H.H.H.H.H.H.H.H.H.H.H.H.H.H.H.H.H.H.H.H.H.H.H.H.H.H.H.H.H.H.H.H.H.H.H.H.H.H.H.H.H.H.H.H.H.H.H.H.H.H.H.H.H.H.H.H.H.H.H.H.H.H.H.H.H.H.H.H.H.H.H.H.H.H.H.H.H.H.H.H.H.H.H.H.H.H.H.H.H.H.H.H.H.H.H.H.H.H.H.H.H.H.H.H.H.H.H.H.H.H.H.H.H.H.H.H.H.H.H.H.H.H.H.H.H.H.H.H.H.H.H.H.H.H.H.H.H.H.H.H.H.H.H.H.H.H.H.H.H.H.H.H.H.H.H.H.H.H.H.H.H.H.H.H.H.H.H.H.H.H.H.H.H.H.Y.T.L.S.M.Y.H.Y.H.Y.H.S.S.L.H.H.H.H.H.H.H.H.H.H.H.H.H.H.H.H.H.H.H.H.H.H.H.H.H.H.H.H.H.H.H.H.H.H.H.H.H.H.H.H.H.H.H.H.H.H.H.H.H.H.H.H.H.H.H.H.H.H.H.H.H.H.H.H.H.H.H.H.H.H.H.H.H.H.H.H.H.H.H.H.H.J.J.B.Q.OXj.C.HXNXnXzXs.f.f.bXnXbXbXzXzXzXzXf.f.bXbXzXzXs.bXzXxXxXNXDXk.j.B.B.B.J.H.H.H.H.P.L.L.H.H.H.H.H.H.H.H.H.H.H.H.H.H.H.H.H.H.H.H.H.H.H.H.H.H.H.H.H.H.H.H.H.H.H.H.H.H.H.H.H.H.H.H.H.H.H.H.H.H.H.H.H.H.H.H.H.H.H.H.H.H.H.H.H.H.H.H.H.H.H.H.H.H.H.H.H.H.H.H.H.H.H.H.H.H.H.H.H.H.H.H.H.H.H.H.H.H.H.H.H.H.H.H.H.H.H.H.H.H.H.H.H.H.H.H.H.H.H.H.H.H.H.H.H.H.H.H.H.H.H.H.H.H.H.H.H.H.H.H.H.H.H.H.H.H.H.H.H.H.H.H.H.H.H.H.H.H.H.H.H.H.H.H.H.H.H.H.H.H.H.H.H.H.H.H.H.H.H.H.H.H.H.H.H.H.H.H.H.H.H.H.H.H.H.H.H.H.H.H.H.H.H.H.H.H.H.H.H.H.H.H.H.H.H.H.H.H.H.H.H.H.H.H.H.H.H.H.H.H.H.H.H.H.H.H.H.H.H.H.H.H.",
"H.H.H.H.H.H.H.H.H.H.H.H.H.H.H.H.H.H.H.H.H.H.H.H.H.H.H.H.H.H.H.H.H.H.H.H.H.H.H.H.H.H.H.H.H.H.H.H.H.H.H.H.H.H.H.H.H.H.H.H.H.H.H.H.H.H.H.H.H.H.H.H.H.H.H.H.H.H.H.H.H.H.H.H.H.H.H.H.H.H.H.H.H.H.H.H.H.H.H.H.H.H.H.H.H.H.H.H.H.H.H.H.H.H.H.H.H.H.H.H.H.H.H.H.H.H.H.H.H.H.H.H.H.H.H.H.H.H.H.H.H.H.H.H.H.H.H.H.H.H.H.H.H.H.H.H.H.H.H.H.H.H.H.H.H.H.H.H.H.H.H.H.H.H.H.H.H.H.H.H.H.H.H.H.H.H.H.H.H.H.H.H.H.H.H.H.H.H.H.H.H.H.H.H.H.H.H.H.H.H.H.H.H.H.H.H.H.H.H.H.H.H.H.H.H.H.H.H.H.H.H.H.H.H.H.H.H.H.H.H.H.H.H.H.H.H.H.H.H.H.H.H.H.H.H.H.L.L.H.H.H.H.H.H.H.H.H.P.P.P.G.'.G.P.P.M.P.G.P.G.H.H.H.H.H.H.H.H.H.H.H.H.H.H.H.H.H.H.H.H.H.H.H.H.H.H.H.H.H.H.H.H.H.H.H.H.H.H.H.H.H.H.H.H.H.H.H.H.H.H.H.H.H.H.H.H.H.H.H.H.H.H.H.H.H.H.H.H.H.H.H.H.H.H.H.H.H.H.H.H.H.H.H.H.H.H.H.H.H.H.H.H.H.H.H.H.H.H.H.H.H.H.H.H.H.H.H.H.H.H.H.H.H.H.H.H.H.H.H.H.H.H.H.H.H.H.H.H.H.H.H.H.H.H.H.H.H.H.H.H.H.H.H.H.H.H.H.H.H.H.H.H.H.H.H.H.H.H.H.H.H.H.H.H.H.H.H.H.H.H.H.H.H.H.H.H.H.H.H.H.H.H.H.H.J.F.M.L.P.Q.Q.M.M.M.P.J.'.K.H.H.H.H.H.H.H.H.H.H.H.H.H.H.H.H.H.H.H.H.H.H.H.H.H.H.H.H.H.H.H.H.H.H.H.H.H.H.H.H.H.H.H.H.H.H.H.H.H.H.H.H.H.H.H.H.H.H.H.H.H.H.H.H.H.H.H.H.H.H.H.H.H.H.H.H.H.H.H.H.H.H.S.S.Q.Q.M.k.A.JXs.f.s.bXbXbXnXxXbXf.f.f.bXbXbXbXbXnXzXbXs.MXf.f.f.mXHXA.k.Q.Q.Q.D.D.D.S.H.J.H.H.H.H.H.H.H.H.H.H.H.H.H.H.H.H.H.H.H.H.H.H.H.H.H.H.H.H.H.H.H.H.H.H.H.H.H.H.H.H.H.H.H.H.H.H.H.H.H.H.H.H.H.H.H.H.H.H.H.H.H.H.H.H.H.H.H.H.H.H.H.H.H.H.H.H.H.H.H.H.H.H.H.H.H.H.H.H.H.H.H.H.H.H.H.H.H.H.H.H.H.H.H.H.H.H.H.H.H.H.H.H.H.H.H.H.H.H.H.H.H.H.H.H.H.H.H.H.H.H.H.H.H.H.H.H.H.H.H.H.H.H.H.H.H.H.H.H.H.H.H.H.H.H.H.H.H.H.H.H.H.H.H.H.H.H.H.H.H.H.H.H.H.H.H.H.H.H.H.H.H.H.H.H.H.H.H.H.H.H.H.H.H.H.H.H.H.H.H.H.H.H.H.H.H.H.H.H.H.H.H.H.H.H.H.H.H.H.H.H.H.H.H.H.H.H.H.H.H.H.H.H.H.H.H.H.H.H.H.H.H.H.H.H.",
"H.H.H.H.H.H.H.H.H.H.H.H.H.H.H.H.H.H.H.H.H.H.H.H.H.H.H.H.H.H.H.H.H.H.H.H.H.H.H.H.H.H.H.H.H.H.H.H.H.H.H.H.H.H.H.H.H.H.H.H.H.H.H.H.H.H.H.H.H.H.H.H.H.H.H.H.H.H.H.H.H.H.H.H.H.H.H.H.H.H.H.H.H.H.H.H.H.H.H.H.H.H.H.H.H.H.H.H.H.H.H.H.H.H.H.H.H.H.H.H.H.H.H.H.H.H.H.H.H.H.H.H.H.H.H.H.H.H.H.H.H.H.H.H.H.H.H.H.H.H.H.H.H.H.H.H.H.H.H.H.H.H.H.H.H.H.H.H.H.H.H.H.H.H.H.H.H.H.H.H.H.H.H.H.H.H.H.H.H.H.H.H.H.H.H.H.H.H.H.H.H.H.H.H.H.H.H.H.H.H.H.H.H.H.H.H.H.H.H.H.H.H.H.H.H.H.H.H.H.H.H.H.H.H.H.H.H.H.H.H.H.H.H.H.H.H.H.H.H.H.H.H.H.H.H.H.P.P.J.J.H.H.H.H.H.S.S.S.Y.S.G.Y.P.P.G.G.P.G.L.L.H.H.H.H.H.H.H.H.H.H.H.H.H.H.H.H.H.H.H.H.H.H.H.H.H.H.H.H.H.H.H.H.H.H.H.H.H.H.H.H.H.H.H.H.H.H.H.H.H.H.H.H.H.H.H.H.H.H.H.H.H.H.H.H.H.H.H.H.H.H.H.H.H.H.H.H.H.H.H.H.H.H.H.H.H.H.H.H.H.H.H.H.H.H.H.H.H.H.H.H.H.H.H.H.H.H.H.H.H.H.H.H.H.H.H.H.H.H.H.H.H.H.H.H.H.H.H.H.H.H.H.H.H.H.H.H.H.H.H.H.H.H.H.H.H.H.H.H.H.H.H.H.H.H.H.H.H.H.H.H.H.H.H.H.H.H.H.H.H.H.H.H.H.H.H.H.H.H.H.H.H.H.H.H.P.J.Q.Q.Q.K.j.P.M.S.H.j.Q.Q.J.P.H.H.H.H.H.H.H.H.H.H.H.H.H.H.H.H.H.H.H.H.H.H.H.H.H.H.H.H.H.H.H.H.H.H.H.H.H.H.H.H.H.H.H.H.H.H.H.H.H.H.H.H.H.H.H.H.H.H.H.H.H.H.H.H.H.H.H.H.H.H.H.H.H.H.H.H.H.H.H.L.H.G.U.L.D.C.A NXMXMXmXmXbXf.f.f.bXzXbXbXnXnXbXbXzXbXf.MXs.MXMXMXMXNXDXC.C.H.S.S.L.L.J.Q.J.J.H.H.H.H.H.H.H.H.H.H.H.H.H.H.H.H.H.H.H.H.H.H.H.H.H.H.H.H.H.H.H.H.H.H.H.H.H.H.H.H.H.H.H.H.H.H.H.H.H.H.H.H.H.H.H.H.H.H.H.H.H.H.H.H.H.H.H.H.H.H.H.H.H.H.H.H.H.H.H.H.H.H.H.H.H.H.H.H.H.H.H.H.H.H.H.H.H.H.H.H.H.H.H.H.H.H.H.H.H.H.H.H.H.H.H.H.H.H.H.H.H.H.H.H.H.H.H.H.H.H.H.H.H.H.H.H.H.H.H.H.H.H.H.H.H.H.H.H.H.H.H.H.H.H.H.H.H.H.H.H.H.H.H.H.H.H.H.H.H.H.H.H.H.H.H.H.H.H.H.H.H.H.H.H.H.H.H.H.H.H.H.H.H.H.H.H.H.H.H.H.H.H.H.H.H.H.H.H.H.H.H.H.H.H.H.H.H.H.H.H.H.H.H.H.H.H.H.H.H.H.H.H.H.H.H.H.H.H.H.H.H.H.H.H.",
"H.H.H.H.H.H.H.H.H.H.H.H.H.H.H.H.H.H.H.H.H.H.H.H.H.H.H.H.H.H.H.H.H.H.H.H.H.H.H.H.H.H.H.H.H.H.H.H.H.H.H.H.H.H.H.H.H.H.H.H.H.H.H.H.H.H.H.H.H.H.H.H.H.H.H.H.H.H.H.H.H.H.H.H.H.H.H.H.H.H.H.H.H.H.H.H.H.H.H.H.H.H.H.H.H.H.H.H.H.H.H.H.H.H.H.H.H.H.H.H.H.H.H.H.H.H.H.H.H.H.H.H.H.H.H.H.H.H.H.H.H.H.H.H.H.H.H.H.H.H.H.H.H.H.H.H.H.H.H.H.H.H.H.H.H.H.H.H.H.H.H.H.H.H.H.H.H.H.H.H.H.H.H.H.H.H.H.H.H.H.H.H.H.H.H.H.H.H.H.H.H.H.H.H.H.H.H.H.H.H.H.H.H.H.H.H.H.H.H.H.H.H.H.H.H.H.H.H.H.H.H.H.H.H.H.H.H.H.H.H.H.H.H.H.H.H.H.H.H.H.H.H.H.H.H.H.L.P.H.H.H.H.H.J.K.J.H.K.Q.M.P.G.G.S.H.Q.P.S.G.L.H.H.H.H.H.H.H.H.H.H.H.H.H.H.H.H.H.H.H.H.H.H.H.H.H.H.H.H.H.H.H.H.H.H.H.H.H.H.H.H.H.H.H.H.H.H.H.H.H.H.H.H.H.H.H.H.H.H.H.H.H.H.H.H.H.H.H.H.H.H.H.H.H.H.H.H.H.H.H.H.H.H.H.H.H.H.H.H.H.H.H.H.H.H.H.H.H.H.H.H.H.H.H.H.H.H.H.H.H.H.H.H.H.H.H.H.H.H.H.H.H.H.H.H.H.H.H.H.H.H.H.H.H.H.H.H.H.H.H.H.H.H.H.H.H.H.H.H.H.H.H.H.H.H.H.H.H.H.H.H.H.H.H.H.H.H.H.H.H.H.H.H.H.H.H.H.H.H.H.H.H.H.H.H.S.S.L.S.S.D.C.LXLXLXIXk.L.S.S.S.H.H.H.H.H.H.H.H.H.H.H.H.H.H.H.H.H.H.H.H.H.H.H.H.H.H.H.H.H.H.H.H.H.H.H.H.H.H.H.H.H.H.H.H.H.H.H.H.H.H.H.H.H.H.H.H.H.H.H.H.H.H.H.H.H.H.H.H.H.H.H.H.H.H.H.H.H.H.H.H.F.F.J.J.Q.B.OXQ.M.M.M.M.j.E.NXbXbXbXbXf.f.f.f.f.bXbXnXvXc.M.K.M.M.S.Y.j.K.Q.J.J.J.J.Q.J.H.S.S.S.H.H.H.H.H.H.H.H.H.H.H.H.H.H.H.H.H.H.H.H.H.H.H.H.H.H.H.H.H.H.H.H.H.H.H.H.H.H.H.H.H.H.H.H.H.H.H.H.H.H.H.H.H.H.H.H.H.H.H.H.H.H.H.H.H.H.H.H.H.H.H.H.H.H.H.H.H.H.H.H.H.H.H.H.H.H.H.H.H.H.H.H.H.H.H.H.H.H.H.H.H.H.H.H.H.H.H.H.H.H.H.H.H.H.H.H.H.H.H.H.H.H.H.H.H.H.H.H.H.H.H.H.H.H.H.H.H.H.H.H.H.H.H.H.H.H.H.H.H.H.H.H.H.H.H.H.H.H.H.H.H.H.H.H.H.H.H.H.H.H.H.H.H.H.H.H.H.H.H.H.H.H.H.H.H.H.H.H.H.H.H.H.H.H.H.H.H.H.H.H.H.H.H.H.H.H.H.H.H.H.H.H.H.H.H.H.H.H.H.H.H.H.H.H.H.H.H.H.H.H.H.H.H.H.H.H.H.H.H.H.H.H.",
"H.H.H.H.H.H.H.H.H.H.H.H.H.H.H.H.H.H.H.H.H.H.H.H.H.H.H.H.H.H.H.H.H.H.H.H.H.H.H.H.H.H.H.H.H.H.H.H.H.H.H.H.H.H.H.H.H.H.H.H.H.H.H.H.H.H.H.H.H.H.H.H.H.H.H.H.H.H.H.H.H.H.H.H.H.H.H.H.H.H.H.H.H.H.H.H.H.H.H.H.H.H.H.H.H.H.H.H.H.H.H.H.H.H.H.H.H.H.H.H.H.H.H.H.H.H.H.H.H.H.H.H.H.H.H.H.H.H.H.H.H.H.H.H.H.H.H.H.H.H.H.H.H.H.H.H.H.H.H.H.H.H.H.H.H.H.H.H.H.H.H.H.H.H.H.H.H.H.H.H.H.H.H.H.H.H.H.H.H.H.H.H.H.H.H.H.H.H.H.H.H.H.H.H.H.H.H.H.H.H.H.H.H.H.H.H.H.H.H.H.H.H.H.H.H.H.H.H.H.H.H.H.H.H.H.H.H.H.H.H.H.H.H.H.H.H.H.H.H.H.H.H.H.H.H.H.L.L.H.H.H.H.H.J.J.P.H.F.Y.M.Y.M.L.S.L.P.S.P.Y.S.H.H.H.H.H.H.H.H.H.H.H.H.H.H.H.H.H.H.H.H.H.H.H.H.H.H.H.H.H.H.H.H.H.H.H.H.H.H.H.H.H.H.H.H.H.H.H.H.H.H.H.H.H.H.H.H.H.H.H.H.H.H.H.H.H.H.H.H.H.H.H.H.H.H.H.H.H.H.H.H.H.H.H.H.H.H.H.H.H.H.H.H.H.H.H.H.H.H.H.H.H.H.H.H.H.H.H.H.H.H.H.H.H.H.H.H.H.H.H.H.H.H.H.H.H.H.H.H.H.H.H.H.H.H.H.H.H.H.H.H.H.H.H.H.H.H.H.H.H.H.H.H.H.H.H.H.H.H.H.H.H.H.H.H.H.H.H.H.H.H.H.H.H.H.H.H.H.H.H.H.H.H.H.H.J.J.J.M.'.D.g LXLXLXIXg H.J.J.G.H.H.H.H.H.H.H.H.H.H.H.H.H.H.H.H.H.H.H.H.H.H.H.H.H.H.H.H.H.H.H.H.H.H.H.H.H.H.H.H.H.H.H.H.H.H.H.H.H.H.H.H.H.H.H.H.H.H.H.H.H.H.H.H.H.H.H.H.H.H.H.H.H.H.H.H.H.H.H.L.G.I.U.S.T.L.J.M.F.M.Q.Q.j.R.NXf.s.zXxXxXzXzXxXxXzXbXMXcXk.M.W.B.Q.j.J.F.P.G.S.Y.S.H.H.H.H.H.J.J.J.H.H.H.H.H.H.H.H.H.H.H.H.H.H.H.H.H.H.H.H.H.H.H.H.H.H.H.H.H.H.H.H.H.H.H.H.H.H.H.H.H.H.H.H.H.H.H.H.H.H.H.H.H.H.H.H.H.H.H.H.H.H.H.H.H.H.H.H.H.H.H.H.H.H.H.H.H.H.H.H.H.H.H.H.H.H.H.H.H.H.H.H.H.H.H.H.H.H.H.H.H.H.H.H.H.H.H.H.H.H.H.H.H.H.H.H.H.H.H.H.H.H.H.H.H.H.H.H.H.H.H.H.H.H.H.H.H.H.H.H.H.H.H.H.H.H.H.H.H.H.H.H.H.H.H.H.H.H.H.H.H.H.H.H.H.H.H.H.H.H.H.H.H.H.H.H.H.H.H.H.H.H.H.H.H.H.H.H.H.H.H.H.H.H.H.H.H.H.H.H.H.H.H.H.H.H.H.H.H.H.H.H.H.H.H.H.H.H.H.H.H.H.H.H.H.H.H.H.H.H.H.H.H.H.H.H.H.H.H.H.H.",
"H.H.H.H.H.H.H.H.H.H.H.H.H.H.H.H.H.H.H.H.H.H.H.H.H.H.H.H.H.H.H.H.H.H.H.H.H.H.H.H.H.H.H.H.H.H.H.H.H.H.H.H.H.H.H.H.H.H.H.H.H.H.H.H.H.H.H.H.H.H.H.H.H.H.H.H.H.H.H.H.H.H.H.H.H.H.H.H.H.H.H.H.H.H.H.H.H.H.H.H.H.H.H.H.H.H.H.H.H.H.H.H.H.H.H.H.H.H.H.H.H.H.H.H.H.H.H.H.H.H.H.H.H.H.H.H.H.H.H.H.H.H.H.H.H.H.H.H.H.H.H.H.H.H.H.H.H.H.H.H.H.H.H.H.H.H.H.H.H.H.H.H.H.H.H.H.H.H.H.H.H.H.H.H.H.H.H.H.H.H.H.H.H.H.H.H.H.H.H.H.H.H.H.H.H.H.H.H.H.H.H.H.H.H.H.H.H.H.H.H.H.H.H.H.H.H.H.H.H.H.H.H.H.H.H.H.H.H.H.H.H.H.H.H.H.H.H.H.H.H.H.H.H.H.H.H.H.H.H.H.H.H.H.H.H.H.H.H.H.H.H.H.H.H.H.H.H.H.H.H.H.H.H.H.H.H.H.H.H.H.H.H.H.H.H.H.H.H.H.H.H.H.H.H.H.H.H.H.H.H.H.H.H.H.H.H.H.H.H.H.H.H.H.H.H.H.H.H.H.H.H.H.H.H.H.H.H.H.H.H.H.H.H.H.H.H.H.H.H.H.H.H.H.H.H.H.H.H.H.H.H.H.H.H.H.H.H.H.H.H.H.H.H.H.H.H.H.H.H.H.H.H.H.H.H.H.H.H.H.H.H.H.H.H.H.H.H.H.H.H.H.H.H.H.H.H.H.H.H.H.H.H.H.H.H.H.H.H.H.H.H.H.H.H.H.H.H.H.H.H.H.H.H.H.H.H.H.H.H.H.H.H.H.H.H.H.H.H.H.H.H.H.H.H.H.H.H.H.H.H.H.H.H.H.P.J.P.S.T.V.V LXLXLXIXg S.P.P.P.H.H.H.H.H.H.H.H.H.H.H.H.H.H.H.H.H.H.H.H.H.H.H.H.H.H.H.H.H.H.H.H.H.H.H.H.H.H.H.H.H.H.H.H.H.H.H.H.H.H.H.H.H.H.H.H.H.H.H.H.H.H.H.H.H.H.H.H.H.H.H.H.H.H.H.H.H.H.H.H.H.H.J.J.H.L.P.U.L.H.H.L.k.2XSXMXMXMXMXMXf.f.MXf.f.f.SXNXC.M.J.Q.H.H.H.H.H.H.H.H.H.H.H.H.H.H.H.H.H.H.H.H.H.H.H.H.H.H.H.H.H.H.H.H.H.H.H.H.H.H.H.H.H.H.H.H.H.H.H.H.H.H.H.H.H.H.H.H.H.H.H.H.H.H.H.H.H.H.H.H.H.H.H.H.H.H.H.H.H.H.H.H.H.H.H.H.H.H.H.H.H.H.H.H.H.H.H.H.H.H.H.H.H.H.H.H.H.H.H.H.H.H.H.H.H.H.H.H.H.H.H.H.H.H.H.H.H.H.H.H.H.H.H.H.H.H.H.H.H.H.H.H.H.H.H.H.H.H.H.H.H.H.H.H.H.H.H.H.H.H.H.H.H.H.H.H.H.H.H.H.H.H.H.H.H.H.H.H.H.H.H.H.H.H.H.H.H.H.H.H.H.H.H.H.H.H.H.H.H.H.H.H.H.H.H.H.H.H.H.H.H.H.H.H.H.H.H.H.H.H.H.H.H.H.H.H.H.H.H.H.H.H.H.H.H.H.H.H.H.H.H.H.H.H.H.H.H.H.H.H.H.H.H.H.H.H.H.H.H.H.",
"H.H.H.H.H.H.H.H.H.H.H.H.H.H.H.H.H.H.H.H.H.H.H.H.H.H.H.H.H.H.H.H.H.H.H.H.H.H.H.H.H.H.H.H.H.H.H.H.H.H.H.H.H.H.H.H.H.H.H.H.H.H.H.H.H.H.H.H.H.H.H.H.H.H.H.H.H.H.H.H.H.H.H.H.H.H.H.H.H.H.H.H.H.H.H.H.H.H.H.H.H.H.H.H.H.H.H.H.H.H.H.H.H.H.H.H.H.H.H.H.H.H.H.H.H.H.H.H.H.H.H.H.H.H.H.H.H.H.H.H.H.H.H.H.H.H.H.H.H.H.H.H.H.H.H.H.H.H.H.H.H.H.H.H.H.H.H.H.H.H.H.H.H.H.H.H.H.H.H.H.H.H.H.H.H.H.H.H.H.H.H.H.H.H.H.H.H.H.H.H.H.H.H.H.H.H.H.H.H.H.H.H.H.H.H.H.H.H.H.H.H.H.H.H.H.H.H.H.H.H.H.H.H.H.H.H.H.H.H.H.H.H.H.H.H.H.H.H.H.H.H.H.H.H.H.H.H.H.H.H.H.H.H.H.H.H.H.H.H.H.H.H.H.H.H.H.H.H.H.H.H.H.H.H.H.H.H.H.H.H.H.H.H.H.H.H.H.H.H.H.H.H.H.H.H.H.H.H.H.H.H.H.H.H.H.H.H.H.H.H.H.H.H.H.H.H.H.H.H.H.H.H.H.H.H.H.H.H.H.H.H.H.H.H.H.H.H.H.H.H.H.H.H.H.H.H.H.H.H.H.H.H.H.H.H.H.H.H.H.H.H.H.H.H.H.H.H.H.H.H.H.H.H.H.H.H.H.H.H.H.H.H.H.H.H.H.H.H.H.H.H.H.H.H.H.H.H.H.H.H.H.H.H.H.H.H.H.H.H.H.H.H.H.H.H.H.H.H.H.H.H.H.H.H.H.H.H.H.H.H.H.H.H.H.H.H.H.H.H.H.H.H.H.H.H.H.H.H.H.H.H.H.H.H.P.G.P.H.'.H.S.IXIXFXaXS.P.P.S.S.H.H.H.H.H.H.H.H.H.H.H.H.H.H.H.H.H.H.H.H.H.H.H.H.H.H.H.H.H.H.H.H.H.H.H.H.H.H.H.H.H.H.H.H.H.H.H.H.H.H.H.H.H.H.H.H.H.H.H.H.H.H.H.H.H.H.H.H.H.H.H.H.H.H.H.H.H.H.H.H.L.J.H.H.S.L.L.L.S.S.J.P.M.R.IXgXgXgXgXgXgXgXgXgXgXgXgXgXC.D.L.H.H.H.H.H.H.H.H.H.H.H.H.H.H.H.H.H.H.H.H.H.H.H.H.H.H.H.H.H.H.H.H.H.H.H.H.H.H.H.H.H.H.H.H.H.H.H.H.H.H.H.H.H.H.H.H.H.H.H.H.H.H.H.H.H.H.H.H.H.H.H.H.H.H.H.H.H.H.H.H.H.H.H.H.H.H.H.H.H.H.H.H.H.H.H.H.H.H.H.H.H.H.H.H.H.H.H.H.H.H.H.H.H.H.H.H.H.H.H.H.H.H.H.H.H.H.H.H.H.H.H.H.H.H.H.H.H.H.H.H.H.H.H.H.H.H.H.H.H.H.H.H.H.H.H.H.H.H.H.H.H.H.H.H.H.H.H.H.H.H.H.H.H.H.H.H.H.H.H.H.H.H.H.H.H.H.H.H.H.H.H.H.H.H.H.H.H.H.H.H.H.H.H.H.H.H.H.H.H.H.H.H.H.H.H.H.H.H.H.H.H.H.H.H.H.H.H.H.H.H.H.H.H.H.H.H.H.H.H.H.H.H.H.H.H.H.H.H.H.H.H.H.H.H.H.H.H.H.H.",
"H.H.H.H.H.H.H.H.H.H.H.H.H.H.H.H.H.H.H.H.H.H.H.H.H.H.H.H.H.H.H.H.H.H.H.H.H.H.H.H.H.H.H.H.H.H.H.H.H.H.H.H.H.H.H.H.H.H.H.H.H.H.H.H.H.H.H.H.H.H.H.H.H.H.H.H.H.H.H.H.H.H.H.H.H.H.H.H.H.H.H.H.H.H.H.H.H.H.H.H.H.H.H.H.H.H.H.H.H.H.H.H.H.H.H.H.H.H.H.H.H.H.H.H.H.H.H.H.H.H.H.H.H.H.H.H.H.H.H.H.H.H.H.H.H.H.H.H.H.H.H.H.H.H.H.H.H.H.H.H.H.H.H.H.H.H.H.H.H.H.H.H.H.H.H.H.H.H.H.H.H.H.H.H.H.H.H.H.H.H.H.H.H.H.H.H.H.H.H.H.H.H.H.H.H.H.H.H.H.H.H.H.H.H.H.H.H.H.H.H.H.H.H.H.H.H.H.H.H.H.H.H.H.H.H.H.H.H.H.H.H.H.H.H.H.H.H.H.H.H.H.H.H.H.H.H.H.H.H.H.H.H.H.H.H.H.H.H.H.H.H.H.H.H.H.H.H.H.H.H.H.H.H.H.H.H.H.H.H.H.H.H.H.H.H.H.H.H.H.H.H.H.H.H.H.H.H.H.H.H.H.H.H.H.H.H.H.H.H.H.H.H.H.H.H.H.H.H.H.H.H.H.H.H.H.H.H.H.H.H.H.H.H.H.H.H.H.H.H.H.H.H.H.H.H.H.H.H.H.H.H.H.H.H.H.H.H.H.H.H.H.H.H.H.H.H.H.H.H.H.H.H.H.H.H.H.H.H.H.H.H.H.H.H.H.H.H.H.H.H.H.H.H.H.H.H.H.H.H.H.H.H.H.H.H.H.H.H.H.H.H.H.H.H.H.H.H.H.H.H.H.H.H.H.H.H.H.H.H.H.H.H.H.H.H.H.H.H.H.H.H.H.H.H.H.H.H.H.H.H.H.H.H.H.P.G.G.H.P.K.M.K.j.j.j.j.P.P.L.P.H.H.H.H.H.H.H.H.H.H.H.H.H.H.H.H.H.H.H.H.H.H.H.H.H.H.H.H.H.H.H.H.H.H.H.H.H.H.H.H.H.H.H.H.H.H.H.H.H.H.H.H.H.H.H.H.H.H.H.H.H.H.H.H.H.H.H.H.H.H.H.H.H.H.H.H.H.H.H.L.U.U.H.H.S.S.L.L.Y.P.J.J.M.j.S.j.j.OXOXOXOXOXOXOXOXOXj.Q.OXQ.Q.J.J.H.H.H.H.H.H.H.H.H.H.H.H.H.H.H.H.H.H.H.H.H.H.H.H.H.H.H.H.H.H.H.H.H.H.H.H.H.H.H.H.H.H.H.H.H.H.H.H.H.H.H.H.H.H.H.H.H.H.H.H.H.H.H.H.H.H.H.H.H.H.H.H.H.H.H.H.H.H.H.H.H.H.H.H.H.H.H.H.H.H.H.H.H.H.H.H.H.H.H.H.H.H.H.H.H.H.H.H.H.H.H.H.H.H.H.H.H.H.H.H.H.H.H.H.H.H.H.H.H.H.H.H.H.H.H.H.H.H.H.H.H.H.H.H.H.H.H.H.H.H.H.H.H.H.H.H.H.H.H.H.H.H.H.H.H.H.H.H.H.H.H.H.H.H.H.H.H.H.H.H.H.H.H.H.H.H.H.H.H.H.H.H.H.H.H.H.H.H.H.H.H.H.H.H.H.H.H.H.H.H.H.H.H.H.H.H.H.H.H.H.H.H.H.H.H.H.H.H.H.H.H.H.H.H.H.H.H.H.H.H.H.H.H.H.H.H.H.H.H.H.H.H.H.H.H.H.H.",
"H.H.H.H.H.H.H.H.H.H.H.H.H.H.H.H.H.H.H.H.H.H.H.H.H.H.H.H.H.H.H.H.H.H.H.H.H.H.H.H.H.H.H.H.H.H.H.H.H.H.H.H.H.H.H.H.H.H.H.H.H.H.H.H.H.H.H.H.H.H.H.H.H.H.H.H.H.H.H.H.H.H.H.H.H.H.H.H.H.H.H.H.H.H.H.H.H.H.H.H.H.H.H.H.H.H.H.H.H.H.H.H.H.H.H.H.H.H.H.H.H.H.H.H.H.H.H.H.H.H.H.H.H.H.H.H.H.H.H.H.H.H.H.H.H.H.H.H.H.H.H.H.H.H.H.H.H.H.H.H.H.H.H.H.H.H.H.H.H.H.H.H.H.H.H.H.H.H.H.H.H.H.H.H.H.H.H.H.H.H.H.H.H.H.H.H.H.H.H.H.H.H.H.H.H.H.H.H.H.H.H.H.H.H.H.H.H.H.H.H.H.H.H.H.H.H.H.H.H.H.H.H.H.H.H.H.H.H.H.H.H.H.H.H.H.H.H.H.H.H.H.H.H.H.H.H.H.H.H.H.H.H.H.H.H.H.H.H.H.H.H.H.H.H.H.H.H.H.H.H.H.H.H.H.H.H.H.H.H.H.H.H.H.H.H.H.H.H.H.H.H.H.H.H.H.H.H.H.H.H.H.H.H.H.H.H.H.H.H.H.H.H.H.H.H.H.H.H.H.H.H.H.H.H.H.H.H.H.H.H.H.H.H.H.H.H.H.H.H.H.H.H.H.H.H.H.H.H.H.H.H.H.H.H.H.H.H.H.H.H.H.H.H.H.H.H.H.H.H.H.H.H.H.H.H.H.H.H.H.H.H.H.H.H.H.H.H.H.H.H.H.H.H.H.H.H.H.H.H.H.H.H.H.H.H.H.H.H.H.H.H.H.H.H.H.H.H.H.H.H.H.H.H.H.H.H.H.H.H.H.H.H.H.H.H.H.H.H.H.H.H.H.H.H.H.H.H.H.H.H.H.H.H.H.K.P.L.L.H.P.Q.M.Q.P.P.Q.Q.P.G.G.H.H.H.H.H.H.H.H.H.H.H.H.H.H.H.H.H.H.H.H.H.H.H.H.H.H.H.H.H.H.H.H.H.H.H.H.H.H.H.H.H.H.H.H.H.H.H.H.H.H.H.H.H.H.H.H.H.H.H.H.H.H.H.H.H.H.H.H.H.H.H.H.H.H.H.H.H.H.H.L.L.H.H.H.G.H.H.H.G.G.F.P.P.J.Q.K.L.P.P.P.T.T.Y.P.Q.Q.G.Y.S.L.S.T.H.H.H.H.H.H.H.H.H.H.H.H.H.H.H.H.H.H.H.H.H.H.H.H.H.H.H.H.H.H.H.H.H.H.H.H.H.H.H.H.H.H.H.H.H.H.H.H.H.H.H.H.H.H.H.H.H.H.H.H.H.H.H.H.H.H.H.H.H.H.H.H.H.H.H.H.H.H.H.H.H.H.H.H.H.H.H.H.H.H.H.H.H.H.H.H.H.H.H.H.H.H.H.H.H.H.H.H.H.H.H.H.H.H.H.H.H.H.H.H.H.H.H.H.H.H.H.H.H.H.H.H.H.H.H.H.H.H.H.H.H.H.H.H.H.H.H.H.H.H.H.H.H.H.H.H.H.H.H.H.H.H.H.H.H.H.H.H.H.H.H.H.H.H.H.H.H.H.H.H.H.H.H.H.H.H.H.H.H.H.H.H.H.H.H.H.H.H.H.H.H.H.H.H.H.H.H.H.H.H.H.H.H.H.H.H.H.H.H.H.H.H.H.H.H.H.H.H.H.H.H.H.H.H.H.H.H.H.H.H.H.H.H.H.H.H.H.H.H.H.H.H.H.H.H.H.H.H.",
"H.H.H.H.H.H.H.H.H.H.H.H.H.H.H.H.H.H.H.H.H.H.H.H.H.H.H.H.H.H.H.H.H.H.H.H.H.H.H.H.H.H.H.H.H.H.H.H.H.H.H.H.H.H.H.H.H.H.H.H.H.H.H.H.H.H.H.H.H.H.H.H.H.H.H.H.H.H.H.H.H.H.H.H.H.H.H.H.H.H.H.H.H.H.H.H.H.H.H.H.H.H.H.H.H.H.H.H.H.H.H.H.H.H.H.H.H.H.H.H.H.H.H.H.H.H.H.H.H.H.H.H.H.H.H.H.H.H.H.H.H.H.H.H.H.H.H.H.H.H.H.H.H.H.H.H.H.H.H.H.H.H.H.H.H.H.H.H.H.H.H.H.H.H.H.H.H.H.H.H.H.H.H.H.H.H.H.H.H.H.H.H.H.H.H.H.H.H.H.H.H.H.H.H.H.H.H.H.H.H.H.H.H.H.H.H.H.H.H.H.H.H.H.H.H.H.H.H.H.H.H.H.H.H.H.H.H.H.H.H.H.H.H.H.H.H.H.H.H.H.H.H.H.H.H.H.H.H.H.H.H.H.H.H.H.H.H.H.H.H.H.H.H.H.H.H.H.H.H.H.H.H.H.H.H.H.H.H.H.H.H.H.H.H.H.H.H.H.H.H.H.H.H.H.H.H.H.H.H.H.H.H.H.H.H.H.H.H.H.H.H.H.H.H.H.H.H.H.H.H.H.H.H.H.H.H.H.H.H.H.H.H.H.H.H.H.H.H.H.H.H.H.H.H.H.H.H.H.H.H.H.H.H.H.H.H.H.H.H.H.H.H.H.H.H.H.H.H.H.H.H.H.H.H.H.H.H.H.H.H.H.H.H.H.H.H.H.H.H.H.H.H.H.H.H.H.H.H.H.H.H.H.H.H.H.H.H.H.H.H.H.H.H.H.H.H.H.H.H.H.H.H.H.H.H.H.H.H.H.H.H.H.H.H.H.H.H.H.H.H.H.H.H.H.H.H.H.H.H.H.H.H.H.H.G.Q.H.S.L.S.Y.L.L.G.S.L.G.G.G.G.H.H.H.H.H.H.H.H.H.H.H.H.H.H.H.H.H.H.H.H.H.H.H.H.H.H.H.H.H.H.H.H.H.H.H.H.H.H.H.H.H.H.H.H.H.H.H.H.H.H.H.H.H.H.H.H.H.H.H.H.H.H.H.H.H.H.H.H.H.H.H.H.H.H.H.H.H.H.H.H.L.H.H.J.J.H.H.L.P.I.U.P.Y.S.H.L.L.D.U.U.T.D.D.U.G.P.U.I.G.P.G.P.H.H.H.H.H.H.H.H.H.H.H.H.H.H.H.H.H.H.H.H.H.H.H.H.H.H.H.H.H.H.H.H.H.H.H.H.H.H.H.H.H.H.H.H.H.H.H.H.H.H.H.H.H.H.H.H.H.H.H.H.H.H.H.H.H.H.H.H.H.H.H.H.H.H.H.H.H.H.H.H.H.H.H.H.H.H.H.H.H.H.H.H.H.H.H.H.H.H.H.H.H.H.H.H.H.H.H.H.H.H.H.H.H.H.H.H.H.H.H.H.H.H.H.H.H.H.H.H.H.H.H.H.H.H.H.H.H.H.H.H.H.H.H.H.H.H.H.H.H.H.H.H.H.H.H.H.H.H.H.H.H.H.H.H.H.H.H.H.H.H.H.H.H.H.H.H.H.H.H.H.H.H.H.H.H.H.H.H.H.H.H.H.H.H.H.H.H.H.H.H.H.H.H.H.H.H.H.H.H.H.H.H.H.H.H.H.H.H.H.H.H.H.H.H.H.H.H.H.H.H.H.H.H.H.H.H.H.H.H.H.H.H.H.H.H.H.H.H.H.H.H.H.H.H.H.H.H.H.",
"H.H.H.H.H.H.H.H.H.H.H.H.H.H.H.H.H.H.H.H.H.H.H.H.H.H.H.H.H.H.H.H.H.H.H.H.H.H.H.H.H.H.H.H.H.H.H.H.H.H.H.H.H.H.H.H.H.H.H.H.H.H.H.H.H.H.H.H.H.H.H.H.H.H.H.H.H.H.H.H.H.H.H.H.H.H.H.H.H.H.H.H.H.H.H.H.H.H.H.H.H.H.H.H.H.H.H.H.H.H.H.H.H.H.H.H.H.H.H.H.H.H.H.H.H.H.H.H.H.H.H.H.H.H.H.H.H.H.H.H.H.H.H.H.H.H.H.H.H.H.H.H.H.H.H.H.H.H.H.H.H.H.H.H.H.H.H.H.H.H.H.H.H.H.H.H.H.H.H.H.H.H.H.H.H.H.H.H.H.H.H.H.H.H.H.H.H.H.H.H.H.H.H.H.H.H.H.H.H.H.H.H.H.H.H.H.H.H.H.H.H.H.H.H.H.H.H.H.H.H.H.H.H.H.H.H.H.H.H.H.H.H.H.H.H.H.H.H.H.H.H.H.H.H.H.H.H.H.H.H.H.H.H.H.H.H.H.H.H.H.H.H.H.H.H.H.H.H.H.H.H.H.H.H.H.H.H.H.H.H.H.H.H.H.H.H.H.H.H.H.H.H.H.H.H.H.H.H.H.H.H.H.H.H.H.H.H.H.H.H.H.H.H.H.H.H.H.H.H.H.H.H.H.H.H.H.H.H.H.H.H.H.H.H.H.H.H.H.H.H.H.H.H.H.H.H.H.H.H.H.H.H.H.H.H.H.H.H.H.H.H.H.H.H.H.H.H.H.H.H.H.H.H.H.H.H.H.H.H.H.H.H.H.H.H.H.H.H.H.H.H.H.H.H.H.H.H.H.H.H.H.H.H.H.H.H.H.H.H.H.H.H.H.H.H.H.H.H.H.H.H.H.H.H.H.H.H.H.H.H.H.H.H.H.H.H.H.H.H.H.H.H.H.H.H.H.H.H.H.H.H.H.H.H.H.P.S.S.L.S.S.G.P.P.G.P.S.P.P.P.H.H.H.H.H.H.H.H.H.H.H.H.H.H.H.H.H.H.H.H.H.H.H.H.H.H.H.H.H.H.H.H.H.H.H.H.H.H.H.H.H.H.H.H.H.H.H.H.H.H.H.H.H.H.H.H.H.H.H.H.H.H.H.H.H.H.H.H.H.H.H.H.H.H.H.H.H.H.H.H.H.J.J.J.J.J.S.L.S.G.U.P.L.S.S.H.J.K.Q.Q.J.J.J.H.P.Y.H.H.S.H.F.G.H.H.H.H.H.H.H.H.H.H.H.H.H.H.H.H.H.H.H.H.H.H.H.H.H.H.H.H.H.H.H.H.H.H.H.H.H.H.H.H.H.H.H.H.H.H.H.H.H.H.H.H.H.H.H.H.H.H.H.H.H.H.H.H.H.H.H.H.H.H.H.H.H.H.H.H.H.H.H.H.H.H.H.H.H.H.H.H.H.H.H.H.H.H.H.H.H.H.H.H.H.H.H.H.H.H.H.H.H.H.H.H.H.H.H.H.H.H.H.H.H.H.H.H.H.H.H.H.H.H.H.H.H.H.H.H.H.H.H.H.H.H.H.H.H.H.H.H.H.H.H.H.H.H.H.H.H.H.H.H.H.H.H.H.H.H.H.H.H.H.H.H.H.H.H.H.H.H.H.H.H.H.H.H.H.H.H.H.H.H.H.H.H.H.H.H.H.H.H.H.H.H.H.H.H.H.H.H.H.H.H.H.H.H.H.H.H.H.H.H.H.H.H.H.H.H.H.H.H.H.H.H.H.H.H.H.H.H.H.H.H.H.H.H.H.H.H.H.H.H.H.H.H.H.H.H.H.H.",
"H.H.H.H.H.H.H.H.H.H.H.H.H.H.H.H.H.H.H.H.H.H.H.H.H.H.H.H.H.H.H.H.H.H.H.H.H.H.H.H.H.H.H.H.H.H.H.H.H.H.H.H.H.H.H.H.H.H.H.H.H.H.H.H.H.H.H.H.H.H.H.H.H.H.H.H.H.H.H.H.H.H.H.H.H.H.H.H.H.H.H.H.H.H.H.H.H.H.H.H.H.H.H.H.H.H.H.H.H.H.H.H.H.H.H.H.H.H.H.H.H.H.H.H.H.H.H.H.H.H.H.H.H.H.H.H.H.H.H.H.H.H.H.H.H.H.H.H.H.H.H.H.H.H.H.H.H.H.H.H.H.H.H.H.H.H.H.H.H.H.H.H.H.H.H.H.H.H.H.H.H.H.H.H.H.H.H.H.H.H.H.H.H.H.H.H.H.H.H.H.H.H.H.H.H.H.H.H.H.H.H.H.H.H.H.H.H.H.H.H.H.H.H.H.H.H.H.H.H.H.H.H.H.H.H.H.H.H.H.H.H.H.H.H.H.H.H.H.H.H.H.H.H.H.H.H.H.H.H.H.H.H.H.H.H.H.H.H.H.H.H.H.H.H.H.H.H.H.H.H.H.H.H.H.H.H.H.H.H.H.H.H.H.H.H.H.H.H.H.H.H.H.H.H.H.H.H.H.H.H.H.H.H.H.H.H.H.H.H.H.H.H.H.H.H.H.H.H.H.H.H.H.H.H.H.H.H.H.H.H.H.H.H.H.H.H.H.H.H.H.H.H.H.H.H.H.H.H.H.H.H.H.H.H.H.H.H.H.H.H.H.H.H.H.H.H.H.H.H.H.H.H.H.H.H.H.H.H.H.H.H.H.H.H.H.H.H.H.H.H.H.H.H.H.H.H.H.H.H.H.H.H.H.H.H.H.H.H.H.H.H.H.H.H.H.H.H.H.H.H.H.H.H.H.H.H.H.H.H.H.H.H.H.H.H.H.H.H.H.H.H.H.H.H.H.H.H.H.H.H.H.H.H.H.P.G.P.P.P.Q.P.P.L.P.G.P.F.H.S.S.H.H.H.H.H.H.H.H.H.H.H.H.H.H.H.H.H.H.H.H.H.H.H.H.H.H.H.H.H.H.H.H.H.H.H.H.H.H.H.H.H.H.H.H.H.H.H.H.H.H.H.H.H.H.H.H.H.H.H.H.H.H.H.H.H.H.H.H.H.H.H.H.H.H.H.H.H.H.H.J.P.P.L.L.P.P.H.H.L.L.P.P.L.L.L.L.S.S.D.L.G.G.U.G.G.S.S.G.L.P.I.G.L.H.H.H.H.H.H.H.H.H.H.H.H.H.H.H.H.H.H.H.H.H.H.H.H.H.H.H.H.H.H.H.H.H.H.H.H.H.H.H.H.H.H.H.H.H.H.H.H.H.H.H.H.H.H.H.H.H.H.H.H.H.H.H.H.H.H.H.H.H.H.H.H.H.H.H.H.H.H.H.H.H.H.H.H.H.H.H.H.H.H.H.H.H.H.H.H.H.H.H.H.H.H.H.H.H.H.H.H.H.H.H.H.H.H.H.H.H.H.H.H.H.H.H.H.H.H.H.H.H.H.H.H.H.H.H.H.H.H.H.H.H.H.H.H.H.H.H.H.H.H.H.H.H.H.H.H.H.H.H.H.H.H.H.H.H.H.H.H.H.H.H.H.H.H.H.H.H.H.H.H.H.H.H.H.H.H.H.H.H.H.H.H.H.H.H.H.H.H.H.H.H.H.H.H.H.H.H.H.H.H.H.H.H.H.H.H.H.H.H.H.H.H.H.H.H.H.H.H.H.H.H.H.H.H.H.H.H.H.H.H.H.H.H.H.H.H.H.H.H.H.H.H.H.H.H.H.H.",
"H.H.H.H.H.H.H.H.H.H.H.H.H.H.H.H.H.H.H.H.H.H.H.H.H.H.H.H.H.H.H.H.H.H.H.H.H.H.H.H.H.H.H.H.H.H.H.H.H.H.H.H.H.H.H.H.H.H.H.H.H.H.H.H.H.H.H.H.H.H.H.H.H.H.H.H.H.H.H.H.H.H.H.H.H.H.H.H.H.H.H.H.H.H.H.H.H.H.H.H.H.H.H.H.H.H.H.H.H.H.H.H.H.H.H.H.H.H.H.H.H.H.H.H.H.H.H.H.H.H.H.H.H.H.H.H.H.H.H.H.H.H.H.H.H.H.H.H.H.H.H.H.H.H.H.H.H.H.H.H.H.H.H.H.H.H.H.H.H.H.H.H.H.H.H.H.H.H.H.H.H.H.H.H.H.H.H.H.H.H.H.H.H.H.H.H.H.H.H.H.H.H.H.H.H.H.H.H.H.H.H.H.H.H.H.H.H.H.H.H.H.H.H.H.H.H.H.H.H.H.H.H.H.H.H.H.H.H.H.H.H.H.H.H.H.H.H.H.H.H.H.H.H.H.H.H.H.H.H.H.H.H.H.H.H.H.H.H.H.H.H.H.H.H.H.H.H.H.H.H.H.H.H.H.H.H.H.H.H.H.H.H.H.H.H.H.H.H.H.H.H.H.H.H.H.H.H.H.H.H.H.H.H.H.H.H.H.H.H.H.H.H.H.H.H.H.H.H.H.H.H.H.H.H.H.H.H.H.H.H.H.H.H.H.H.H.H.H.H.H.H.H.H.H.H.H.H.H.H.H.H.H.H.H.H.H.H.H.H.H.H.H.H.H.H.H.H.H.H.H.H.H.H.H.H.H.H.H.H.H.H.H.H.H.H.H.H.H.H.H.H.H.H.H.H.H.H.H.H.H.H.H.H.H.H.H.H.H.H.H.H.H.H.H.H.H.H.H.H.H.H.H.H.H.H.H.H.H.H.H.H.H.H.H.H.H.H.H.H.H.H.H.H.H.H.H.H.H.H.H.H.H.H.H.P.M.Q.P.M.H.S.S.S.Y.S.P.G.P.G.P.H.H.H.H.H.H.H.H.H.H.H.H.H.H.H.H.H.H.H.H.H.H.H.H.H.H.H.H.H.H.H.H.H.H.H.H.H.H.H.H.H.H.H.H.H.H.H.H.H.H.H.H.H.H.H.H.H.H.H.H.H.H.H.H.H.H.H.H.H.H.H.H.H.H.H.H.H.H.H.J.P.U.D.D.U.P.J.J.J.F.H.G.S.H.P.J.P.I.U.U.L.P.J.J.H.S.F.J.J.J.P.H.H.H.H.H.H.H.H.H.H.H.H.H.H.H.H.H.H.H.H.H.H.H.H.H.H.H.H.H.H.H.H.H.H.H.H.H.H.H.H.H.H.H.H.H.H.H.H.H.H.H.H.H.H.H.H.H.H.H.H.H.H.H.H.H.H.H.H.H.H.H.H.H.H.H.H.H.H.H.H.H.H.H.H.H.H.H.H.H.H.H.H.H.H.H.H.H.H.H.H.H.H.H.H.H.H.H.H.H.H.H.H.H.H.H.H.H.H.H.H.H.H.H.H.H.H.H.H.H.H.H.H.H.H.H.H.H.H.H.H.H.H.H.H.H.H.H.H.H.H.H.H.H.H.H.H.H.H.H.H.H.H.H.H.H.H.H.H.H.H.H.H.H.H.H.H.H.H.H.H.H.H.H.H.H.H.H.H.H.H.H.H.H.H.H.H.H.H.H.H.H.H.H.H.H.H.H.H.H.H.H.H.H.H.H.H.H.H.H.H.H.H.H.H.H.H.H.H.H.H.H.H.H.H.H.H.H.H.H.H.H.H.H.H.H.H.H.H.H.H.H.H.H.H.H.H.H.H.H.",
"H.H.H.H.H.H.H.H.H.H.H.H.H.H.H.H.H.H.H.H.H.H.H.H.H.H.H.H.H.H.H.H.H.H.H.H.H.H.H.H.H.H.H.H.H.H.H.H.H.H.H.H.H.H.H.H.H.H.H.H.H.H.H.H.H.H.H.H.H.H.H.H.H.H.H.H.H.H.H.H.H.H.H.H.H.H.H.H.H.H.H.H.H.H.H.H.H.H.H.H.H.H.H.H.H.H.H.H.H.H.H.H.H.H.H.H.H.H.H.H.H.H.H.H.H.H.H.H.H.H.H.H.H.H.H.H.H.H.H.H.H.H.H.H.H.H.H.H.H.H.H.H.H.H.H.H.H.H.H.H.H.H.H.H.H.H.H.H.H.H.H.H.H.H.H.H.H.H.H.H.H.H.H.H.H.H.H.H.H.H.H.H.H.H.H.H.H.H.H.H.H.H.H.H.H.H.H.H.H.H.H.H.H.H.H.H.H.H.H.H.H.H.H.H.H.H.H.H.H.H.H.H.H.H.H.H.H.H.H.H.H.H.H.H.H.H.H.H.H.H.H.H.H.H.H.H.H.H.H.H.H.H.H.H.H.H.H.H.H.H.H.H.H.H.H.H.H.H.H.H.H.H.H.H.H.H.H.H.H.H.H.H.H.H.H.H.H.H.H.H.H.H.H.H.H.H.H.H.H.H.H.H.H.H.H.H.H.H.H.H.H.H.H.H.H.H.H.H.H.H.H.H.H.H.H.H.H.H.H.H.H.H.H.H.H.H.H.H.H.H.H.H.H.H.H.H.H.H.H.H.H.H.H.H.H.H.H.H.H.H.H.H.H.H.H.H.H.H.H.H.H.H.H.H.H.H.H.H.H.H.H.H.H.H.H.H.H.H.H.H.H.H.H.H.H.H.H.H.H.H.H.H.H.H.H.H.H.H.H.H.H.H.H.H.H.H.H.H.H.H.H.H.H.H.H.H.H.H.H.H.H.H.H.H.H.H.H.H.H.H.H.H.H.H.H.H.H.H.H.H.H.H.H.H.H.H.H.H.H.H.H.H.H.H.H.H.H.H.H.H.H.H.H.H.H.H.H.H.H.H.H.H.H.H.H.H.H.H.H.H.H.H.H.H.H.H.H.H.H.H.H.H.H.H.H.H.H.H.H.H.H.H.H.H.H.H.H.H.H.H.H.H.H.H.H.H.H.H.H.H.H.H.H.H.H.H.H.H.H.H.H.H.H.H.H.H.H.H.H.H.H.H.H.H.H.H.H.H.H.H.H.H.H.H.H.H.H.H.H.H.H.H.H.H.H.H.H.H.H.H.H.H.H.H.H.H.H.H.H.H.H.H.H.H.H.H.H.H.H.H.H.H.H.H.H.H.H.H.H.H.H.H.H.H.H.H.H.H.H.H.H.H.H.H.H.H.H.H.H.H.H.H.H.H.H.H.H.H.H.H.H.H.H.H.H.H.H.H.H.H.H.H.H.H.H.H.H.H.H.H.H.H.H.H.H.H.H.H.H.H.H.H.H.H.H.H.H.H.H.H.H.H.H.H.H.H.H.H.H.H.H.H.H.H.H.H.H.H.H.H.H.H.H.H.H.H.H.H.H.H.H.H.H.H.H.H.H.H.H.H.H.H.H.H.H.H.H.H.H.H.H.H.H.H.H.H.H.H.H.H.H.H.H.H.H.H.H.H.H.H.H.H.H.H.H.H.H.H.H.H.H.H.H.H.H.H.H.H.H.H.H.H.H.H.H.H.H.H.H.H.H.H.H.H.H.H.H.H.H.H.H.H.H.H.H.H.H.H.H.H.H.H.H.H.H.H.H.H.H.H.H.H.H.H.H.H.H.H.H.H.H.H.H.H.H.H.H.H.H.H.H.H.H.H.H.H.H.H.H.H.",
"H.H.H.H.H.H.H.H.H.H.H.H.H.H.H.H.H.H.H.H.H.H.H.H.H.H.H.H.H.H.H.H.H.H.H.H.H.H.H.H.H.H.H.H.H.H.H.H.H.H.H.H.H.H.H.H.H.H.H.H.H.H.H.H.H.H.H.H.H.H.H.H.H.H.H.H.H.H.H.H.H.H.H.H.H.H.H.H.H.H.H.H.H.H.H.H.H.H.H.H.H.H.H.H.H.H.H.H.H.H.H.H.H.H.H.H.H.H.H.H.H.H.H.H.H.H.H.H.H.H.H.H.H.H.H.H.H.H.H.H.H.H.H.H.H.H.H.H.H.H.H.H.H.H.H.H.H.H.H.H.H.H.H.H.H.H.H.H.H.H.H.H.H.H.H.H.H.H.H.H.H.H.H.H.H.H.H.H.H.H.H.H.H.H.H.H.H.H.H.H.H.H.H.H.H.H.H.H.H.H.H.H.H.H.H.H.H.H.H.H.H.H.H.H.H.H.H.H.H.H.H.H.H.H.H.H.H.H.H.H.H.H.H.H.H.H.H.H.H.H.H.H.H.H.H.H.H.H.H.H.H.H.H.H.H.H.H.H.H.H.H.H.H.H.H.H.H.H.H.H.H.H.H.H.H.H.H.H.H.H.H.H.H.H.H.H.H.H.H.H.H.H.H.H.H.H.H.H.H.H.H.H.H.H.H.H.H.H.H.H.H.H.H.H.H.H.H.H.H.H.H.H.H.H.H.H.H.H.H.H.H.H.H.H.H.H.H.H.H.H.H.H.H.H.H.H.H.H.H.H.H.H.H.H.H.H.H.H.H.H.H.H.H.H.H.H.H.H.H.H.H.H.H.H.H.H.H.H.H.H.H.H.H.H.H.H.H.H.H.H.H.H.H.H.H.H.H.H.H.H.H.H.H.H.H.H.H.H.H.H.H.H.H.H.H.H.H.H.H.H.H.H.H.H.H.H.H.H.H.H.H.H.H.H.H.H.H.H.H.H.H.H.H.H.H.H.H.H.H.H.H.H.H.H.H.H.H.H.H.H.H.H.H.H.H.H.H.H.H.H.H.H.H.H.H.H.H.H.H.H.H.H.H.H.H.H.H.H.H.H.H.H.H.H.H.H.H.H.H.H.H.H.H.H.H.H.H.H.H.H.H.H.H.H.H.H.H.H.H.H.H.H.H.H.H.H.H.H.H.H.H.H.H.H.H.H.H.H.H.H.H.H.H.H.H.H.H.H.H.H.H.H.H.H.H.H.H.H.H.H.H.H.H.H.H.H.H.H.H.H.H.H.H.H.H.H.H.H.H.H.H.H.H.H.H.H.H.H.H.H.H.H.H.H.H.H.H.H.H.H.H.H.H.H.H.H.H.H.H.H.H.H.H.H.H.H.H.H.H.H.H.H.H.H.H.H.H.H.H.H.H.H.H.H.H.H.H.H.H.H.H.H.H.H.H.H.H.H.H.H.H.H.H.H.H.H.H.H.H.H.H.H.H.H.H.H.H.H.H.H.H.H.H.H.H.H.H.H.H.H.H.H.H.H.H.H.H.H.H.H.H.H.H.H.H.H.H.H.H.H.H.H.H.H.H.H.H.H.H.H.H.H.H.H.H.H.H.H.H.H.H.H.H.H.H.H.H.H.H.H.H.H.H.H.H.H.H.H.H.H.H.H.H.H.H.H.H.H.H.H.H.H.H.H.H.H.H.H.H.H.H.H.H.H.H.H.H.H.H.H.H.H.H.H.H.H.H.H.H.H.H.H.H.H.H.H.H.H.H.H.H.H.H.H.H.H.H.H.H.H.H.H.H.H.H.H.H.H.H.H.H.H.H.H.H.H.H.H.H.H.H.H.H.H.H.H.H.H.H.H.H.H.H.H.H.H.H.H.H.H.",
"H.H.H.H.H.H.H.H.H.H.H.H.H.H.H.H.H.H.H.H.H.H.H.H.H.H.H.H.H.H.H.H.H.H.H.H.H.H.H.H.H.H.H.H.H.H.H.H.H.H.H.H.H.H.H.H.H.H.H.H.H.H.H.H.H.H.H.H.H.H.H.H.H.H.H.H.H.H.H.H.H.H.H.H.H.H.H.H.H.H.H.H.H.H.H.H.H.H.H.H.H.H.H.H.H.H.H.H.H.H.H.H.H.H.H.H.H.H.H.H.H.H.H.H.H.H.H.H.H.H.H.H.H.H.H.H.H.H.H.H.H.H.H.H.H.H.H.H.H.H.H.H.H.H.H.H.H.H.H.H.H.H.H.H.H.H.H.H.H.H.H.H.H.H.H.H.H.H.H.H.H.H.H.H.H.H.H.H.H.H.H.H.H.H.H.H.H.H.H.H.H.H.H.H.H.H.H.H.H.H.H.H.H.H.H.H.H.H.H.H.H.H.H.H.H.H.H.H.H.H.H.H.H.H.H.H.H.H.H.H.H.H.H.H.H.H.H.H.H.H.H.H.H.H.H.H.H.H.H.H.H.H.H.H.H.H.H.H.H.H.H.H.H.H.H.H.H.H.H.H.H.H.H.H.H.H.H.H.H.H.H.H.H.H.H.H.H.H.H.H.H.H.H.H.H.H.H.H.H.H.H.H.H.H.H.H.H.H.H.H.H.H.H.H.H.H.H.H.H.H.H.H.H.H.H.H.H.H.H.H.H.H.H.H.H.H.H.H.H.H.H.H.H.H.H.H.H.H.H.H.H.H.H.H.H.H.H.H.H.H.H.H.H.H.H.H.H.H.H.H.H.H.H.H.H.H.H.H.H.H.H.H.H.H.H.H.H.H.H.H.H.H.H.H.H.H.H.H.H.H.H.H.H.H.H.H.H.H.H.H.H.H.H.H.H.H.H.H.H.H.H.H.H.H.H.H.H.H.H.H.H.H.H.H.H.H.H.H.H.H.H.H.H.H.H.H.H.H.H.H.H.H.H.H.H.H.H.H.H.H.H.H.H.H.H.H.H.H.H.H.H.H.H.H.H.H.H.H.H.H.H.H.H.H.H.H.H.H.H.H.H.H.H.H.H.H.H.H.H.H.H.H.H.H.H.H.H.H.H.H.H.H.H.H.H.H.H.H.H.H.H.H.H.H.H.H.H.H.H.H.H.H.H.H.H.H.H.H.H.H.H.H.H.H.H.H.H.H.H.H.H.H.H.H.H.H.H.H.H.H.H.H.H.H.H.H.H.H.H.H.H.H.H.H.H.H.H.H.H.H.H.H.H.H.H.H.H.H.H.H.H.H.H.H.H.H.H.H.H.H.H.H.H.H.H.H.H.H.H.H.H.H.H.H.H.H.H.H.H.H.H.H.H.H.H.H.H.H.H.H.H.H.H.H.H.H.H.H.H.H.H.H.H.H.H.H.H.H.H.H.H.H.H.H.H.H.H.H.H.H.H.H.H.H.H.H.H.H.H.H.H.H.H.H.H.H.H.H.H.H.H.H.H.H.H.H.H.H.H.H.H.H.H.H.H.H.H.H.H.H.H.H.H.H.H.H.H.H.H.H.H.H.H.H.H.H.H.H.H.H.H.H.H.H.H.H.H.H.H.H.H.H.H.H.H.H.H.H.H.H.H.H.H.H.H.H.H.H.H.H.H.H.H.H.H.H.H.H.H.H.H.H.H.H.H.H.H.H.H.H.H.H.H.H.H.H.H.H.H.H.H.H.H.H.H.H.H.H.H.H.H.H.H.H.H.H.H.H.H.H.H.H.H.H.H.H.H.H.H.H.H.H.H.H.H.H.H.H.H.H.H.H.H.H.H.H.H.H.H.H.H.H.H.H.H.H.H.H.H.H.",
"H.H.H.H.H.H.H.H.H.H.H.H.H.H.H.H.H.H.H.H.H.H.H.H.H.H.H.H.H.H.H.H.H.H.H.H.H.H.H.H.H.H.H.H.H.H.H.H.H.H.H.H.H.H.H.H.H.H.H.H.H.H.H.H.H.H.H.H.H.H.H.H.H.H.H.H.H.H.H.H.H.H.H.H.H.H.H.H.H.H.H.H.H.H.H.H.H.H.H.H.H.H.H.H.H.H.H.H.H.H.H.H.H.H.H.H.H.H.H.H.H.H.H.H.H.H.H.H.H.H.H.H.H.H.H.H.H.H.H.H.H.H.H.H.H.H.H.H.H.H.H.H.H.H.H.H.H.H.H.H.H.H.H.H.H.H.H.H.H.H.H.H.H.H.H.H.H.H.H.H.H.H.H.H.H.H.H.H.H.H.H.H.H.H.H.H.H.H.H.H.H.H.H.H.H.H.H.H.H.H.H.H.H.H.H.H.H.H.H.H.H.H.H.H.H.H.H.H.H.H.H.H.H.H.H.H.H.H.H.H.H.H.H.H.H.H.H.H.H.H.H.H.H.H.H.H.H.H.H.H.H.H.H.H.H.H.H.H.H.H.H.H.H.H.H.H.H.H.H.H.H.H.H.H.H.H.H.H.H.H.H.H.H.H.H.H.H.H.H.H.H.H.H.H.H.H.H.H.H.H.H.H.H.H.H.H.H.H.H.H.H.H.H.H.H.H.H.H.H.H.H.H.H.H.H.H.H.H.H.H.H.H.H.H.H.H.H.H.H.H.H.H.H.H.H.H.H.H.H.H.H.H.H.H.H.H.H.H.H.H.H.H.H.H.H.H.H.H.H.H.H.H.H.H.H.H.H.H.H.H.H.H.H.H.H.H.H.H.H.H.H.H.H.H.H.H.H.H.H.H.H.H.H.H.H.H.H.H.H.H.H.H.H.H.H.H.H.H.H.H.H.H.H.H.H.H.H.H.H.H.H.H.H.H.H.H.H.H.H.H.H.H.H.H.H.H.H.H.H.H.H.H.H.H.H.H.H.H.H.H.H.H.H.H.H.H.H.H.H.H.H.H.H.H.H.H.H.H.H.H.H.H.H.H.H.H.H.H.H.H.H.H.H.H.H.H.H.H.H.H.H.H.H.H.H.H.H.H.H.H.H.H.H.H.H.H.H.H.H.H.H.H.H.H.H.H.H.H.H.H.H.H.H.H.H.H.H.H.H.H.H.H.H.H.H.H.H.H.H.H.H.H.H.H.H.H.H.H.H.H.H.H.H.H.H.H.H.H.H.H.H.H.H.H.H.H.H.H.H.H.H.H.H.H.H.H.H.H.H.H.H.H.H.H.H.H.H.H.H.H.H.H.H.H.H.H.H.H.H.H.H.H.H.H.H.H.H.H.H.H.H.H.H.H.H.H.H.H.H.H.H.H.H.H.H.H.H.H.H.H.H.H.H.H.H.H.H.H.H.H.H.H.H.H.H.H.H.H.H.H.H.H.H.H.H.H.H.H.H.H.H.H.H.H.H.H.H.H.H.H.H.H.H.H.H.H.H.H.H.H.H.H.H.H.H.H.H.H.H.H.H.H.H.H.H.H.H.H.H.H.H.H.H.H.H.H.H.H.H.H.H.H.H.H.H.H.H.H.H.H.H.H.H.H.H.H.H.H.H.H.H.H.H.H.H.H.H.H.H.H.H.H.H.H.H.H.H.H.H.H.H.H.H.H.H.H.H.H.H.H.H.H.H.H.H.H.H.H.H.H.H.H.H.H.H.H.H.H.H.H.H.H.H.H.H.H.H.H.H.H.H.H.H.H.H.H.H.H.H.H.H.H.H.H.H.H.H.H.H.H.H.H.H.H.H.H.H.H.H.H.H.H.H.H.H.H.H.H.H.H.",
"H.H.H.H.H.H.H.H.H.H.H.H.H.H.H.H.H.H.H.H.H.H.H.H.H.H.H.H.H.H.H.H.H.H.H.H.H.H.H.H.H.H.H.H.H.H.H.H.H.H.H.H.H.H.H.H.H.H.H.H.H.H.H.H.H.H.H.H.H.H.H.H.H.H.H.H.H.H.H.H.H.H.H.H.H.H.H.H.H.H.H.H.H.H.H.H.H.H.H.H.H.H.H.H.H.H.H.H.H.H.H.H.H.H.H.H.H.H.H.H.H.H.H.H.H.H.H.H.H.H.H.H.H.H.H.H.H.H.H.H.H.H.H.H.H.H.H.H.H.H.H.H.H.H.H.H.H.H.H.H.H.H.H.H.H.H.H.H.H.H.H.H.H.H.H.H.H.H.H.H.H.H.H.H.H.H.H.H.H.H.H.H.H.H.H.H.H.H.H.H.H.H.H.H.H.H.H.H.H.H.H.H.H.H.H.H.H.H.H.H.H.H.H.H.H.H.H.H.H.H.H.H.H.H.H.H.H.H.H.H.H.H.H.H.H.H.H.H.H.H.H.H.H.H.H.H.H.H.H.H.H.H.H.H.H.H.H.H.H.H.H.H.H.H.H.H.H.H.H.H.H.H.H.H.H.H.H.H.H.H.H.H.H.H.H.H.H.H.H.H.H.H.H.H.H.H.H.H.H.H.H.H.H.H.H.H.H.H.H.H.H.H.H.H.H.H.H.H.H.H.H.H.H.H.H.H.H.H.H.H.H.H.H.H.H.H.H.H.H.H.H.H.H.H.H.H.H.H.H.H.H.H.H.H.H.H.H.H.H.H.H.H.H.H.H.H.H.H.H.H.H.H.H.H.H.H.H.H.H.H.H.H.H.H.H.H.H.H.H.H.H.H.H.H.H.H.H.H.H.H.H.H.H.H.H.H.H.H.H.H.H.H.H.H.H.H.H.H.H.H.H.H.H.H.H.H.H.H.H.H.H.H.H.H.H.H.H.H.H.H.H.H.H.H.H.H.H.H.H.H.H.H.H.H.H.H.H.H.H.H.H.H.H.H.H.H.H.H.H.H.H.H.H.H.H.H.H.H.H.H.H.H.H.H.H.H.H.H.H.H.H.H.H.H.H.H.H.H.H.H.H.H.H.H.H.H.H.H.H.H.H.H.H.H.H.H.H.H.H.H.H.H.H.H.H.H.H.H.H.H.H.H.H.H.H.H.H.H.H.H.H.H.H.H.H.H.H.H.H.H.H.H.H.H.H.H.H.H.H.H.H.H.H.H.H.H.H.H.H.H.H.H.H.H.H.H.H.H.H.H.H.H.H.H.H.H.H.H.H.H.H.H.H.H.H.H.H.H.H.H.H.H.H.H.H.H.H.H.H.H.H.H.H.H.H.H.H.H.H.H.H.H.H.H.H.H.H.H.H.H.H.H.H.H.H.H.H.H.H.H.H.H.H.H.H.H.H.H.H.H.H.H.H.H.H.H.H.H.H.H.H.H.H.H.H.H.H.H.H.H.H.H.H.H.H.H.H.H.H.H.H.H.H.H.H.H.H.H.H.H.H.H.H.H.H.H.H.H.H.H.H.H.H.H.H.H.H.H.H.H.H.H.H.H.H.H.H.H.H.H.H.H.H.H.H.H.H.H.H.H.H.H.H.H.H.H.H.H.H.H.H.H.H.H.H.H.H.H.H.H.H.H.H.H.H.H.H.H.H.H.H.H.H.H.H.H.H.H.H.H.H.H.H.H.H.H.H.H.H.H.H.H.H.H.H.H.H.H.H.H.H.H.H.H.H.H.H.H.H.H.H.H.H.H.H.H.H.H.H.H.H.H.H.H.H.H.H.H.H.H.H.H.H.H.H.H.H.H.H.H.H.H.H.H.H.H.H.H.H.H.",
"H.H.H.H.H.H.H.H.H.H.H.H.H.H.H.H.H.H.H.H.H.H.H.H.H.H.H.H.H.H.H.H.H.H.H.H.H.H.H.H.H.H.H.H.H.H.H.H.H.H.H.H.H.H.H.H.H.H.H.H.H.H.H.H.H.H.H.H.H.H.H.H.H.H.H.H.H.H.H.H.H.H.H.H.H.H.H.H.H.H.H.H.H.H.H.H.H.H.H.H.H.H.H.H.H.H.H.H.H.H.H.H.H.H.H.H.H.H.H.H.H.H.H.H.H.H.H.H.H.H.H.H.H.H.H.H.H.H.H.H.H.H.H.H.H.H.H.H.H.H.H.H.H.H.H.H.H.H.H.H.H.H.H.H.H.H.H.H.H.H.H.H.H.H.H.H.H.H.H.H.H.H.H.H.H.H.H.H.H.H.H.H.H.H.H.H.H.H.H.H.H.H.H.H.H.H.H.H.H.H.H.H.H.H.H.H.H.H.H.H.H.H.H.H.H.H.H.H.H.H.H.H.H.H.H.H.H.H.H.H.H.H.H.H.H.H.H.H.H.H.H.H.H.H.H.H.H.H.H.H.H.H.H.H.H.H.H.H.H.H.H.H.H.H.H.H.H.H.H.H.H.H.H.H.H.H.H.H.H.H.H.H.H.H.H.H.H.H.H.H.H.H.H.H.H.H.H.H.H.H.H.H.H.H.H.H.H.H.H.H.H.H.H.H.H.H.H.H.H.H.H.H.H.H.H.H.H.H.H.H.H.H.H.H.H.H.H.H.H.H.H.H.H.H.H.H.H.H.H.H.H.H.H.H.H.H.H.H.H.H.H.H.H.H.H.H.H.H.H.H.H.H.H.H.H.H.H.H.H.H.H.H.H.H.H.H.H.H.H.H.H.H.H.H.H.H.H.H.H.H.H.H.H.H.H.H.H.H.H.H.H.H.H.H.H.H.H.H.H.H.H.H.H.H.H.H.H.H.H.H.H.H.H.H.H.H.H.H.H.H.H.H.H.H.H.H.H.H.H.H.H.H.H.H.H.H.H.H.H.H.H.H.H.H.H.H.H.H.H.H.H.H.H.H.H.H.H.H.H.H.H.H.H.H.H.H.H.H.H.H.H.H.H.H.H.H.H.H.H.H.H.H.H.H.H.H.H.H.H.H.H.H.H.H.H.H.H.H.H.H.H.H.H.H.H.H.H.H.H.H.H.H.H.H.H.H.H.H.H.H.H.H.H.H.H.H.H.H.H.H.H.H.H.H.H.H.H.H.H.H.H.H.H.H.H.H.H.H.H.H.H.H.H.H.H.H.H.H.H.H.H.H.H.H.H.H.H.H.H.H.H.H.H.H.H.H.H.H.H.H.H.H.H.H.H.H.H.H.H.H.H.H.H.H.H.H.H.H.H.H.H.H.H.H.H.H.H.H.H.H.H.H.H.H.H.H.H.H.H.H.H.H.H.H.H.H.H.H.H.H.H.H.H.H.H.H.H.H.H.H.H.H.H.H.H.H.H.H.H.H.H.H.H.H.H.H.H.H.H.H.H.H.H.H.H.H.H.H.H.H.H.H.H.H.H.H.H.H.H.H.H.H.H.H.H.H.H.H.H.H.H.H.H.H.H.H.H.H.H.H.H.H.H.H.H.H.H.H.H.H.H.H.H.H.H.H.H.H.H.H.H.H.H.H.H.H.H.H.H.H.H.H.H.H.H.H.H.H.H.H.H.H.H.H.H.H.H.H.H.H.H.H.H.H.H.H.H.H.H.H.H.H.H.H.H.H.H.H.H.H.H.H.H.H.H.H.H.H.H.H.H.H.H.H.H.H.H.H.H.H.H.H.H.H.H.H.H.H.H.H.H.H.H.H.H.H.H.H.H.H.H.H.H.H.H.H.H.H.H.H.",
"H.H.H.H.H.H.H.H.H.H.H.H.H.H.H.H.H.H.H.H.H.H.H.H.H.H.H.H.H.H.H.H.H.H.H.H.H.H.H.H.H.H.H.H.H.H.H.H.H.H.H.H.H.H.H.H.H.H.H.H.H.H.H.H.H.H.H.H.H.H.H.H.H.H.H.H.H.H.H.H.H.H.H.H.H.H.H.H.H.H.H.H.H.H.H.H.H.H.H.H.H.H.H.H.H.H.H.H.H.H.H.H.H.H.H.H.H.H.H.H.H.H.H.H.H.H.H.H.H.H.H.H.H.H.H.H.H.H.H.H.H.H.H.H.H.H.H.H.H.H.H.H.H.H.H.H.H.H.H.H.H.H.H.H.H.H.H.H.H.H.H.H.H.H.H.H.H.H.H.H.H.H.H.H.H.H.H.H.H.H.H.H.H.H.H.H.H.H.H.H.H.H.H.H.H.H.H.H.H.H.H.H.H.H.H.H.H.H.H.H.H.H.H.H.H.H.H.H.H.H.H.H.H.H.H.H.H.H.H.H.H.H.H.H.H.H.H.H.H.H.H.H.H.H.H.H.H.H.H.H.H.H.H.H.H.H.H.H.H.H.H.H.H.H.H.H.H.H.H.H.H.H.H.H.H.H.H.H.H.H.H.H.H.H.H.H.H.H.H.H.H.H.H.H.H.H.H.H.H.H.H.H.H.H.H.H.H.H.H.H.H.H.H.H.H.H.H.H.H.H.H.H.H.H.H.H.H.H.H.H.H.H.H.H.H.H.H.H.H.H.H.H.H.H.H.H.H.H.H.H.H.H.H.H.H.H.H.H.H.H.H.H.H.H.H.H.H.H.H.H.H.H.H.H.H.H.H.H.H.H.H.H.H.H.H.H.H.H.H.H.H.H.H.H.H.H.H.H.H.H.H.H.H.H.H.H.H.H.H.H.H.H.H.H.H.H.H.H.H.H.H.H.H.H.H.H.H.H.H.H.H.H.H.H.H.H.H.H.H.H.H.H.H.H.H.H.H.H.H.H.H.H.H.H.H.H.H.H.H.H.H.H.H.H.H.H.H.H.H.H.H.H.H.H.H.H.H.H.H.H.H.H.H.H.H.H.H.H.H.H.H.H.H.H.H.H.H.H.H.H.H.H.H.H.H.H.H.H.H.H.H.H.H.H.H.H.H.H.H.H.H.H.H.H.H.H.H.H.H.H.H.H.H.H.H.H.H.H.H.H.H.H.H.H.H.H.H.H.H.H.H.H.H.H.H.H.H.H.H.H.H.H.H.H.H.H.H.H.H.H.H.H.H.H.H.H.H.H.H.H.H.H.H.H.H.H.H.H.H.H.H.H.H.H.H.H.H.H.H.H.H.H.H.H.H.H.H.H.H.H.H.H.H.H.H.H.H.H.H.H.H.H.H.H.H.H.H.H.H.H.H.H.H.H.H.H.H.H.H.H.H.H.H.H.H.H.H.H.H.H.H.H.H.H.H.H.H.H.H.H.H.H.H.H.H.H.H.H.H.H.H.H.H.H.H.H.H.H.H.H.H.H.H.H.H.H.H.H.H.H.H.H.H.H.H.H.H.H.H.H.H.H.H.H.H.H.H.H.H.H.H.H.H.H.H.H.H.H.H.H.H.H.H.H.H.H.H.H.H.H.H.H.H.H.H.H.H.H.H.H.H.H.H.H.H.H.H.H.H.H.H.H.H.H.H.H.H.H.H.H.H.H.H.H.H.H.H.H.H.H.H.H.H.H.H.H.H.H.H.H.H.H.H.H.H.H.H.H.H.H.H.H.H.H.H.H.H.H.H.H.H.H.H.H.H.H.H.H.H.H.H.H.H.H.H.H.H.H.H.H.H.H.H.H.H.H.H.H.H.H.H.H.H.H.H.H.H.H.H.H.",
"H.H.H.H.H.H.H.H.H.H.H.H.H.H.H.H.H.H.H.H.H.H.H.H.H.H.H.H.H.H.H.H.H.H.H.H.H.H.H.H.H.H.H.H.H.H.H.H.H.H.H.H.H.H.H.H.H.H.H.H.H.H.H.H.H.H.H.H.H.H.H.H.H.H.H.H.H.H.H.H.H.H.H.H.H.H.H.H.H.H.H.H.H.H.H.H.H.H.H.H.H.H.H.H.H.H.H.H.H.H.H.H.H.H.H.H.H.H.H.H.H.H.H.H.H.H.H.H.H.H.H.H.H.H.H.H.H.H.H.H.H.H.H.H.H.H.H.H.H.H.H.H.H.H.H.H.H.H.H.H.H.H.H.H.H.H.H.H.H.H.H.H.H.H.H.H.H.H.H.H.H.H.H.H.H.H.H.H.H.H.H.H.H.H.H.H.H.H.H.H.H.H.H.H.H.H.H.H.H.H.H.H.H.H.H.H.H.H.H.H.H.H.H.H.H.H.H.H.H.H.H.H.H.H.H.H.H.H.H.H.H.H.H.H.H.H.H.H.H.H.H.H.H.H.H.H.H.H.H.H.H.H.H.H.H.H.H.H.H.H.H.H.H.H.H.H.H.H.H.H.H.H.H.H.H.H.H.H.H.H.H.H.H.H.H.H.H.H.H.H.H.H.H.H.H.H.H.H.H.H.H.H.H.H.H.H.H.H.H.H.H.H.H.H.H.H.H.H.H.H.H.H.H.H.H.H.H.H.H.H.H.H.H.H.H.H.H.H.H.H.H.H.H.H.H.H.H.H.H.H.H.H.H.H.H.H.H.H.H.H.H.H.H.H.H.H.H.H.H.H.H.H.H.H.H.H.H.H.H.H.H.H.H.H.H.H.H.H.H.H.H.H.H.H.H.H.H.H.H.H.H.H.H.H.H.H.H.H.H.H.H.H.H.H.H.H.H.H.H.H.H.H.H.H.H.H.H.H.H.H.H.H.H.H.H.H.H.H.H.H.H.H.H.H.H.H.H.H.H.H.H.H.H.H.H.H.H.H.H.H.H.H.H.H.H.H.H.H.H.H.H.H.H.H.H.H.H.H.H.H.H.H.H.H.H.H.H.H.H.H.H.H.H.H.H.H.H.H.H.H.H.H.H.H.H.H.H.H.H.H.H.H.H.H.H.H.H.H.H.H.H.H.H.H.H.H.H.H.H.H.H.H.H.H.H.H.H.H.H.H.H.H.H.H.H.H.H.H.H.H.H.H.H.H.H.H.H.H.H.H.H.H.H.H.H.H.H.H.H.H.H.H.H.H.H.H.H.H.H.H.H.H.H.H.H.H.H.H.H.H.H.H.H.H.H.H.H.H.H.H.H.H.H.H.H.H.H.H.H.H.H.H.H.H.H.H.H.H.H.H.H.H.H.H.H.H.H.H.H.H.H.H.H.H.H.H.H.H.H.H.H.H.H.H.H.H.H.H.H.H.H.H.H.H.H.H.H.H.H.H.H.H.H.H.H.H.H.H.H.H.H.H.H.H.H.H.H.H.H.H.H.H.H.H.H.H.H.H.H.H.H.H.H.H.H.H.H.H.H.H.H.H.H.H.H.H.H.H.H.H.H.H.H.H.H.H.H.H.H.H.H.H.H.H.H.H.H.H.H.H.H.H.H.H.H.H.H.H.H.H.H.H.H.H.H.H.H.H.H.H.H.H.H.H.H.H.H.H.H.H.H.H.H.H.H.H.H.H.H.H.H.H.H.H.H.H.H.H.H.H.H.H.H.H.H.H.H.H.H.H.H.H.H.H.H.H.H.H.H.H.H.H.H.H.H.H.H.H.H.H.H.H.H.H.H.H.H.H.H.H.H.H.H.H.H.H.H.H.H.H.H.H.H.H.H.H.H.H.H.H.",
"H.H.H.H.H.H.H.H.H.H.H.H.H.H.H.H.H.H.H.H.H.H.H.H.H.H.H.H.H.H.H.H.H.H.H.H.H.H.H.H.H.H.H.H.H.H.H.H.H.H.H.H.H.H.H.H.H.H.H.H.H.H.H.H.H.H.H.H.H.H.H.H.H.H.H.H.H.H.H.H.H.H.H.H.H.H.H.H.H.H.H.H.H.H.H.H.H.H.H.H.H.H.H.H.H.H.H.H.H.H.H.H.H.H.H.H.H.H.H.H.H.H.H.H.H.H.H.H.H.H.H.H.H.H.H.H.H.H.H.H.H.H.H.H.H.H.H.H.H.H.H.H.H.H.H.H.H.H.H.H.H.H.H.H.H.H.H.H.H.H.H.H.H.H.H.H.H.H.H.H.H.H.H.H.H.H.H.H.H.H.H.H.H.H.H.H.H.H.H.H.H.H.H.H.H.H.H.H.H.H.H.H.H.H.H.H.H.H.H.H.H.H.H.H.H.H.H.H.H.H.H.H.H.H.H.H.H.H.H.H.H.H.H.H.H.H.H.H.H.H.H.H.H.H.H.H.H.H.H.H.H.H.H.H.H.H.H.H.H.H.H.H.H.H.H.H.H.H.H.H.H.H.H.H.H.H.H.H.H.H.H.H.H.H.H.H.H.H.H.H.H.H.H.H.H.H.H.H.H.H.H.H.H.H.H.H.H.H.H.H.H.H.H.H.H.H.H.H.H.H.H.H.H.H.H.H.H.H.H.H.H.H.H.H.H.H.H.H.H.H.H.H.H.H.H.H.H.H.H.H.H.H.H.H.H.H.H.H.H.H.H.H.H.H.H.H.H.H.H.H.H.H.H.H.H.H.H.H.H.H.H.H.H.H.H.H.H.H.H.H.H.H.H.H.H.H.H.H.H.H.H.H.H.H.H.H.H.H.H.H.H.H.H.H.H.H.H.H.H.H.H.H.H.H.H.H.H.H.H.H.H.H.H.H.H.H.H.H.H.H.H.H.H.H.H.H.H.H.H.H.H.H.H.H.H.H.H.H.H.H.H.H.H.H.H.H.H.H.H.H.H.H.H.H.H.H.H.H.H.H.H.H.H.H.H.H.H.H.H.H.H.H.H.H.H.H.H.H.H.H.H.H.H.H.H.H.H.H.H.H.H.H.H.H.H.H.H.H.H.H.H.H.H.H.H.H.H.H.H.H.H.H.H.H.H.H.H.H.H.H.H.H.H.H.H.H.H.H.H.H.H.H.H.H.H.H.H.H.H.H.H.H.H.H.H.H.H.H.H.H.H.H.H.H.H.H.H.H.H.H.H.H.H.H.H.H.H.H.H.H.H.H.H.H.H.H.H.H.H.H.H.H.H.H.H.H.H.H.H.H.H.H.H.H.H.H.H.H.H.H.H.H.H.H.H.H.H.H.H.H.H.H.H.H.H.H.H.H.H.H.H.H.H.H.H.H.H.H.H.H.H.H.H.H.H.H.H.H.H.H.H.H.H.H.H.H.H.H.H.H.H.H.H.H.H.H.H.H.H.H.H.H.H.H.H.H.H.H.H.H.H.H.H.H.H.H.H.H.H.H.H.H.H.H.H.H.H.H.H.H.H.H.H.H.H.H.H.H.H.H.H.H.H.H.H.H.H.H.H.H.H.H.H.H.H.H.H.H.H.H.H.H.H.H.H.H.H.H.H.H.H.H.H.H.H.H.H.H.H.H.H.H.H.H.H.H.H.H.H.H.H.H.H.H.H.H.H.H.H.H.H.H.H.H.H.H.H.H.H.H.H.H.H.H.H.H.H.H.H.H.H.H.H.H.H.H.H.H.H.H.H.H.H.H.H.H.H.H.H.H.H.H.H.H.H.H.H.H.H.H.H.H.H.H.H.H.H.H.H.H.",
"H.H.H.H.H.H.H.H.H.H.H.H.H.H.H.H.H.H.H.H.H.H.H.H.H.H.H.H.H.H.H.H.H.H.H.H.H.H.H.H.H.H.H.H.H.H.H.H.H.H.H.H.H.H.H.H.H.H.H.H.H.H.H.H.H.H.H.H.H.H.H.H.H.H.H.H.H.H.H.H.H.H.H.H.H.H.H.H.H.H.H.H.H.H.H.H.H.H.H.H.H.H.H.H.H.H.H.H.H.H.H.H.H.H.H.H.H.H.H.H.H.H.H.H.H.H.H.H.H.H.H.H.H.H.H.H.H.H.H.H.H.H.H.H.H.H.H.H.H.H.H.H.H.H.H.H.H.H.H.H.H.H.H.H.H.H.H.H.H.H.H.H.H.H.H.H.H.H.H.H.H.H.H.H.H.H.H.H.H.H.H.H.H.H.H.H.H.H.H.H.H.H.H.H.H.H.H.H.H.H.H.H.H.H.H.H.H.H.H.H.H.H.H.H.H.H.H.H.H.H.H.H.H.H.H.H.H.H.H.H.H.H.H.H.H.H.H.H.H.H.H.H.H.H.H.H.H.H.H.H.H.H.H.H.H.H.H.H.H.H.H.H.H.H.H.H.H.H.H.H.H.H.H.H.H.H.H.H.H.H.H.H.H.H.H.H.H.H.H.H.H.H.H.H.H.H.H.H.H.H.H.H.H.H.H.H.H.H.H.H.H.H.H.H.H.H.H.H.H.H.H.H.H.H.H.H.H.H.H.H.H.H.H.H.H.H.H.H.H.H.H.H.H.H.H.H.H.H.H.H.H.H.H.H.H.H.H.H.H.H.H.H.H.H.H.H.H.H.H.H.H.H.H.H.H.H.H.H.H.H.H.H.H.H.H.H.H.H.H.H.H.H.H.H.H.H.H.H.H.H.H.H.H.H.H.H.H.H.H.H.H.H.H.H.H.H.H.H.H.H.H.H.H.H.H.H.H.H.H.H.H.H.H.H.H.H.H.H.H.H.H.H.H.H.H.H.H.H.H.H.H.H.H.H.H.H.H.H.H.H.H.H.H.H.H.H.H.H.H.H.H.H.H.H.H.H.H.H.H.H.H.H.H.H.H.H.H.H.H.H.H.H.H.H.H.H.H.H.H.H.H.H.H.H.H.H.H.H.H.H.H.H.H.H.H.H.H.H.H.H.H.H.H.H.H.H.H.H.H.H.H.H.H.H.H.H.H.H.H.H.H.H.H.H.H.H.H.H.H.H.H.H.H.H.H.H.H.H.H.H.H.H.H.H.H.H.H.H.H.H.H.H.H.H.H.H.H.H.H.H.H.H.H.H.H.H.H.H.H.H.H.H.H.H.H.H.H.H.H.H.H.H.H.H.H.H.H.H.H.H.H.H.H.H.H.H.H.H.H.H.H.H.H.H.H.H.H.H.H.H.H.H.H.H.H.H.H.H.H.H.H.H.H.H.H.H.H.H.H.H.H.H.H.H.H.H.H.H.H.H.H.H.H.H.H.H.H.H.H.H.H.H.H.H.H.H.H.H.H.H.H.H.H.H.H.H.H.H.H.H.H.H.H.H.H.H.H.H.H.H.H.H.H.H.H.H.H.H.H.H.H.H.H.H.H.H.H.H.H.H.H.H.H.H.H.H.H.H.H.H.H.H.H.H.H.H.H.H.H.H.H.H.H.H.H.H.H.H.H.H.H.H.H.H.H.H.H.H.H.H.H.H.H.H.H.H.H.H.H.H.H.H.H.H.H.H.H.H.H.H.H.H.H.H.H.H.H.H.H.H.H.H.H.H.H.H.H.H.H.H.H.H.H.H.H.H.H.H.H.H.H.H.H.H.H.H.H.H.H.H.H.H.H.H.H.H.H.H.H.H.H.H.H.H.H.H.H.H.H.H.",
"H.H.H.H.H.H.H.H.H.H.H.H.H.H.H.H.H.H.H.H.H.H.H.H.H.H.H.H.H.H.H.H.H.H.H.H.H.H.H.H.H.H.H.H.H.H.H.H.H.H.H.H.H.H.H.H.H.H.H.H.H.H.H.H.H.H.H.H.H.H.H.H.H.H.H.H.H.H.H.H.H.H.H.H.H.H.H.H.H.H.H.H.H.H.H.H.H.H.H.H.H.H.H.H.H.H.H.H.H.H.H.H.H.H.H.H.H.H.H.H.H.H.H.H.H.H.H.H.H.H.H.H.H.H.H.H.H.H.H.H.H.H.H.H.H.H.H.H.H.H.H.H.H.H.H.H.H.H.H.H.H.H.H.H.H.H.H.H.H.H.H.H.H.H.H.H.H.H.H.H.H.H.H.H.H.H.H.H.H.H.H.H.H.H.H.H.H.H.H.H.H.H.H.H.H.H.H.H.H.H.H.H.H.H.H.H.H.H.H.H.H.H.H.H.H.H.H.H.H.H.H.H.H.H.H.H.H.H.H.H.H.H.H.H.H.H.H.H.H.H.H.H.H.H.H.H.H.H.H.H.H.H.H.H.H.H.H.H.H.H.H.H.H.H.H.H.H.H.H.H.H.H.H.H.H.H.H.H.H.H.H.H.H.H.H.H.H.H.H.H.H.H.H.H.H.H.H.H.H.H.H.H.H.H.H.H.H.H.H.H.H.H.H.H.H.H.H.H.H.H.H.H.H.H.H.H.H.H.H.H.H.H.H.H.H.H.H.H.H.H.H.H.H.H.H.H.H.H.H.H.H.H.H.H.H.H.H.H.H.H.H.H.H.H.H.H.H.H.H.H.H.H.H.H.H.H.H.H.H.H.H.H.H.H.H.H.H.H.H.H.H.H.H.H.H.H.H.H.H.H.H.H.H.H.H.H.H.H.H.H.H.H.H.H.H.H.H.H.H.H.H.H.H.H.H.H.H.H.H.H.H.H.H.H.H.H.H.H.H.H.H.H.H.H.H.H.H.H.H.H.H.H.H.H.H.H.H.H.H.H.H.H.H.H.H.H.H.H.H.H.H.H.H.H.H.H.H.H.H.H.H.H.H.H.H.H.H.H.H.H.H.H.H.H.H.H.H.H.H.H.H.H.H.H.H.H.H.H.H.H.H.H.H.H.H.H.H.H.H.H.H.H.H.H.H.H.H.H.H.H.H.H.H.H.H.H.H.H.H.H.H.H.H.H.H.H.H.H.H.H.H.H.H.H.H.H.H.H.H.H.H.H.H.H.H.H.H.H.H.H.H.H.H.H.H.H.H.H.H.H.H.H.H.H.H.H.H.H.H.H.H.H.H.H.H.H.H.H.H.H.H.H.H.H.H.H.H.H.H.H.H.H.H.H.H.H.H.H.H.H.H.H.H.H.H.H.H.H.H.H.H.H.H.H.H.H.H.H.H.H.H.H.H.H.H.H.H.H.H.H.H.H.H.H.H.H.H.H.H.H.H.H.H.H.H.H.H.H.H.H.H.H.H.H.H.H.H.H.H.H.H.H.H.H.H.H.H.H.H.H.H.H.H.H.H.H.H.H.H.H.H.H.H.H.H.H.H.H.H.H.H.H.H.H.H.H.H.H.H.H.H.H.H.H.H.H.H.H.H.H.H.H.H.H.H.H.H.H.H.H.H.H.H.H.H.H.H.H.H.H.H.H.H.H.H.H.H.H.H.H.H.H.H.H.H.H.H.H.H.H.H.H.H.H.H.H.H.H.H.H.H.H.H.H.H.H.H.H.H.H.H.H.H.H.H.H.H.H.H.H.H.H.H.H.H.H.H.H.H.H.H.H.H.H.H.H.H.H.H.H.H.H.H.H.H.H.H.H.H.H.H.H.H.H.H.H.H.H.H.H.",
"H.H.H.H.H.H.H.H.H.H.H.H.H.H.H.H.H.H.H.H.H.H.H.H.H.H.H.H.H.H.H.H.H.H.H.H.H.H.H.H.H.H.H.H.H.H.H.H.H.H.H.H.H.H.H.H.H.H.H.H.H.H.H.H.H.H.H.H.H.H.H.H.H.H.H.H.H.H.H.H.H.H.H.H.H.H.H.H.H.H.H.H.H.H.H.H.H.H.H.H.H.H.H.H.H.H.H.H.H.H.H.H.H.H.H.H.H.H.H.H.H.H.H.H.H.H.H.H.H.H.H.H.H.H.H.H.H.H.H.H.H.H.H.H.H.H.H.H.H.H.H.H.H.H.H.H.H.H.H.H.H.H.H.H.H.H.H.H.H.H.H.H.H.H.H.H.H.H.H.H.H.H.H.H.H.H.H.H.H.H.H.H.H.H.H.H.H.H.H.H.H.H.H.H.H.H.H.H.H.H.H.H.H.H.H.H.H.H.H.H.H.H.H.H.H.H.H.H.H.H.H.H.H.H.H.H.H.H.H.H.H.H.H.H.H.H.H.H.H.H.H.H.H.H.H.H.H.H.H.H.H.H.H.H.H.H.H.H.H.H.H.H.H.H.H.H.H.H.H.H.H.H.H.H.H.H.H.H.H.H.H.H.H.H.H.H.H.H.H.H.H.H.H.H.H.H.H.H.H.H.H.H.H.H.H.H.H.H.H.H.H.H.H.H.H.H.H.H.H.H.H.H.H.H.H.H.H.H.H.H.H.H.H.H.H.H.H.H.H.H.H.H.H.H.H.H.H.H.H.H.H.H.H.H.H.H.H.H.H.H.H.H.H.H.H.H.H.H.H.H.H.H.H.H.H.H.H.H.H.H.H.H.H.H.H.H.H.H.H.H.H.H.H.H.H.H.H.H.H.H.H.H.H.H.H.H.H.H.H.H.H.H.H.H.H.H.H.H.H.H.H.H.H.H.H.H.H.H.H.H.H.H.H.H.H.H.H.H.H.H.H.H.H.H.H.H.H.H.H.H.H.H.H.H.H.H.H.H.H.H.H.H.H.H.H.H.H.H.H.H.H.H.H.H.H.H.H.H.H.H.H.H.H.H.H.H.H.H.H.H.H.H.H.H.H.H.H.H.H.H.H.H.H.H.H.H.H.H.H.H.H.H.H.H.H.H.H.H.H.H.H.H.H.H.H.H.H.H.H.H.H.H.H.H.H.H.H.H.H.H.H.H.H.H.H.H.H.H.H.H.H.H.H.H.H.H.H.H.H.H.H.H.H.H.H.H.H.H.H.H.H.H.H.H.H.H.H.H.H.H.H.H.H.H.H.H.H.H.H.H.H.H.H.H.H.H.H.H.H.H.H.H.H.H.H.H.H.H.H.H.H.H.H.H.H.H.H.H.H.H.H.H.H.H.H.H.H.H.H.H.H.H.H.H.H.H.H.H.H.H.H.H.H.H.H.H.H.H.H.H.H.H.H.H.H.H.H.H.H.H.H.H.H.H.H.H.H.H.H.H.H.H.H.H.H.H.H.H.H.H.H.H.H.H.H.H.H.H.H.H.H.H.H.H.H.H.H.H.H.H.H.H.H.H.H.H.H.H.H.H.H.H.H.H.H.H.H.H.H.H.H.H.H.H.H.H.H.H.H.H.H.H.H.H.H.H.H.H.H.H.H.H.H.H.H.H.H.H.H.H.H.H.H.H.H.H.H.H.H.H.H.H.H.H.H.H.H.H.H.H.H.H.H.H.H.H.H.H.H.H.H.H.H.H.H.H.H.H.H.H.H.H.H.H.H.H.H.H.H.H.H.H.H.H.H.H.H.H.H.H.H.H.H.H.H.H.H.H.H.H.H.H.H.H.H.H.H.H.H.H.H.H.H.H.H.H.H.H.H.H.",
"H.H.H.H.H.H.H.H.H.H.H.H.H.H.H.H.H.H.H.H.H.H.H.H.H.H.H.H.H.H.H.H.H.H.H.H.H.H.H.H.H.H.H.H.H.H.H.H.H.H.H.H.H.H.H.H.H.H.H.H.H.H.H.H.H.H.H.H.H.H.H.H.H.H.H.H.H.H.H.H.H.H.H.H.H.H.H.H.H.H.H.H.H.H.H.H.H.H.H.H.H.H.H.H.H.H.H.H.H.H.H.H.H.H.H.H.H.H.H.H.H.H.H.H.H.H.H.H.H.H.H.H.H.H.H.H.H.H.H.H.H.H.H.H.H.H.H.H.H.H.H.H.H.H.H.H.H.H.H.H.H.H.H.H.H.H.H.H.H.H.H.H.H.H.H.H.H.H.H.H.H.H.H.H.H.H.H.H.H.H.H.H.H.H.H.H.H.H.H.H.H.H.H.H.H.H.H.H.H.H.H.H.H.H.H.H.H.H.H.H.H.H.H.H.H.H.H.H.H.H.H.H.H.H.H.H.H.H.H.H.H.H.H.H.H.H.H.H.H.H.H.H.H.H.H.H.H.H.H.H.H.H.H.H.H.H.H.H.H.H.H.H.H.H.H.H.H.H.H.H.H.H.H.H.H.H.H.H.H.H.H.H.H.H.H.H.H.H.H.H.H.H.H.H.H.H.H.H.H.H.H.H.H.H.H.H.H.H.H.H.H.H.H.H.H.H.H.H.H.H.H.H.H.H.H.H.H.H.H.H.H.H.H.H.H.H.H.H.H.H.H.H.H.H.H.H.H.H.H.H.H.H.H.H.H.H.H.H.H.H.H.H.H.H.H.H.H.H.H.H.H.H.H.H.H.H.H.H.H.H.H.H.H.H.H.H.H.H.H.H.H.H.H.H.H.H.H.H.H.H.H.H.H.H.H.H.H.H.H.H.H.H.H.H.H.H.H.H.H.H.H.H.H.H.H.H.H.H.H.H.H.H.H.H.H.H.H.H.H.H.H.H.H.H.H.H.H.H.H.H.H.H.H.H.H.H.H.H.H.H.H.H.H.H.H.H.H.H.H.H.H.H.H.H.H.H.H.H.H.H.H.H.H.H.H.H.H.H.H.H.H.H.H.H.H.H.H.H.H.H.H.H.H.H.H.H.H.H.H.H.H.H.H.H.H.H.H.H.H.H.H.H.H.H.H.H.H.H.H.H.H.H.H.H.H.H.H.H.H.H.H.H.H.H.H.H.H.H.H.H.H.H.H.H.H.H.H.H.H.H.H.H.H.H.H.H.H.H.H.H.H.H.H.H.H.H.H.H.H.H.H.H.H.H.H.H.H.H.H.H.H.H.H.H.H.H.H.H.H.H.H.H.H.H.H.H.H.H.H.H.H.H.H.H.H.H.H.H.H.H.H.H.H.H.H.H.H.H.H.H.H.H.H.H.H.H.H.H.H.H.H.H.H.H.H.H.H.H.H.H.H.H.H.H.H.H.H.H.H.H.H.H.H.H.H.H.H.H.H.H.H.H.H.H.H.H.H.H.H.H.H.H.H.H.H.H.H.H.H.H.H.H.H.H.H.H.H.H.H.H.H.H.H.H.H.H.H.H.H.H.H.H.H.H.H.H.H.H.H.H.H.H.H.H.H.H.H.H.H.H.H.H.H.H.H.H.H.H.H.H.H.H.H.H.H.H.H.H.H.H.H.H.H.H.H.H.H.H.H.H.H.H.H.H.H.H.H.H.H.H.H.H.H.H.H.H.H.H.H.H.H.H.H.H.H.H.H.H.H.H.H.H.H.H.H.H.H.H.H.H.H.H.H.H.H.H.H.H.H.H.H.H.H.H.H.H.H.H.H.H.H.H.H.H.H.H.H.H.H.H.H.H.H.H.H.H.H.H.H.H.",
"H.H.H.H.H.H.H.H.H.H.H.H.H.H.H.H.H.H.H.H.H.H.H.H.H.H.H.H.H.H.H.H.H.H.H.H.H.H.H.H.H.H.H.H.H.H.H.H.H.H.H.H.H.H.H.H.H.H.H.H.H.H.H.H.H.H.H.H.H.H.H.H.H.H.H.H.H.H.H.H.H.H.H.H.H.H.H.H.H.H.H.H.H.H.H.H.H.H.H.H.H.H.H.H.H.H.H.H.H.H.H.H.H.H.H.H.H.H.H.H.H.H.H.H.H.H.H.H.H.H.H.H.H.H.H.H.H.H.H.H.H.H.H.H.H.H.H.H.H.H.H.H.H.H.H.H.H.H.H.H.H.H.H.H.H.H.H.H.H.H.H.H.H.H.H.H.H.H.H.H.H.H.H.H.H.H.H.H.H.H.H.H.H.H.H.H.H.H.H.H.H.H.H.H.H.H.H.H.H.H.H.H.H.H.H.H.H.H.H.H.H.H.H.H.H.H.H.H.H.H.H.H.H.H.H.H.H.H.H.H.H.H.H.H.H.H.H.H.H.H.H.H.H.H.H.H.H.H.H.H.H.H.H.H.H.H.H.H.H.H.H.H.H.H.H.H.H.H.H.H.H.H.H.H.H.H.H.H.H.H.H.H.H.H.H.H.H.H.H.H.H.H.H.H.H.H.H.H.H.H.H.H.H.H.H.H.H.H.H.H.H.H.H.H.H.H.H.H.H.H.H.H.H.H.H.H.H.H.H.H.H.H.H.H.H.H.H.H.H.H.H.H.H.H.H.H.H.H.H.H.H.H.H.H.H.H.H.H.H.H.H.H.H.H.H.H.H.H.H.H.H.H.H.H.H.H.H.H.H.H.H.H.H.H.H.H.H.H.H.H.H.H.H.H.H.H.H.H.H.H.H.H.H.H.H.H.H.H.H.H.H.H.H.H.H.H.H.H.H.H.H.H.H.H.H.H.H.H.H.H.H.H.H.H.H.H.H.H.H.H.H.H.H.H.H.H.H.H.H.H.H.H.H.H.H.H.H.H.H.H.H.H.H.H.H.H.H.H.H.H.H.H.H.H.H.H.H.H.H.H.H.H.H.H.H.H.H.H.H.H.H.H.H.H.H.H.H.H.H.H.H.H.H.H.H.H.H.H.H.H.H.H.H.H.H.H.H.H.H.H.H.H.H.H.H.H.H.H.H.H.H.H.H.H.H.H.H.H.H.H.H.H.H.H.H.H.H.H.H.H.H.H.H.H.H.H.H.H.H.H.H.H.H.H.H.H.H.H.H.H.H.H.H.H.H.H.H.H.H.H.H.H.H.H.H.H.H.H.H.H.H.H.H.H.H.H.H.H.H.H.H.H.H.H.H.H.H.H.H.H.H.H.H.H.H.H.H.H.H.H.H.H.H.H.H.H.H.H.H.H.H.H.H.H.H.H.H.H.H.H.H.H.H.H.H.H.H.H.H.H.H.H.H.H.H.H.H.H.H.H.H.H.H.H.H.H.H.H.H.H.H.H.H.H.H.H.H.H.H.H.H.H.H.H.H.H.H.H.H.H.H.H.H.H.H.H.H.H.H.H.H.H.H.H.H.H.H.H.H.H.H.H.H.H.H.H.H.H.H.H.H.H.H.H.H.H.H.H.H.H.H.H.H.H.H.H.H.H.H.H.H.H.H.H.H.H.H.H.H.H.H.H.H.H.H.H.H.H.H.H.H.H.H.H.H.H.H.H.H.H.H.H.H.H.H.H.H.H.H.H.H.H.H.H.H.H.H.H.H.H.H.H.H.H.H.H.H.H.H.H.H.H.H.H.H.H.H.H.H.H.H.H.H.H.H.H.H.H.H.H.H.H.H.H.H.H.H.H.H.H.H.H.H.H.H.H.H.H.H.H.",
"H.H.H.H.H.H.H.H.H.H.H.H.H.H.H.H.H.H.H.H.H.H.H.H.H.H.H.H.H.H.H.H.H.H.H.H.H.H.H.H.H.H.H.H.H.H.H.H.H.H.H.H.H.H.H.H.H.H.H.H.H.H.H.H.H.H.H.H.H.H.H.H.H.H.H.H.H.H.H.H.H.H.H.H.H.H.H.H.H.H.H.H.H.H.H.H.H.H.H.H.H.H.H.H.H.H.H.H.H.H.H.H.H.H.H.H.H.H.H.H.H.H.H.H.H.H.H.H.H.H.H.H.H.H.H.H.H.H.H.H.H.H.H.H.H.H.H.H.H.H.H.H.H.H.H.H.H.H.H.H.H.H.H.H.H.H.H.H.H.H.H.H.H.H.H.H.H.H.H.H.H.H.H.H.H.H.H.H.H.H.H.H.H.H.H.H.H.H.H.H.H.H.H.H.H.H.H.H.H.H.H.H.H.H.H.H.H.H.H.H.H.H.H.H.H.H.H.H.H.H.H.H.H.H.H.H.H.H.H.L.H.H.H.H.H.H.H.H.H.H.H.H.H.H.H.H.H.H.H.H.H.H.H.H.H.H.H.H.H.H.H.H.H.H.H.H.H.H.H.H.H.H.H.H.H.H.H.H.H.H.H.H.H.H.H.H.H.H.H.H.H.H.H.H.H.H.H.H.H.H.H.H.H.H.H.H.H.H.H.H.H.H.H.H.H.H.H.H.H.H.H.H.H.H.H.H.H.H.H.H.H.H.H.H.H.H.H.H.H.H.H.H.H.H.H.H.H.H.H.H.H.H.H.H.H.H.H.H.H.H.H.H.H.H.H.H.H.H.H.H.H.H.H.H.H.H.H.H.H.H.H.H.H.H.H.H.H.H.H.H.H.H.H.H.H.H.H.H.H.H.H.H.H.H.H.H.H.H.H.H.H.H.H.H.H.H.H.H.H.H.H.H.H.H.H.H.H.H.H.H.H.H.H.H.H.H.H.H.H.H.H.H.H.H.H.H.H.H.H.H.H.H.H.H.H.H.H.H.H.H.H.H.H.H.H.H.H.H.H.H.H.H.H.H.H.H.H.H.H.H.H.H.H.H.H.H.H.H.H.H.H.H.H.H.H.H.H.H.H.H.H.H.H.H.H.H.H.H.H.H.H.H.H.H.H.H.H.H.H.H.H.H.H.H.H.H.H.H.H.H.H.H.H.H.H.H.H.H.H.H.H.H.H.H.H.H.H.H.H.H.H.H.H.H.H.H.H.H.H.H.H.H.H.H.H.H.H.H.H.H.H.H.H.H.H.H.H.H.H.H.H.H.H.H.H.H.H.H.H.H.H.H.H.H.H.H.H.H.H.H.H.H.H.H.H.H.H.H.H.H.H.H.H.H.H.H.H.H.H.H.H.H.H.H.H.H.H.H.H.H.H.H.H.H.H.H.H.H.H.H.H.H.H.H.H.H.H.H.H.H.H.H.H.H.H.H.H.H.H.H.H.H.H.H.H.H.H.H.H.H.H.H.H.H.H.H.H.H.H.H.H.H.H.H.H.H.H.H.H.H.H.H.H.H.H.H.H.H.H.H.H.H.H.H.H.H.H.H.H.H.H.H.H.H.H.H.H.H.H.H.H.H.H.H.H.H.H.H.H.H.H.H.H.H.H.H.H.H.H.H.H.H.H.H.H.H.H.H.H.H.H.H.H.H.H.H.H.H.H.H.H.H.H.H.H.H.H.H.H.H.H.H.H.H.H.H.H.H.H.H.H.H.H.H.H.H.H.H.H.H.H.H.H.H.H.H.H.H.H.H.H.H.H.H.H.H.H.H.H.H.H.H.H.H.H.H.H.H.H.H.H.H.H.H.H.H.H.H.H.H.H.H.H.H.H.H.H.H.H.H.",
"H.H.H.H.H.H.H.H.H.H.H.H.H.H.H.H.H.H.H.H.H.H.H.H.H.H.H.H.H.H.H.H.H.H.H.H.H.H.H.H.H.H.H.H.H.H.H.H.H.H.H.H.H.H.H.H.H.H.H.H.H.H.H.H.H.H.H.H.H.H.H.H.H.H.H.H.H.H.H.H.H.H.H.H.H.H.H.H.H.H.H.H.H.H.H.H.H.H.H.H.H.H.H.H.H.H.H.H.H.H.H.H.H.H.H.H.H.H.H.H.H.H.H.H.H.H.H.H.H.H.H.H.H.H.H.H.H.H.H.H.H.H.H.H.H.H.H.H.H.H.H.H.H.H.H.H.H.H.H.H.H.H.H.H.H.H.H.H.H.H.H.H.H.H.H.H.H.H.H.H.H.H.H.H.H.H.H.H.H.H.H.H.H.H.H.H.H.H.H.H.H.H.H.H.H.H.H.H.H.H.H.H.H.H.H.H.H.H.H.H.H.H.H.H.H.H.H.H.H.H.H.H.H.H.H.H.H.L.L.L.H.H.H.H.H.H.H.H.H.H.H.H.H.H.H.H.H.H.H.H.H.H.H.H.H.H.H.H.H.H.H.H.H.H.H.H.H.H.H.H.H.H.H.H.H.H.H.H.H.H.H.H.H.H.H.H.H.H.H.H.H.H.H.H.H.H.H.H.H.H.H.H.H.H.H.H.H.H.H.H.H.H.H.H.H.H.H.H.H.H.H.H.H.H.H.H.H.H.H.H.H.H.H.H.H.H.H.H.H.H.H.H.H.H.H.H.H.H.H.H.H.H.H.H.H.H.H.H.H.H.H.H.H.H.H.H.H.H.H.H.H.H.H.H.H.H.H.H.H.H.H.H.H.H.H.H.H.H.H.H.H.H.H.H.H.H.H.H.H.H.H.H.H.H.H.H.H.H.H.H.H.H.H.H.H.H.H.H.H.H.H.H.H.H.H.H.H.H.H.H.H.H.H.H.H.H.H.H.H.H.H.H.H.H.H.H.H.H.H.H.H.H.H.H.H.H.H.H.H.H.H.H.H.H.H.H.H.H.H.H.H.H.H.H.H.H.H.H.H.H.H.H.H.H.H.H.H.H.H.H.H.H.H.H.H.H.H.H.H.H.H.H.H.H.H.H.H.H.H.H.H.H.H.H.H.H.H.H.H.H.H.H.H.H.H.H.H.H.H.H.H.H.H.H.H.H.H.H.H.H.H.H.H.H.H.H.H.H.H.H.H.H.H.H.H.H.H.H.H.H.H.H.H.H.H.H.H.H.H.H.H.H.H.H.H.H.H.H.H.H.H.H.H.H.H.H.H.H.H.H.H.H.H.H.H.H.H.H.H.H.H.H.H.H.H.H.H.H.H.H.H.H.H.H.H.H.H.H.H.H.H.H.H.H.H.H.H.H.H.H.H.H.H.H.H.H.H.H.H.H.H.H.H.H.H.H.H.H.H.H.H.H.H.H.H.H.H.H.H.H.H.H.H.H.H.H.H.H.H.H.H.H.H.H.H.H.H.H.H.H.H.H.H.H.H.H.H.H.H.H.H.H.H.H.H.H.H.H.H.H.H.H.H.H.H.H.H.H.H.H.H.H.H.H.H.H.H.H.H.H.H.H.H.H.H.H.H.H.H.H.H.H.H.H.H.H.H.H.H.H.H.H.H.H.H.H.H.H.H.H.H.H.H.H.H.H.H.H.H.H.H.H.H.H.H.H.H.H.H.H.H.H.H.H.H.H.H.H.H.H.H.H.H.H.H.H.H.H.H.H.H.H.H.H.H.H.H.H.H.H.H.H.H.H.H.H.H.H.H.H.H.H.H.H.H.H.H.H.H.H.H.H.H.H.H.H.H.H.H.H.H.H.H.H.H.H.H.H.H.H.",
"H.H.H.H.H.H.H.H.H.H.H.H.H.H.H.H.H.H.H.H.H.H.H.H.H.H.H.H.H.H.H.H.H.H.H.H.H.H.H.H.H.H.H.H.H.H.H.H.H.H.H.H.H.H.H.H.H.H.H.H.H.H.H.H.H.H.H.H.H.H.H.H.H.H.H.H.H.H.H.H.H.H.H.H.H.H.H.H.H.H.H.H.H.H.H.H.H.H.H.H.H.H.H.H.H.H.H.H.H.H.H.H.H.H.H.H.H.H.H.H.H.H.H.H.H.H.H.H.H.H.H.H.H.H.H.H.H.H.H.H.H.H.H.H.H.H.H.H.H.H.H.H.H.H.H.H.H.H.H.H.H.H.H.H.H.H.H.H.H.H.H.H.H.H.H.H.H.H.H.H.H.H.H.H.H.H.H.H.H.H.H.H.H.H.H.H.H.H.H.H.H.H.H.H.H.H.H.H.H.H.H.H.H.H.H.H.H.H.H.H.H.H.H.L.U.U.P.Q.J.H.H.H.H.S.S.H.S.S.L.L.H.H.H.H.J.P.J.H.H.S.S.H.H.P.H.G.H.H.H.H.L.L.L.H.H.H.H.H.L.L.L.H.H.H.P.P.J.J.L.U.U.U.L.L.G.G.K.J.H.G.P.P.G.G.L.G.J.J.H.P.P.P.P.P.H.S.G.L.H.G.L.G.P.P.P.P.L.L.L.L.H.H.H.H.H.H.H.H.H.H.H.H.H.H.H.H.H.H.H.H.H.H.H.H.H.H.H.H.H.H.H.H.H.H.H.H.H.H.H.H.H.H.H.H.H.H.H.H.H.H.H.H.H.H.H.H.H.H.H.H.H.H.H.H.H.H.H.H.H.H.H.H.H.H.H.H.H.H.H.H.H.H.H.H.H.H.H.H.H.H.H.H.H.H.H.H.H.H.H.H.H.H.H.H.H.H.H.H.H.H.H.H.H.H.H.H.H.H.H.H.H.H.H.H.H.H.H.H.H.H.H.H.H.H.H.H.H.H.H.H.H.H.H.H.H.H.H.H.H.H.H.H.H.H.H.H.H.H.H.H.H.H.H.H.H.H.H.H.H.H.H.H.H.H.H.H.H.H.H.H.H.H.H.H.H.H.H.H.H.H.H.H.H.H.H.H.H.H.H.H.H.H.H.H.H.H.H.H.H.H.H.H.H.H.H.H.H.H.H.H.H.H.H.H.H.H.H.H.H.H.H.H.H.H.H.H.H.H.H.H.H.H.H.H.H.H.H.H.H.H.H.H.H.H.H.H.H.H.H.H.H.H.H.H.H.H.H.H.H.H.H.H.H.H.H.H.H.H.H.H.H.H.H.H.H.H.H.H.H.H.H.H.H.H.H.H.H.H.H.H.H.H.H.H.H.H.H.H.H.H.H.H.H.H.H.H.H.H.H.H.H.H.H.H.H.H.H.H.H.H.H.H.H.H.H.H.H.H.H.H.H.H.H.H.H.H.H.H.H.H.H.H.H.H.H.H.H.H.H.H.H.H.H.H.H.H.H.H.H.H.H.H.H.H.H.H.H.H.H.H.H.H.H.H.H.H.H.H.H.H.H.H.H.H.H.H.H.H.H.H.H.H.H.H.H.H.H.H.H.H.H.H.H.H.H.H.H.H.H.H.H.H.H.H.H.H.H.H.H.H.H.H.H.H.H.H.H.H.H.H.H.H.H.H.H.H.H.H.H.H.H.H.H.H.H.H.H.H.H.H.H.H.H.H.H.H.H.H.H.H.H.H.H.H.H.H.H.H.H.H.H.H.H.H.H.H.H.H.H.H.H.H.H.H.H.H.H.H.H.H.H.H.H.H.H.H.H.H.H.H.H.H.H.H.H.H.H.H.H.H.H.H.H.H.H.H.H.H.H.H.",
"H.H.H.H.H.H.H.H.H.H.H.H.H.H.H.H.H.H.H.H.H.H.H.H.H.H.H.H.H.H.H.H.H.H.H.H.H.H.H.H.H.H.H.H.H.H.H.H.H.H.H.H.H.H.H.H.H.H.H.H.H.H.H.H.H.H.H.H.H.H.H.H.H.H.H.H.H.H.H.H.H.H.H.H.H.H.H.H.H.H.H.H.H.H.H.H.H.H.H.H.H.H.H.H.H.H.H.H.H.H.H.H.H.H.H.H.H.H.H.H.H.H.H.H.H.H.H.H.H.H.H.H.H.H.H.H.H.H.H.H.H.H.H.H.H.H.H.H.H.H.H.H.H.H.H.H.H.H.H.H.H.H.H.H.H.H.H.H.H.H.H.H.H.H.H.H.H.H.H.H.H.H.H.H.H.H.H.H.H.H.H.H.H.H.H.H.H.H.H.H.H.H.H.H.H.H.H.H.H.H.H.H.H.H.H.H.H.H.H.H.H.H.H.H.F.F.J.J.U.U.U.U.I.M.P.P.G.G.G.G.G.U.G.G.G.U.G.L.S.S.S.H.H.H.G.G.H.L.L.L.L.L.L.L.L.L.L.L.L.L.L.L.U.U.U.P.H.J.J.F.F.F.F.K.P.U.P.L.L.L.S.S.S.L.I.I.P.P.U.U.D.D.D.T.L.H.H.H.H.H.L.G.P.P.L.L.L.L.L.L.H.H.H.H.H.H.H.H.H.H.H.H.H.H.H.H.H.H.H.H.H.H.H.H.H.H.H.H.H.H.H.H.H.H.H.H.H.H.H.H.H.H.H.H.H.H.H.H.H.H.H.H.H.H.H.H.H.H.H.H.H.H.H.H.H.H.H.H.H.H.H.H.H.H.H.H.H.H.H.H.H.H.H.H.H.H.H.H.H.H.H.H.H.H.H.H.H.H.H.H.H.H.H.H.H.H.H.H.H.H.H.H.H.H.H.H.H.H.H.H.H.H.H.H.H.H.H.H.H.H.H.H.H.H.H.H.H.H.H.H.H.H.H.H.H.H.H.H.H.H.H.H.H.H.H.H.H.H.H.H.H.H.H.H.H.H.H.H.H.H.H.H.H.H.H.H.H.H.H.H.H.H.H.H.H.H.H.H.H.H.H.H.H.H.H.H.H.H.H.H.H.H.H.H.H.H.H.H.H.H.H.H.H.H.H.H.H.H.H.H.H.H.H.H.H.H.H.H.H.H.H.H.H.H.H.H.H.H.H.H.H.H.H.H.H.H.H.H.H.H.H.H.H.H.H.H.H.H.H.H.H.H.H.H.H.H.H.H.H.H.H.H.H.H.H.H.H.H.H.H.H.H.H.H.H.H.H.H.H.H.H.H.H.H.H.H.H.H.H.H.H.H.H.H.H.H.H.H.H.H.H.H.H.H.H.H.H.H.H.H.H.H.H.H.H.H.H.H.H.H.H.H.H.H.H.H.H.H.H.H.H.H.H.H.H.H.H.H.H.H.H.H.H.H.H.H.H.H.H.H.H.H.H.H.H.H.H.H.H.H.H.H.H.H.H.H.H.H.H.H.H.H.H.H.H.H.H.H.H.H.H.H.H.H.H.H.H.H.H.H.H.H.H.H.H.H.H.H.H.H.H.H.H.H.H.H.H.H.H.H.H.H.H.H.H.H.H.H.H.H.H.H.H.H.H.H.H.H.H.H.H.H.H.H.H.H.H.H.H.H.H.H.H.H.H.H.H.H.H.H.H.H.H.H.H.H.H.H.H.H.H.H.H.H.H.H.H.H.H.H.H.H.H.H.H.H.H.H.H.H.H.H.H.H.H.H.H.H.H.H.H.H.H.H.H.H.H.H.H.H.H.H.H.H.H.H.H.H.H.H.H.H.H.H.H.H.H.H.H.H.",
"H.H.H.H.H.H.H.H.H.H.H.H.H.H.H.H.H.H.H.H.H.H.H.H.H.H.H.H.H.H.H.H.H.H.H.H.H.H.H.H.H.H.H.H.H.H.H.H.H.H.H.H.H.H.H.H.H.H.H.H.H.H.H.H.H.H.H.H.H.H.H.H.H.H.H.H.H.H.H.H.H.H.H.H.H.H.H.H.H.H.H.H.H.H.H.H.H.H.H.H.H.H.H.H.H.H.H.H.H.H.H.H.H.H.H.H.H.H.H.H.H.H.H.H.H.H.H.H.H.H.H.H.H.H.H.H.H.H.H.H.H.H.H.H.H.H.H.H.H.H.H.H.H.H.H.H.H.H.H.H.H.H.H.H.H.H.H.H.H.H.H.H.H.H.H.H.H.H.H.H.H.H.H.H.H.H.H.H.H.H.H.H.H.H.H.H.H.H.H.H.H.H.H.H.H.H.H.H.H.H.H.H.H.H.H.H.H.H.H.H.H.H.H.H.H.H.L.G.L.L.H.H.J.K.J.J.F.H.L.H.J.Q.P.G.J.H.H.H.S.S.F.G.J.P.H.K.J.J.J.J.H.H.H.G.J.J.J.J.H.H.H.J.F.J.J.J.J.G.H.L.L.L.H.H.L.L.S.S.H.P.J.K.J.J.F.M.K.K.K.K.K.K.J.J.J.P.P.G.G.H.G.H.L.L.L.L.L.L.L.L.H.H.H.H.H.H.H.H.H.H.H.H.H.H.H.H.H.H.H.H.H.H.H.H.H.H.H.H.H.H.H.H.H.H.H.H.H.H.H.H.H.H.H.H.H.H.H.H.H.H.H.H.H.H.H.H.H.H.H.H.H.H.H.H.H.H.H.H.H.H.H.H.H.H.H.H.H.H.H.H.H.H.H.H.H.H.H.H.H.H.H.H.H.H.H.H.H.H.H.H.H.H.H.H.H.H.H.H.H.H.H.H.H.H.H.H.H.H.H.H.H.H.H.H.H.H.H.H.H.H.H.H.H.H.H.H.H.H.H.H.H.H.H.H.H.H.H.H.H.H.H.H.H.H.H.H.H.H.H.H.H.H.H.H.H.H.H.H.H.H.H.H.H.H.H.H.H.H.H.H.H.H.H.H.H.H.H.H.H.H.H.H.H.H.H.H.H.H.H.H.H.H.H.H.H.H.H.H.H.H.H.H.H.H.H.H.H.H.H.H.H.H.H.H.H.H.H.H.H.H.H.H.H.H.H.H.H.H.H.H.H.H.H.H.H.H.H.H.H.H.H.H.H.H.H.H.H.H.H.H.H.H.H.H.H.H.H.H.H.H.H.H.H.H.H.H.H.H.H.H.H.H.H.H.H.H.H.H.H.H.H.H.H.H.H.H.H.H.H.H.H.H.H.H.H.H.H.H.H.H.H.H.H.H.H.H.H.H.H.H.H.H.H.H.H.H.H.H.H.H.H.H.H.H.H.H.H.H.H.H.H.H.H.H.H.H.H.H.H.H.H.H.H.H.H.H.H.H.H.H.H.H.H.H.H.H.H.H.H.H.H.H.H.H.H.H.H.H.H.H.H.H.H.H.H.H.H.H.H.H.H.H.H.H.H.H.H.H.H.H.H.H.H.H.H.H.H.H.H.H.H.H.H.H.H.H.H.H.H.H.H.H.H.H.H.H.H.H.H.H.H.H.H.H.H.H.H.H.H.H.H.H.H.H.H.H.H.H.H.H.H.H.H.H.H.H.H.H.H.H.H.H.H.H.H.H.H.H.H.H.H.H.H.H.H.H.H.H.H.H.H.H.H.H.H.H.H.H.H.H.H.H.H.H.H.H.H.H.H.H.H.H.H.H.H.H.H.H.H.H.H.H.H.H.H.H.H.H.H.H.H.H.H.H.H.H.H.H.H.H.",
"H.H.H.H.H.H.H.H.H.H.H.H.H.H.H.H.H.H.H.H.H.H.H.H.H.H.H.H.H.H.H.H.H.H.H.H.H.H.H.H.H.H.H.H.H.H.H.H.H.H.H.H.H.H.H.H.H.H.H.H.H.H.H.H.H.H.H.H.H.H.H.H.H.H.H.H.H.H.H.H.H.H.H.H.H.H.H.H.H.H.H.H.H.H.H.H.H.H.H.H.H.H.H.H.H.H.H.H.H.H.H.H.H.H.H.H.H.H.H.H.H.H.H.H.H.H.H.H.H.H.H.H.H.H.H.H.H.H.H.H.H.H.H.H.H.H.H.H.H.H.H.H.H.H.H.H.H.H.H.H.H.H.H.H.H.H.H.H.H.H.H.H.H.H.H.H.H.H.H.H.H.H.H.H.H.H.H.H.H.H.H.H.H.H.H.H.H.H.H.H.H.H.H.H.H.H.H.H.H.H.H.H.H.H.H.H.H.H.H.H.H.H.H.H.J.P.U.G.L.H.F.J.H.G.U.U.D.U.I.U.G.P.S.S.L.H.G.S.L.L.H.L.I.I.P.P.U.U.U.U.Y.Y.Y.Y.U.U.U.U.Y.Y.Y.P.P.P.P.P.P.I.I.I.I.I.P.Q.Q.J.H.S.M.M.U.G.I.Y.U.D.D.D.D.D.L.U.D.U.U.P.P.G.H.P.S.H.H.H.H.H.H.H.J.J.H.H.H.H.H.H.H.H.H.H.H.H.H.H.H.H.H.H.H.H.H.H.H.H.H.H.H.H.H.H.H.H.H.H.H.H.H.H.H.H.H.H.H.H.H.H.H.H.H.H.H.H.H.H.H.H.H.H.H.H.H.H.H.H.H.H.H.H.H.H.H.H.H.H.H.H.H.H.H.H.H.H.H.H.H.H.H.H.H.H.H.H.H.H.H.H.H.H.H.H.H.H.H.H.H.H.H.H.H.H.H.H.H.H.H.H.H.H.H.H.H.H.H.H.H.H.H.H.H.H.H.H.H.H.H.H.H.H.H.H.H.H.H.H.H.H.H.H.H.H.H.H.H.H.H.H.H.H.H.H.H.H.H.H.H.H.H.H.H.H.H.H.H.H.H.H.H.H.H.H.H.H.H.H.H.H.H.H.H.H.H.H.H.H.H.H.H.H.H.H.H.H.H.H.H.H.H.H.H.H.H.H.H.H.H.H.H.H.H.H.H.H.H.H.H.H.H.H.H.H.H.H.H.H.H.H.H.H.H.H.H.H.H.H.H.H.H.H.H.H.H.H.H.H.H.H.H.H.H.H.H.H.H.H.H.H.H.H.H.H.H.H.H.H.H.H.H.H.H.H.H.H.H.H.H.H.H.H.H.H.H.H.H.H.H.H.H.H.H.H.H.H.H.H.H.H.H.H.H.H.H.H.H.H.H.H.H.H.H.H.H.H.H.H.H.H.H.H.H.H.H.H.H.H.H.H.H.H.H.H.H.H.H.H.H.H.H.H.H.H.H.H.H.H.H.H.H.H.H.H.H.H.H.H.H.H.H.H.H.H.H.H.H.H.H.H.H.H.H.H.H.H.H.H.H.H.H.H.H.H.H.H.H.H.H.H.H.H.H.H.H.H.H.H.H.H.H.H.H.H.H.H.H.H.H.H.H.H.H.H.H.H.H.H.H.H.H.H.H.H.H.H.H.H.H.H.H.H.H.H.H.H.H.H.H.H.H.H.H.H.H.H.H.H.H.H.H.H.H.H.H.H.H.H.H.H.H.H.H.H.H.H.H.H.H.H.H.H.H.H.H.H.H.H.H.H.H.H.H.H.H.H.H.H.H.H.H.H.H.H.H.H.H.H.H.H.H.H.H.H.H.H.H.H.H.H.H.H.H.H.H.H.H.H.H.H.H.H.H.H.",
"H.H.H.H.H.H.H.H.H.H.H.H.H.H.H.H.H.H.H.H.H.H.H.H.H.H.H.H.H.H.H.H.H.H.H.H.H.H.H.H.H.H.H.H.H.H.H.H.H.H.H.H.H.H.H.H.H.H.H.H.H.H.H.H.H.H.H.H.H.H.H.H.H.H.H.H.H.H.H.H.H.H.H.H.H.H.H.H.H.H.H.H.H.H.H.H.H.H.H.H.H.H.H.H.H.H.H.H.H.H.H.H.H.H.H.H.H.H.H.H.H.H.H.H.H.H.H.H.H.H.H.H.H.H.H.H.H.H.H.H.H.H.H.H.H.H.H.H.H.H.H.H.H.H.H.H.H.H.H.H.H.H.H.H.H.H.H.H.H.H.H.H.H.H.H.H.H.H.H.H.H.H.H.H.H.H.H.H.H.H.H.H.H.H.H.H.H.H.H.H.H.H.H.H.H.H.H.H.H.H.H.H.H.H.H.H.H.H.H.H.H.H.H.H.J.J.H.L.H.H.J.P.P.P.J.K.B.B.K.B.K.J.M.I.Q.J.Q.J.K.F.B.B.K.K.K.F.B.B.K.K.K.K.B.B.B.B.K.K.K.K.B.B.B.B.B.B.B.B.B.B.F.S.G.G.G.I.D.D.Y.F.F.B.B.B.B.W.B.B.B.B.B.B.B.F.P.M.P.P.P.P.G.K.H.H.H.H.H.J.P.P.H.H.H.H.H.H.H.H.H.H.H.H.H.H.H.H.H.H.H.H.H.H.H.H.H.H.H.H.H.H.H.H.H.H.H.H.H.H.H.H.H.H.H.H.H.H.H.H.H.H.H.H.H.H.H.H.H.H.H.H.H.H.H.H.H.H.H.H.H.H.H.H.H.H.H.H.H.H.H.H.H.H.H.H.H.H.H.H.H.H.H.H.H.H.H.H.H.H.H.H.H.H.H.H.H.H.H.H.H.H.H.H.H.H.H.H.H.H.H.H.H.H.H.H.H.H.H.H.H.H.H.H.H.H.H.H.H.H.H.H.H.H.H.H.H.H.H.H.H.H.H.H.H.H.H.H.H.H.H.H.H.H.H.H.H.H.H.H.H.H.H.H.H.H.H.H.H.H.H.H.H.H.H.H.H.H.H.H.H.H.H.H.H.H.H.H.H.H.H.H.H.H.H.H.H.H.H.H.H.H.H.H.H.H.H.H.H.H.H.H.H.H.H.H.H.H.H.H.H.H.H.H.H.H.H.H.H.H.H.H.H.H.H.H.H.H.H.H.H.H.H.H.H.H.H.H.H.H.H.H.H.H.H.H.H.H.H.H.H.H.H.H.H.H.H.H.H.H.H.H.H.H.H.H.H.H.H.H.H.H.H.H.H.H.H.H.H.H.H.H.H.H.H.H.H.H.H.H.H.H.H.H.H.H.H.H.H.H.H.H.H.H.H.H.H.H.H.H.H.H.H.H.H.H.H.H.H.H.H.H.H.H.H.H.H.H.H.H.H.H.H.H.H.H.H.H.H.H.H.H.H.H.H.H.H.H.H.H.H.H.H.H.H.H.H.H.H.H.H.H.H.H.H.H.H.H.H.H.H.H.H.H.H.H.H.H.H.H.H.H.H.H.H.H.H.H.H.H.H.H.H.H.H.H.H.H.H.H.H.H.H.H.H.H.H.H.H.H.H.H.H.H.H.H.H.H.H.H.H.H.H.H.H.H.H.H.H.H.H.H.H.H.H.H.H.H.H.H.H.H.H.H.H.H.H.H.H.H.H.H.H.H.H.H.H.H.H.H.H.H.H.H.H.H.H.H.H.H.H.H.H.H.H.H.H.H.H.H.H.H.H.H.H.H.H.H.H.H.H.H.H.H.H.H.H.H.H.H.H.H.H.H.H.H.H.H.H.H.H.H.",
"H.H.H.H.H.H.H.H.H.H.H.H.H.H.H.H.H.H.H.H.H.H.H.H.H.H.H.H.H.H.H.H.H.H.H.H.H.H.H.H.H.H.H.H.H.H.H.H.H.H.H.H.H.H.H.H.H.H.H.H.H.H.H.H.H.H.H.H.H.H.H.H.H.H.H.H.H.H.H.H.H.H.H.H.H.H.H.H.H.H.H.H.H.H.H.H.H.H.H.H.H.H.H.H.H.H.H.H.H.H.H.H.H.H.H.H.H.H.H.H.H.H.H.H.H.H.H.H.H.H.H.H.H.H.H.H.H.H.H.H.H.H.H.H.H.H.H.H.H.H.H.H.H.H.H.H.H.H.H.H.H.H.H.H.H.H.H.H.H.H.H.H.H.H.H.H.H.H.H.H.H.H.H.H.H.H.H.H.H.H.H.H.H.H.H.H.H.H.H.H.H.H.H.H.H.H.H.H.H.H.H.H.H.H.H.H.H.H.H.H.H.H.H.L.L.L.L.H.J.J.J.J.J.G.F.B.B.S.T.D.S.G.M.!.Q.B.W.B.Q.I.L.L.P.I.I.I.P.P.P.P.P.P.J.J.P.P.P.P.P.P.J.J.P.P.J.J.H.J.L.L.D.I.Y.J.B.W.W.W.W.OXP.Y.D.L.S.G.G.G.G.G.J.P.U.U.!.M.U.I.G.P.K.K.J.H.H.H.L.P.P.P.L.L.L.L.L.L.L.L.H.H.H.H.H.H.H.H.H.H.H.H.H.H.H.H.H.H.H.H.H.H.H.H.H.H.H.H.H.H.H.H.H.H.H.H.H.H.H.H.H.H.H.H.H.H.H.H.H.H.H.H.H.H.H.H.H.H.H.H.H.H.H.H.H.H.H.H.H.H.H.H.H.H.H.H.H.H.H.H.H.H.H.H.H.H.H.H.H.H.H.H.H.H.H.H.H.H.H.H.H.H.H.H.H.H.H.H.H.H.H.H.H.H.H.H.H.H.H.H.H.H.H.H.H.H.H.H.H.H.H.H.H.H.H.H.H.H.H.H.H.H.H.H.H.H.H.H.H.H.H.H.H.H.H.H.H.H.H.H.H.H.H.H.H.H.H.H.H.H.H.H.H.H.H.H.H.H.H.H.H.H.H.H.H.H.H.H.H.H.H.H.H.H.H.H.H.H.H.H.H.H.H.H.H.H.H.H.H.H.H.H.H.H.H.H.H.H.H.H.H.H.H.H.H.H.H.H.H.H.H.H.H.H.H.H.H.H.H.H.H.H.H.H.H.H.H.H.H.H.H.H.H.H.H.H.H.H.H.H.H.H.H.H.H.H.H.H.H.H.H.H.H.H.H.H.H.H.H.H.H.H.H.H.H.H.H.H.H.H.H.H.H.H.H.H.H.H.H.H.H.H.H.H.H.H.H.H.H.H.H.H.H.H.H.H.H.H.H.H.H.H.H.H.H.H.H.H.H.H.H.H.H.H.H.H.H.H.H.H.H.H.H.H.H.H.H.H.H.H.H.H.H.H.H.H.H.H.H.H.H.H.H.H.H.H.H.H.H.H.H.H.H.H.H.H.H.H.H.H.H.H.H.H.H.H.H.H.H.H.H.H.H.H.H.H.H.H.H.H.H.H.H.H.H.H.H.H.H.H.H.H.H.H.H.H.H.H.H.H.H.H.H.H.H.H.H.H.H.H.H.H.H.H.H.H.H.H.H.H.H.H.H.H.H.H.H.H.H.H.H.H.H.H.H.H.H.H.H.H.H.H.H.H.H.H.H.H.H.H.H.H.H.H.H.H.H.H.H.H.H.H.H.H.H.H.H.H.H.H.H.H.H.H.H.H.H.H.H.H.H.H.H.H.H.H.H.H.H.H.H.H.H.H.H.H.H.H.H.H.H.H.",
"H.H.H.H.H.H.H.H.H.H.H.H.H.H.H.H.H.H.H.H.H.H.H.H.H.H.H.H.H.H.H.H.H.H.H.H.H.H.H.H.H.H.H.H.H.H.H.H.H.H.H.H.H.H.H.H.H.H.H.H.H.H.H.H.H.H.H.H.H.H.H.H.H.H.H.H.H.H.H.H.H.H.H.H.H.H.H.H.H.H.H.H.H.H.H.H.H.H.H.H.H.H.H.H.H.H.H.H.H.H.H.H.H.H.H.H.H.H.H.H.H.H.H.H.H.H.H.H.H.H.H.H.H.H.H.H.H.H.H.H.H.H.H.H.H.H.H.H.H.H.H.H.H.H.H.H.H.H.H.H.H.H.H.H.H.H.H.H.H.H.H.H.H.H.H.H.H.H.H.H.H.H.H.H.H.H.H.H.H.H.H.H.H.H.H.H.H.H.H.H.H.H.H.H.H.H.H.H.H.H.H.H.H.H.H.H.H.H.H.H.H.H.L.L.U.U.U.L.J.H.H.L.D.D.D.D.v.;X4X` 1.o.o.@.y o + + ;.&.o.o.o.o.o.[ [ [ [ ] ] ] [ [ [ [ [ ] ] ] [ [ [ [ [ [ [ [ ] ] ! &.:.T A.D.D.D.R.C :XxXp.p.p.p.p.p.p.p.p.p.p.xX2Xk.D.Y.S.I.P.J.J.H.L.L.L.L.L.P.L.L.L.L.L.L.L.L.H.H.H.H.H.H.H.H.H.H.H.H.H.H.H.H.H.H.H.H.H.H.H.H.H.H.H.H.H.H.H.H.H.H.H.H.H.H.H.H.H.H.H.H.H.H.H.H.H.H.H.H.H.H.H.H.H.H.H.H.H.H.H.H.H.H.H.H.H.H.H.H.H.H.H.H.H.H.H.H.H.H.H.H.H.H.H.H.H.H.H.H.H.H.H.H.H.H.H.H.H.H.H.H.H.H.H.H.H.H.H.H.H.H.H.H.H.H.H.H.H.H.H.H.H.H.H.H.H.H.H.H.H.H.H.H.H.H.H.H.H.H.H.H.H.H.H.H.H.H.H.H.H.H.H.H.H.H.H.H.H.H.H.H.H.H.H.H.H.H.H.H.H.H.H.H.H.H.H.H.H.H.H.H.H.H.H.H.H.H.H.H.H.H.H.H.H.H.H.H.H.H.H.H.H.H.H.H.H.H.H.H.H.H.H.H.H.H.H.H.H.H.H.H.H.H.H.H.H.H.H.H.H.H.H.H.H.H.H.H.H.H.H.H.H.H.H.H.H.H.H.H.H.H.H.H.H.H.H.H.H.H.H.H.H.H.H.H.H.H.H.H.H.H.H.H.H.H.H.H.H.H.H.H.H.H.H.H.H.H.H.H.H.H.H.H.H.H.H.H.H.H.H.H.H.H.H.H.H.H.H.H.H.H.H.H.H.H.H.H.H.H.H.H.H.H.H.H.H.H.H.H.H.H.H.H.H.H.H.H.H.H.H.H.H.H.H.H.H.H.H.H.H.H.H.H.H.H.H.H.H.H.H.H.H.H.H.H.H.H.H.H.H.H.H.H.H.H.H.H.H.H.H.H.H.H.H.H.H.H.H.H.H.H.H.H.H.H.H.H.H.H.H.H.H.H.H.H.H.H.H.H.H.H.H.H.H.H.H.H.H.H.H.H.H.H.H.H.H.H.H.H.H.H.H.H.H.H.H.H.H.H.H.H.H.H.H.H.H.H.H.H.H.H.H.H.H.H.H.H.H.H.H.H.H.H.H.H.H.H.H.H.H.H.H.H.H.H.H.H.H.H.H.H.H.H.H.H.H.H.H.H.H.H.H.H.H.H.H.H.H.H.H.H.H.H.H.H.H.H.H.H.H.H.H.H.H.H.H.H.H.H.",
"H.H.H.H.H.H.H.H.H.H.H.H.H.H.H.H.H.H.H.H.H.H.H.H.H.H.H.H.H.H.H.H.H.H.H.H.H.H.H.H.H.H.H.H.H.H.H.H.H.H.H.H.H.H.H.H.H.H.H.H.H.H.H.H.H.H.H.H.H.H.H.H.H.H.H.H.H.H.H.H.H.H.H.H.H.H.H.H.H.H.H.H.H.H.H.H.H.H.H.H.H.H.H.H.H.H.H.H.H.H.H.H.H.H.H.H.H.H.H.H.H.H.H.H.H.H.H.H.H.H.H.H.H.H.H.H.H.H.H.H.H.H.H.H.H.H.H.H.H.H.H.H.H.H.H.H.H.H.H.H.H.H.H.H.H.H.H.H.H.H.H.H.H.H.H.H.H.H.H.H.H.H.H.H.H.H.H.H.H.H.H.H.H.H.H.H.H.H.H.H.H.H.H.H.H.H.H.H.H.H.H.H.H.H.H.H.H.H.H.H.H.H.L.L.H.H.H.H.H.L.U.U.G.L.H.D.A.;X>.) ) ! 1.4Xk   < 7 <.2.1.) &.&.) ) &.%.%.%.%.%.%.%.%.%.%.%.%.%.%.&.=.=.%.-.%.&.%.&.o.-. .#Xc.U.Q.Q.Q.k.:XxXr.r.r.e.y.y.y.y.r.p.p.u.gXk.D.Y.M.I.P.P.L.L.L.L.L.L.U.L.P.P.P.P.P.P.P.P.H.H.H.H.H.H.H.H.H.H.H.H.H.H.H.H.H.H.H.H.H.H.H.H.H.H.H.H.H.H.H.H.H.H.H.H.H.H.H.H.H.H.H.H.H.H.H.H.H.H.H.H.H.H.H.H.H.H.H.H.H.H.H.H.H.H.H.H.H.H.H.H.H.H.H.H.H.H.H.H.H.H.H.H.H.H.H.H.H.H.H.H.H.H.H.H.H.H.H.H.H.H.H.H.H.H.H.H.H.H.H.H.H.H.H.H.H.H.H.H.H.H.H.H.H.H.H.H.H.H.H.H.H.H.H.H.H.H.H.H.H.H.H.H.H.H.H.H.H.H.H.H.H.H.H.H.H.H.H.H.H.H.H.H.H.H.H.H.H.H.H.H.H.H.H.H.H.H.H.H.H.H.H.H.H.H.H.H.H.H.H.H.H.H.H.H.H.H.H.H.H.H.H.H.H.H.H.H.H.H.H.H.H.H.H.H.H.H.H.H.H.H.H.H.H.H.H.H.H.H.H.H.H.H.H.H.H.H.H.H.H.H.H.H.H.H.H.H.H.H.H.H.H.H.H.H.H.H.H.H.H.H.H.H.H.H.H.H.H.H.H.H.H.H.H.H.H.H.H.H.H.H.H.H.H.H.H.H.H.H.H.H.H.H.H.H.H.H.H.H.H.H.H.H.H.H.H.H.H.H.H.H.H.H.H.H.H.H.H.H.H.H.H.H.H.H.H.H.H.H.H.H.H.H.H.H.H.H.H.H.H.H.H.H.H.H.H.H.H.H.H.H.H.H.H.H.H.H.H.H.H.H.H.H.H.H.H.H.H.H.H.H.H.H.H.H.H.H.H.H.H.H.H.H.H.H.H.H.H.H.H.H.H.H.H.H.H.H.H.H.H.H.H.H.H.H.H.H.H.H.H.H.H.H.H.H.H.H.H.H.H.H.H.H.H.H.H.H.H.H.H.H.H.H.H.H.H.H.H.H.H.H.H.H.H.H.H.H.H.H.H.H.H.H.H.H.H.H.H.H.H.H.H.H.H.H.H.H.H.H.H.H.H.H.H.H.H.H.H.H.H.H.H.H.H.H.H.H.H.H.H.H.H.H.H.H.H.H.H.H.H.H.H.H.H.H.H.H.H.H.H.H.H.H.H.H.H.H.H.H.H.H.",
"H.H.H.H.H.H.H.H.H.H.H.H.H.H.H.H.H.H.H.H.H.H.H.H.H.H.H.H.H.H.H.H.H.H.H.H.H.H.H.H.H.H.H.H.H.H.H.H.H.H.H.H.H.H.H.H.H.H.H.H.H.H.H.H.H.H.H.H.H.H.H.H.H.H.H.H.H.H.H.H.H.H.H.H.H.H.H.H.H.H.H.H.H.H.H.H.H.H.H.H.H.H.H.H.H.H.H.H.H.H.H.H.H.H.H.H.H.H.H.H.H.H.H.H.H.H.H.H.H.H.H.H.H.H.H.H.H.H.H.H.H.H.H.H.H.H.H.H.H.H.H.H.H.H.H.H.H.H.H.H.H.H.H.H.H.H.H.H.H.H.H.H.H.H.H.H.H.H.H.H.H.H.H.H.H.H.H.H.H.H.H.H.S.H.H.K.G.U.L.U.U.U.I.P.P.P.U.I.H.F.F.F.S.H.J.J.H.J.W.W.K.B.W.W.W.W.W.W.W.W.W.W.W.W.W.Q.D.#X4X_ >.` ) 4Xk . < O <.&.o.^ >.>./ _ / Q ~ Q / / / ~ ' / / ' ' ' / / / ' / ' ~ / / ' ~ /  .x.M.W.OXW.OXj.&XkX9.9.q.q.q.q.q.q.q.9.9.hX2Xj.B.B.B.Q.U.L.S.Y.B.Q.OXOXW.OXOXOXOXOXOXQ.j.Q.S.L.G.P.J.J.U.I.L.H.H.H.H.H.H.H.H.H.H.H.H.H.H.H.H.H.H.H.H.H.H.H.H.H.H.H.H.H.H.H.H.H.H.H.H.H.H.H.H.H.H.H.H.H.H.H.H.H.H.H.H.H.H.H.H.H.H.H.H.H.H.H.H.H.H.H.H.H.H.H.H.H.H.H.H.H.H.H.H.H.H.H.H.H.H.H.H.H.H.H.H.H.H.H.H.H.H.H.H.H.H.H.H.H.H.H.H.H.H.H.H.H.H.H.H.H.H.H.H.H.H.H.H.H.H.H.H.H.H.H.H.H.H.H.H.H.H.H.H.H.H.H.H.H.H.H.H.H.H.H.H.H.H.H.H.H.H.H.H.H.H.H.H.H.H.H.H.H.H.H.H.H.H.H.H.H.H.H.H.H.H.H.H.H.H.H.H.H.H.H.H.H.H.H.H.H.H.H.H.H.H.H.H.H.H.H.H.H.H.H.H.H.H.H.H.H.H.H.H.H.H.H.H.H.H.H.H.H.H.H.H.H.H.H.H.H.H.H.H.H.H.H.H.H.H.H.H.H.H.H.H.H.H.H.H.H.H.H.H.H.H.H.H.H.H.H.H.H.H.H.H.H.H.H.H.H.H.H.H.H.H.H.H.H.H.H.H.H.H.H.H.H.H.H.H.H.H.H.H.H.H.H.H.H.H.H.H.H.H.H.H.H.H.H.H.H.H.H.H.H.H.H.H.H.H.H.H.H.H.H.H.H.H.H.H.H.H.H.H.H.H.H.H.H.H.H.H.H.H.H.H.H.H.H.H.H.H.H.H.H.H.H.H.H.H.H.H.H.H.H.H.H.H.H.H.H.H.H.H.H.H.H.H.H.H.H.H.H.H.H.H.H.H.H.H.H.H.H.H.H.H.H.H.H.H.H.H.H.H.H.H.H.H.H.H.H.H.H.H.H.H.H.H.H.H.H.H.H.H.H.H.H.H.H.H.H.H.H.H.H.H.H.H.H.H.H.H.H.H.H.H.H.H.H.H.H.H.H.H.H.H.H.H.H.H.H.H.H.H.H.H.H.H.H.H.H.H.H.H.H.H.H.H.H.H.H.H.H.H.H.H.H.H.H.H.H.H.H.H.H.H.H.H.H.H.H.H.H.H.H.H.H.",
"H.H.H.H.H.H.H.H.H.H.H.H.H.H.H.H.H.H.H.H.H.H.H.H.H.H.H.H.H.H.H.H.H.H.H.H.H.H.H.H.H.H.H.H.H.H.H.H.H.H.H.H.H.H.H.H.H.H.H.H.H.H.H.H.H.H.H.H.H.H.H.H.H.H.H.H.H.H.H.H.H.H.H.H.H.H.H.H.H.H.H.H.H.H.H.H.H.H.H.H.H.H.H.H.H.H.H.H.H.H.H.H.H.H.H.H.H.H.H.H.H.H.H.H.H.H.H.H.H.H.H.H.H.H.H.H.H.H.H.H.H.H.H.H.H.H.H.H.H.H.H.H.H.H.H.H.H.H.H.H.H.H.H.H.H.H.H.H.H.H.H.H.H.H.H.H.H.H.H.H.H.H.H.H.H.H.H.H.H.H.H.H.F.K.J.J.H.H.L.L.S.S.S.S.F.F.S.S.U.I.I.P.U.Q.Q.Q.U.U.I.R.#X;X#X;X@X;X;X@X;X;X;X;X;X+XC C C  .:.%.%.( ( 4Xe . > O 4X&.W Q -.*.o.6.6.6.6.6.6.6.6.6.6.6.5.5.5.6.5.5.5.6.5.6.+.6.4.6.6.6.6.| T #X .:X:X..xXnXbXbXbXnXnXbXbXnXnXnXnXNXcX..:X2XC.S.F.J.F.T.C.2X:X:X:X:X:X:X:X:X:X2Xk.J.K.K.J.K.F.J.J.P.H.H.H.H.H.H.H.H.H.H.H.H.H.H.H.H.H.H.H.H.H.H.H.H.H.H.H.H.H.H.H.H.H.H.H.H.H.H.H.H.H.H.H.H.H.H.H.H.H.H.H.H.H.H.H.H.H.H.H.H.H.H.H.H.H.H.H.H.H.H.H.H.H.H.H.H.H.H.H.H.H.H.H.H.H.H.H.H.H.H.H.H.H.H.H.H.H.H.H.H.H.H.H.H.H.H.H.H.H.H.H.H.H.H.H.H.H.H.H.H.H.H.H.H.H.H.H.H.H.H.H.H.H.H.H.H.H.H.H.H.H.H.H.H.H.H.H.H.H.H.H.H.H.H.H.H.H.H.H.H.H.H.H.H.H.H.H.H.H.H.H.H.H.H.H.H.H.H.H.H.H.H.H.H.H.H.H.H.H.H.H.H.H.H.H.H.H.H.H.H.H.H.H.H.H.H.H.H.H.H.H.H.H.H.H.H.H.H.H.H.H.H.H.H.H.H.H.H.H.H.H.H.H.H.H.H.H.H.H.H.H.H.H.H.H.H.H.H.H.H.H.H.H.H.H.H.H.H.H.H.H.H.H.H.H.H.H.H.H.H.H.H.H.H.H.H.H.H.H.H.H.H.H.H.H.H.H.H.H.H.H.H.H.H.H.H.H.H.H.H.H.H.H.H.H.H.H.H.H.H.H.H.H.H.H.H.H.H.H.H.H.H.H.H.H.H.H.H.H.H.H.H.H.H.H.H.H.H.H.H.H.H.H.H.H.H.H.H.H.H.H.H.H.H.H.H.H.H.H.H.H.H.H.H.H.H.H.H.H.H.H.H.H.H.H.H.H.H.H.H.H.H.H.H.H.H.H.H.H.H.H.H.H.H.H.H.H.H.H.H.H.H.H.H.H.H.H.H.H.H.H.H.H.H.H.H.H.H.H.H.H.H.H.H.H.H.H.H.H.H.H.H.H.H.H.H.H.H.H.H.H.H.H.H.H.H.H.H.H.H.H.H.H.H.H.H.H.H.H.H.H.H.H.H.H.H.H.H.H.H.H.H.H.H.H.H.H.H.H.H.H.H.H.H.H.H.H.H.H.H.H.H.H.H.H.H.H.H.H.H.H.H.H.H.H.H.H.H.H.H.H.H.H.H.",
"H.H.H.H.H.H.H.H.H.H.H.H.H.H.H.H.H.H.H.H.H.H.H.H.H.H.H.H.H.H.H.H.H.H.H.H.H.H.H.H.H.H.H.H.H.H.H.H.H.H.H.H.H.H.H.H.H.H.H.H.H.H.H.H.H.H.H.H.H.H.H.H.H.H.H.H.H.H.H.H.H.H.H.H.H.H.H.H.H.H.H.H.H.H.H.H.H.H.H.H.H.H.H.H.H.H.H.H.H.H.H.H.H.H.H.H.H.H.H.H.H.H.H.H.H.H.H.H.H.H.H.H.H.H.H.H.H.H.H.H.H.H.H.H.H.H.H.H.H.H.H.H.H.H.H.H.H.H.H.H.H.H.H.H.H.H.H.H.H.H.H.H.H.H.H.H.H.H.H.H.H.H.H.H.H.H.H.H.H.H.H.L.L.U.G.G.U.U.U.U.P.P.P.P.P.P.P.L.S.F.F.F.S.L.H.L.S.S.D.#X#.] [ ] [ o.o.o.o.1.] [ 1.~ D w D } -.o.&.&.&.6Xk X < O ,.&.&.o.o.! O.jXp.a.a.a.p.a.a.a.p.p.p.p.a.a.a.a.p.a.p.a.p.p.p.a.r.p.lX7.X.o.7.lXa.w.mXZXZXZXZXZXVXVXVXVXZXZXZXZXmXd.s.xXA.D.L.I.R.A.A vXzXp.p.p.p.p.p.p.a.hXC.L.J.J.U.D.D.D.L.L.H.H.H.H.H.H.H.H.H.H.H.H.H.H.H.H.H.H.H.H.H.H.H.H.H.H.H.H.H.H.H.H.H.H.H.H.H.H.H.H.H.H.H.H.H.H.H.H.H.H.H.H.H.H.H.H.H.H.H.H.H.H.H.H.H.H.H.H.H.H.H.H.H.H.H.H.H.H.H.H.H.H.H.H.H.H.H.H.H.H.H.H.H.H.H.H.H.H.H.H.H.H.H.H.H.H.H.H.H.H.H.H.H.H.H.H.H.H.H.H.H.H.H.H.H.H.H.H.H.H.H.H.H.H.H.H.H.H.H.H.H.H.H.H.H.H.H.H.H.H.H.H.H.H.H.H.H.H.H.H.H.H.H.H.H.H.H.H.H.H.H.H.H.H.H.H.H.H.H.H.H.H.H.H.H.H.H.H.H.H.H.H.H.H.H.H.H.H.H.H.H.H.H.H.H.H.H.H.H.H.H.H.H.H.H.H.H.H.H.H.H.H.H.H.H.H.H.H.H.H.H.H.H.H.H.H.H.H.H.H.H.H.H.H.H.H.H.H.H.H.H.H.H.H.H.H.H.H.H.H.H.H.H.H.H.H.H.H.H.H.H.H.H.H.H.H.H.H.H.H.H.H.H.H.H.H.H.H.H.H.H.H.H.H.H.H.H.H.H.H.H.H.H.H.H.H.H.H.H.H.H.H.H.H.H.H.H.H.H.H.H.H.H.H.H.H.H.H.H.H.H.H.H.H.H.H.H.H.H.H.H.H.H.H.H.H.H.H.H.H.H.H.H.H.H.H.H.H.H.H.H.H.H.H.H.H.H.H.H.H.H.H.H.H.H.H.H.H.H.H.H.H.H.H.H.H.H.H.H.H.H.H.H.H.H.H.H.H.H.H.H.H.H.H.H.H.H.H.H.H.H.H.H.H.H.H.H.H.H.H.H.H.H.H.H.H.H.H.H.H.H.H.H.H.H.H.H.H.H.H.H.H.H.H.H.H.H.H.H.H.H.H.H.H.H.H.H.H.H.H.H.H.H.H.H.H.H.H.H.H.H.H.H.H.H.H.H.H.H.H.H.H.H.H.H.H.H.H.H.H.H.H.H.H.H.H.H.H.H.H.H.H.H.H.H.H.H.H.H.H.H.H.H.H.",
"H.H.H.H.H.H.H.H.H.H.H.H.H.H.H.H.H.H.H.H.H.H.H.H.H.H.H.H.H.H.H.H.H.H.H.H.H.H.H.H.H.H.H.H.H.H.H.H.H.H.H.H.H.H.H.H.H.H.H.H.H.H.H.H.H.H.H.H.H.H.H.H.H.H.H.H.H.H.H.H.H.H.H.H.H.H.H.H.H.H.H.H.H.H.H.H.H.H.H.H.H.H.H.H.H.H.H.H.H.H.H.H.H.H.H.H.H.H.H.H.H.H.H.H.H.H.H.H.H.H.H.H.H.H.H.H.H.H.H.H.H.H.H.H.H.H.H.H.H.H.H.H.H.H.H.H.H.H.H.H.H.H.H.H.H.H.H.H.H.H.H.H.H.H.H.H.H.H.H.H.H.H.H.H.H.H.H.H.H.H.H.H.L.L.S.G.F.B.K.K.K.B.K.K.K.K.K.K.Q.Q.Q.P.U.U.P.Q.B.B.F.R.;X=.) 1.&.W ( ( ^ ` ] ` >.U v q v I >.' ` ' ' 4Xk . = O <._ ] ` / Y P jXy.r.w.w.e.q.q.q.q.q.q.q.q.q.q.e.y.y.w.p.9.r.p.w.p.p.lX5.~ ~ O.jXq.d.nXCXAXAXAXSXBXBXBXVXBXVXVXVXzXd.w.hXk.B.W.W.W.j.V.gXxX9.q.q.i.e.9.q.u.hXk.j.Q.W.Q.Q.H.J.F.F.H.H.H.H.H.H.H.H.H.H.H.H.H.H.H.H.H.H.H.H.H.H.H.H.H.H.H.H.H.H.H.H.H.H.H.H.H.H.H.H.H.H.H.H.H.H.H.H.H.H.H.H.H.H.H.H.H.H.H.H.H.H.H.H.H.H.H.H.H.H.H.H.H.H.H.H.H.H.H.H.H.H.H.H.H.H.H.H.H.H.H.H.H.H.H.H.H.H.H.H.H.H.H.H.H.H.H.H.H.H.H.H.H.H.H.H.H.H.H.H.H.H.H.H.H.H.H.H.H.H.H.H.H.H.H.H.H.H.H.H.H.H.H.H.H.H.H.H.H.H.H.H.H.H.H.H.H.H.H.H.H.H.H.H.H.H.H.H.H.H.H.H.H.H.H.H.H.H.H.H.H.H.H.H.H.H.H.H.H.H.H.H.H.H.H.H.H.H.H.H.H.H.H.H.H.H.H.H.H.H.H.H.H.H.H.H.H.H.H.H.H.H.H.H.H.H.H.H.H.H.H.H.H.H.H.H.H.H.H.H.H.H.H.H.H.H.H.H.H.H.H.H.H.H.H.H.H.H.H.H.H.H.H.H.H.H.H.H.H.H.H.H.H.H.H.H.H.H.H.H.H.H.H.H.H.H.H.H.H.H.H.H.H.H.H.H.H.H.H.H.H.H.H.H.H.H.H.H.H.H.H.H.H.H.H.H.H.H.H.H.H.H.H.H.H.H.H.H.H.H.H.H.H.H.H.H.H.H.H.H.H.H.H.H.H.H.H.H.H.H.H.H.H.H.H.H.H.H.H.H.H.H.H.H.H.H.H.H.H.H.H.H.H.H.H.H.H.H.H.H.H.H.H.H.H.H.H.H.H.H.H.H.H.H.H.H.H.H.H.H.H.H.H.H.H.H.H.H.H.H.H.H.H.H.H.H.H.H.H.H.H.H.H.H.H.H.H.H.H.H.H.H.H.H.H.H.H.H.H.H.H.H.H.H.H.H.H.H.H.H.H.H.H.H.H.H.H.H.H.H.H.H.H.H.H.H.H.H.H.H.H.H.H.H.H.H.H.H.H.H.H.H.H.H.H.H.H.H.H.H.H.H.H.H.H.H.H.H.H.H.H.H.H.H.H.H.H.H.H.H.H.H.H.H.",
"H.H.H.H.H.H.H.H.H.H.H.H.H.H.H.H.H.H.H.H.H.H.H.H.H.H.H.H.H.H.H.H.H.H.H.H.H.H.H.H.H.H.H.H.H.H.H.H.H.H.H.H.H.H.H.H.H.H.H.H.H.H.H.H.H.H.H.H.H.H.H.H.H.H.H.H.H.H.H.H.H.H.H.H.H.H.H.H.H.H.H.H.H.H.H.H.H.H.H.H.H.H.H.H.H.H.H.H.H.H.H.H.H.H.H.H.H.H.H.H.H.H.H.H.H.H.H.H.H.H.H.H.H.H.H.H.H.H.H.H.H.H.H.H.H.H.H.H.H.H.H.H.H.H.H.H.H.H.H.H.H.H.H.H.H.H.H.H.H.H.H.H.H.H.H.H.H.H.H.H.H.H.H.H.H.H.H.H.H.H.H.H.L.H.S.J.B.K.I.I.L.J.Q.Q.Q.Q.Q.Q.Q.P.Y.Y.J.B.B.J.D.A.A.#X;X#./ / _ / #.#.^ / ^ / | I G t G I Q Q X.X.X.<.0 o % + <.=._ _ -.o.O.6.jXu.u.u.y.e.a.y.w.w.e.u.u.e.e.y.w.w.w.lXt.t.jXu.u.t.kX;.O.X.O.kXu.w.nXBXVXVXVXVXVXBXBXVXVXVXVXCXzXu.a.cXl.N.U.D.D.C.V gXvXi.u.t.u.u.e.w.xXhXV D.Y.F.B.Q.J.J.L.G.L.H.H.H.H.H.H.H.H.H.H.H.H.H.H.H.H.H.H.H.H.H.H.H.H.H.H.H.H.H.H.H.H.H.H.H.H.H.H.H.H.H.H.H.H.H.H.H.H.H.H.H.H.H.H.H.H.H.H.H.H.H.H.H.H.H.H.H.H.H.H.H.H.H.H.H.H.H.H.H.H.H.H.H.H.H.H.H.H.H.H.H.H.H.H.H.H.H.H.H.H.H.H.H.H.H.H.H.H.H.H.H.H.H.H.H.H.H.H.H.H.H.H.H.H.H.H.H.H.H.H.H.H.H.H.H.H.H.H.H.H.H.H.H.H.H.H.H.H.H.H.H.H.H.H.H.H.H.H.H.H.H.H.H.H.H.H.H.H.H.H.H.H.H.H.H.H.H.H.H.H.H.H.H.H.H.H.H.H.H.H.H.H.H.H.H.H.H.H.H.H.H.H.H.H.H.H.H.H.H.H.H.H.H.H.H.H.H.H.H.H.H.H.H.H.H.H.H.H.H.H.H.H.H.H.H.H.H.H.H.H.H.H.H.H.H.H.H.H.H.H.H.H.H.H.H.H.H.H.H.H.H.H.H.H.H.H.H.H.H.H.H.H.H.H.H.H.H.H.H.H.H.H.H.H.H.H.H.H.H.H.H.H.H.H.H.H.H.H.H.H.H.H.H.H.H.H.H.H.H.H.H.H.H.H.H.H.H.H.H.H.H.H.H.H.H.H.H.H.H.H.H.H.H.H.H.H.H.H.H.H.H.H.H.H.H.H.H.H.H.H.H.H.H.H.H.H.H.H.H.H.H.H.H.H.H.H.H.H.H.H.H.H.H.H.H.H.H.H.H.H.H.H.H.H.H.H.H.H.H.H.H.H.H.H.H.H.H.H.H.H.H.H.H.H.H.H.H.H.H.H.H.H.H.H.H.H.H.H.H.H.H.H.H.H.H.H.H.H.H.H.H.H.H.H.H.H.H.H.H.H.H.H.H.H.H.H.H.H.H.H.H.H.H.H.H.H.H.H.H.H.H.H.H.H.H.H.H.H.H.H.H.H.H.H.H.H.H.H.H.H.H.H.H.H.H.H.H.H.H.H.H.H.H.H.H.H.H.H.H.H.H.H.H.H.H.H.H.H.H.H.H.H.H.",
"H.H.H.H.H.H.H.H.H.H.H.H.H.H.H.H.H.H.H.H.H.H.H.H.H.H.H.H.H.H.H.H.H.H.H.H.H.H.H.H.H.H.H.H.H.H.H.H.H.H.H.H.H.H.H.H.H.H.H.H.H.H.H.H.H.H.H.H.H.H.H.H.H.H.H.H.H.H.H.H.H.H.H.H.H.H.H.H.H.H.H.H.H.H.H.H.H.H.H.H.H.H.H.H.H.H.H.H.H.H.H.H.H.H.H.H.H.H.H.H.H.H.H.H.H.H.H.H.H.H.H.H.H.H.H.H.H.H.H.H.H.H.H.H.H.H.H.H.H.H.H.H.H.H.H.H.H.H.H.H.H.H.H.H.H.H.H.H.H.H.H.H.H.H.H.H.H.H.H.H.H.H.H.H.H.H.H.H.H.H.H.L.J.P.U.U.D.A.;X>.o.o.) ) [ [ ! ) ) ` ( :.#Xn.N.n.%X#./ _ 1.&.o.@.=.o.5.u.y.y.a.a.a.y.y.y.y.a.a.a.p.y.y.lX} r M t ;.1.X.5.jXu.q.+.P } +.u.w.w.mXBXVXVXBXBXmXs.w.p.p.r.e.u.;.W @.Q X.} X.5.u.u.r.lXy.q.r.r.q.q.q.q.i.i.q.9.q.q.i.i.MXSXSXCX| $.@.;.jXu.0.NXVXSXVXVXVXVXVXSXVXBX0.hXhX..C.D.L.L.U.U.L.H.H.H.H.H.H.H.H.H.H.H.H.H.H.H.H.H.H.H.H.H.H.H.H.H.H.H.H.H.H.H.H.H.H.H.H.H.H.H.H.H.H.H.H.H.H.H.H.H.H.H.H.H.H.H.H.H.H.H.H.H.H.H.H.H.H.H.H.H.H.H.H.H.H.H.H.H.H.H.H.H.H.H.H.H.H.H.H.H.H.H.H.H.H.H.H.H.H.H.H.H.H.H.H.H.H.H.H.H.H.H.H.H.H.H.H.H.H.H.H.H.H.H.H.H.H.H.H.H.H.H.H.H.H.H.H.H.H.H.H.H.H.H.H.H.H.H.H.H.H.H.H.H.H.H.H.H.H.H.H.H.H.H.H.H.H.H.H.H.H.H.H.H.H.H.H.H.H.H.H.H.H.H.H.H.H.H.H.H.H.H.H.H.H.H.H.H.H.H.H.H.H.H.H.H.H.H.H.H.H.H.H.H.H.H.H.H.H.H.H.H.H.H.H.H.H.H.H.H.H.H.H.H.H.H.H.H.H.H.H.H.H.H.H.H.H.H.H.H.H.H.H.H.H.H.H.H.H.H.H.H.H.H.H.H.H.H.H.H.H.H.H.H.H.H.H.H.H.H.H.H.H.H.H.H.H.H.H.H.H.H.H.H.H.H.H.H.H.H.H.H.H.H.H.H.H.H.H.H.H.H.H.H.H.H.H.H.H.H.H.H.H.H.H.H.H.H.H.H.H.H.H.H.H.H.H.H.H.H.H.H.H.H.H.H.H.H.H.H.H.H.H.H.H.H.H.H.H.H.H.H.H.H.H.H.H.H.H.H.H.H.H.H.H.H.H.H.H.H.H.H.H.H.H.H.H.H.H.H.H.H.H.H.H.H.H.H.H.H.H.H.H.H.H.H.H.H.H.H.H.H.H.H.H.H.H.H.H.H.H.H.H.H.H.H.H.H.H.H.H.H.H.H.H.H.H.H.H.H.H.H.H.H.H.H.H.H.H.H.H.H.H.H.H.H.H.H.H.H.H.H.H.H.H.H.H.H.H.H.H.H.H.H.H.H.H.H.H.H.H.H.H.H.H.H.H.H.H.H.H.H.H.H.H.H.H.H.H.H.H.H.H.H.H.H.H.H.H.H.H.H.H.H.",
"H.H.H.H.H.H.H.H.H.H.H.H.H.H.H.H.H.H.H.H.H.H.H.H.H.H.H.H.H.H.H.H.H.H.H.H.H.H.H.H.H.H.H.H.H.H.H.H.H.H.H.H.H.H.H.H.H.H.H.H.H.H.H.H.H.H.H.H.H.H.H.H.H.H.H.H.H.H.H.H.H.H.H.H.H.H.H.H.H.H.H.H.H.H.H.H.H.H.H.H.H.H.H.H.H.H.H.H.H.H.H.H.H.H.H.H.H.H.H.H.H.H.H.H.H.H.H.H.H.H.H.H.H.H.H.H.H.H.H.H.H.H.H.H.H.H.H.H.H.H.H.H.H.H.H.H.H.H.H.H.H.H.H.H.H.H.H.H.H.H.H.H.H.H.H.H.H.H.H.H.H.H.H.H.H.H.H.H.H.H.H.H.H.G.F.J.F.D.;X2.o.o.1.` &.&.=.&.o.o.o.$.#XD.F.A.<.&.! &.=.-.*.*.-.Q +.a.p.9.r.9.r.r.y.y.r.r.r.e.r.p.r.lX{ r m G *.1.P 6.lXlXjX8.W Q 5.lXe.d.BXVXAXAXAXVXBXs.w.y.q.r.q.jX;./ _ ' / W U 6.lXp.e.9.e.e.r.e.r.e.u.u.e.y.r.r.r.r.q.w.zXVXVXJXO.! [ 7.p.p.d.mXVXSXVXBXAXAXAXAXVXSX9.y.xX..k.F.Q.Q.K.J.H.H.H.H.H.H.H.H.H.H.H.H.H.H.H.H.H.H.H.H.H.H.H.H.H.H.H.H.H.H.H.H.H.H.H.H.H.H.H.H.H.H.H.H.H.H.H.H.H.H.H.H.H.H.H.H.H.H.H.H.H.H.H.H.H.H.H.H.H.H.H.H.H.H.H.H.H.H.H.H.H.H.H.H.H.H.H.H.H.H.H.H.H.H.H.H.H.H.H.H.H.H.H.H.H.H.H.H.H.H.H.H.H.H.H.H.H.H.H.H.H.H.H.H.H.H.H.H.H.H.H.H.H.H.H.H.H.H.H.H.H.H.H.H.H.H.H.H.H.H.H.H.H.H.H.H.H.H.H.H.H.H.H.H.H.H.H.H.H.H.H.H.H.H.H.H.H.H.H.H.H.H.H.H.H.H.H.H.H.H.H.H.H.H.H.H.H.H.H.H.H.H.H.H.H.H.H.H.H.H.H.H.H.H.H.H.H.H.H.H.H.H.H.H.H.H.H.H.H.H.H.H.H.H.H.H.H.H.H.H.H.H.H.H.H.H.H.H.H.H.H.H.H.H.H.H.H.H.H.H.H.H.H.H.H.H.H.H.H.H.H.H.H.H.H.H.H.H.H.H.H.H.H.H.H.H.H.H.H.H.H.H.H.H.H.H.H.H.H.H.H.H.H.H.H.H.H.H.H.H.H.H.H.H.H.H.H.H.H.H.H.H.H.H.H.H.H.H.H.H.H.H.H.H.H.H.H.H.H.H.H.H.H.H.H.H.H.H.H.H.H.H.H.H.H.H.H.H.H.H.H.H.H.H.H.H.H.H.H.H.H.H.H.H.H.H.H.H.H.H.H.H.H.H.H.H.H.H.H.H.H.H.H.H.H.H.H.H.H.H.H.H.H.H.H.H.H.H.H.H.H.H.H.H.H.H.H.H.H.H.H.H.H.H.H.H.H.H.H.H.H.H.H.H.H.H.H.H.H.H.H.H.H.H.H.H.H.H.H.H.H.H.H.H.H.H.H.H.H.H.H.H.H.H.H.H.H.H.H.H.H.H.H.H.H.H.H.H.H.H.H.H.H.H.H.H.H.H.H.H.H.H.H.H.H.H.H.H.H.H.H.H.H.H.H.H.H.H.H.H.H.H.H.H.",
"H.H.H.H.H.H.H.H.H.H.H.H.H.H.H.H.H.H.H.H.H.H.H.H.H.H.H.H.H.H.H.H.H.H.H.H.H.H.H.H.H.H.H.H.H.H.H.H.H.H.H.H.H.H.H.H.H.H.H.H.H.H.H.H.H.H.H.H.H.H.H.H.H.H.H.H.H.H.H.H.H.H.H.H.H.H.H.H.H.H.H.H.H.H.H.H.H.H.H.H.H.H.H.H.H.H.H.H.H.H.H.H.H.H.H.H.H.H.H.H.H.H.H.H.H.H.H.H.H.H.H.H.H.H.H.H.H.H.H.H.H.H.H.H.H.H.H.H.H.H.H.H.H.H.H.H.H.H.H.H.H.H.H.H.H.H.H.H.H.H.H.H.H.H.H.H.H.H.H.H.H.H.H.H.H.H.H.H.H.H.H.G.U.L.Q.W.W.M.@X4X@.o.*.*.@.o.o.@.#._ ) :.R.Q.W.U.R [ ~ Q / / Q ` ' Y ;.jXy.q.y.y.e.e.r.r.q.q.q.q.6.q.9.u.{ 0 r t ,.3.P 6.jXe.jXP W Y +.zXr.w.VXVXZXZXVXZXCXs.+.q.e.a.p.lX;.W 2.1.! ! Y 6.lX9.u.u.u.y.r.r.e.e.r.e.r.r.y.u.u.u.r.9.zXZXVXJXU Y Y ) jXi.d.NXZXVXZXZXVXVXZXZXZXVXd.u.vXA.j.OXW.K.S.S.H.H.H.H.H.H.H.H.H.H.H.H.H.H.H.H.H.H.H.H.H.H.H.H.H.H.H.H.H.H.H.H.H.H.H.H.H.H.H.H.H.H.H.H.H.H.H.H.H.H.H.H.H.H.H.H.H.H.H.H.H.H.H.H.H.H.H.H.H.H.H.H.H.H.H.H.H.H.H.H.H.H.H.H.H.H.H.H.H.H.H.H.H.H.H.H.H.H.H.H.H.H.H.H.H.H.H.H.H.H.H.H.H.H.H.H.H.H.H.H.H.H.H.H.H.H.H.H.H.H.H.H.H.H.H.H.H.H.H.H.H.H.H.H.H.H.H.H.H.H.H.H.H.H.H.H.H.H.H.H.H.H.H.H.H.H.H.H.H.H.H.H.H.H.H.H.H.H.H.H.H.H.H.H.H.H.H.H.H.H.H.H.H.H.H.H.H.H.H.H.H.H.H.H.H.H.H.H.H.H.H.H.H.H.H.H.H.H.H.H.H.H.H.H.H.H.H.H.H.H.H.H.H.H.H.H.H.H.H.H.H.H.H.H.H.H.H.H.H.H.H.H.H.H.H.H.H.H.H.H.H.H.H.H.H.H.H.H.H.H.H.H.H.H.H.H.H.H.H.H.H.H.H.H.H.H.H.H.H.H.H.H.H.H.H.H.H.H.H.H.H.H.H.H.H.H.H.H.H.H.H.H.H.H.H.H.H.H.H.H.H.H.H.H.H.H.H.H.H.H.H.H.H.H.H.H.H.H.H.H.H.H.H.H.H.H.H.H.H.H.H.H.H.H.H.H.H.H.H.H.H.H.H.H.H.H.H.H.H.H.H.H.H.H.H.H.H.H.H.H.H.H.H.H.H.H.H.H.H.H.H.H.H.H.H.H.H.H.H.H.H.H.H.H.H.H.H.H.H.H.H.H.H.H.H.H.H.H.H.H.H.H.H.H.H.H.H.H.H.H.H.H.H.H.H.H.H.H.H.H.H.H.H.H.H.H.H.H.H.H.H.H.H.H.H.H.H.H.H.H.H.H.H.H.H.H.H.H.H.H.H.H.H.H.H.H.H.H.H.H.H.H.H.H.H.H.H.H.H.H.H.H.H.H.H.H.H.H.H.H.H.H.H.H.H.H.H.H.H.H.H.H.H.H.",
"H.H.H.H.H.H.H.H.H.H.H.H.H.H.H.H.H.H.H.H.H.H.H.H.H.H.H.H.H.H.H.H.H.H.H.H.H.H.H.H.H.H.H.H.H.H.H.H.H.H.H.H.H.H.H.H.H.H.H.H.H.H.H.H.H.H.H.H.H.H.H.H.H.H.H.H.H.H.H.H.H.H.H.H.H.H.H.H.H.H.H.H.H.H.H.H.H.H.H.H.H.H.H.H.H.H.H.H.H.H.H.H.H.H.H.H.H.H.H.H.H.H.H.H.H.H.H.H.H.H.H.H.H.H.H.H.H.H.H.H.H.H.H.H.H.H.H.H.H.H.H.H.H.H.H.H.H.H.H.H.H.H.H.H.H.H.H.H.H.H.H.H.H.H.H.L.U.U.H.H.D.L.J.J.P.J.J.J.J.L.H.F.K.G.A.>X+X;XR :.*.=.#._ >./ >.( &.&.( 4XT C C B 4.6.5.5.5.6.5.5.7.+.6.t.y.r.e.r.w.r.r.y.9.zXbXbXbXzXbXnX..D | I K  .D 4.lXe.u.7.+.+.5.5.4.6.kXkXxXkXkXxX4.NXzXnXxXO.6.tXK } K I 6.+.+.q.y.y.y.e.e.y.e.y.e.y.r.e.y.r.e.r.e.e.e.i.zXzXzXa.lX0.w.w.nXzXnXzXzXnXzXnXnXnXbXbXzXzXy.e.jX4...2XIXk.G.G.J.K.H.P.H.G.H.H.L.L.L.L.H.H.H.H.H.H.H.H.H.H.H.H.H.H.H.H.H.H.H.H.H.H.H.H.H.H.H.H.H.H.H.H.H.H.H.H.H.H.H.H.H.H.H.H.H.H.H.H.H.H.H.H.H.H.H.H.H.H.H.H.H.H.H.H.H.H.H.H.H.H.H.H.H.H.H.H.H.H.H.H.H.H.H.H.H.H.H.H.H.H.H.H.H.H.H.H.H.H.H.H.H.H.H.H.H.H.H.H.H.H.H.H.H.H.H.H.H.H.H.H.H.H.H.H.H.H.H.H.H.H.H.H.H.H.H.H.H.H.H.H.H.H.H.H.H.H.H.H.H.H.H.H.H.H.H.H.H.H.H.H.H.H.H.H.H.H.H.H.H.H.H.H.H.H.H.H.H.H.H.H.H.H.H.H.H.H.H.H.H.H.H.H.H.H.H.H.H.H.H.H.H.H.H.H.H.H.H.H.H.H.H.H.H.H.H.H.H.H.H.H.H.H.H.H.H.H.H.H.H.H.H.H.H.H.H.H.H.H.H.H.H.H.H.H.H.H.H.H.H.H.H.H.H.H.H.H.H.H.H.H.H.H.H.H.H.H.H.H.H.H.H.H.H.H.H.H.H.H.H.H.H.H.H.H.H.H.H.H.H.H.H.H.H.H.H.H.H.H.H.H.H.H.H.H.H.H.H.H.H.H.H.H.H.H.H.H.H.H.H.H.H.H.H.H.H.H.H.H.H.H.H.H.H.H.H.H.H.H.H.H.H.H.H.H.H.H.H.H.H.H.H.H.H.H.H.H.H.H.H.H.H.H.H.H.H.H.H.H.H.H.H.H.H.H.H.H.H.H.H.H.H.H.H.H.H.H.H.H.H.H.H.H.H.H.H.H.H.H.H.H.H.H.H.H.H.H.H.H.H.H.H.H.H.H.H.H.H.H.H.H.H.H.H.H.H.H.H.H.H.H.H.H.H.H.H.H.H.H.H.H.H.H.H.H.H.H.H.H.H.H.H.H.H.H.H.H.H.H.H.H.H.H.H.H.H.H.H.H.H.H.H.H.H.H.H.H.H.H.H.H.H.H.H.H.H.H.H.H.H.H.H.H.H.H.H.H.H.H.H.H.H.H.",
"H.H.H.H.H.H.H.H.H.H.H.H.H.H.H.H.H.H.H.H.H.H.H.H.H.H.H.H.H.H.H.H.H.H.H.H.H.H.H.H.H.H.H.H.H.H.H.H.H.H.H.H.H.H.H.H.H.H.H.H.H.H.H.H.H.H.H.H.H.H.H.H.H.H.H.H.H.H.H.H.H.H.H.H.H.H.H.H.H.H.H.H.H.H.H.H.H.H.H.H.H.H.H.H.H.H.H.H.H.H.H.H.H.H.H.H.H.H.H.H.H.H.H.H.H.H.H.H.H.H.H.H.H.H.H.H.H.H.H.H.H.H.H.H.H.H.H.H.H.H.H.H.H.H.H.H.H.H.H.H.H.H.H.H.H.H.H.H.H.H.H.H.H.H.H.J.J.Q.Q.Q.P.P.Q.J.L.L.J.H.L.U.L.G.L.C.T :.^ ) ! ) ! ) _ *.2.o.-.o.! ) ! @.K q y y lXa.a.a.a.p.p.p.a.a.a.y.y.y.y.r.e.r.y.y.d.mXZXVXZXCXZXJXkXQ 3.-.w y u ..a.w.a.a.a.lX6.W Q Q ~ Y Y Y ~ ~ F NXCXJXxXY ~ -.w r q M xXa.a.a.a.y.y.w.w.y.e.y.e.y.e.r.e.e.e.e.e.y.e.r.9.q.q.w.BXCXZXZXZXVXBXs.9.q.6.q.q.q.q.q.q.q.e.9.p.p.w.xXvXA C.T.L.G.H.P.H.G.L.H.L.L.L.L.H.H.H.H.H.H.H.H.H.H.H.H.H.H.H.H.H.H.H.H.H.H.H.H.H.H.H.H.H.H.H.H.H.H.H.H.H.H.H.H.H.H.H.H.H.H.H.H.H.H.H.H.H.H.H.H.H.H.H.H.H.H.H.H.H.H.H.H.H.H.H.H.H.H.H.H.H.H.H.H.H.H.H.H.H.H.H.H.H.H.H.H.H.H.H.H.H.H.H.H.H.H.H.H.H.H.H.H.H.H.H.H.H.H.H.H.H.H.H.H.H.H.H.H.H.H.H.H.H.H.H.H.H.H.H.H.H.H.H.H.H.H.H.H.H.H.H.H.H.H.H.H.H.H.H.H.H.H.H.H.H.H.H.H.H.H.H.H.H.H.H.H.H.H.H.H.H.H.H.H.H.H.H.H.H.H.H.H.H.H.H.H.H.H.H.H.H.H.H.H.H.H.H.H.H.H.H.H.H.H.H.H.H.H.H.H.H.H.H.H.H.H.H.H.H.H.H.H.H.H.H.H.H.H.H.H.H.H.H.H.H.H.H.H.H.H.H.H.H.H.H.H.H.H.H.H.H.H.H.H.H.H.H.H.H.H.H.H.H.H.H.H.H.H.H.H.H.H.H.H.H.H.H.H.H.H.H.H.H.H.H.H.H.H.H.H.H.H.H.H.H.H.H.H.H.H.H.H.H.H.H.H.H.H.H.H.H.H.H.H.H.H.H.H.H.H.H.H.H.H.H.H.H.H.H.H.H.H.H.H.H.H.H.H.H.H.H.H.H.H.H.H.H.H.H.H.H.H.H.H.H.H.H.H.H.H.H.H.H.H.H.H.H.H.H.H.H.H.H.H.H.H.H.H.H.H.H.H.H.H.H.H.H.H.H.H.H.H.H.H.H.H.H.H.H.H.H.H.H.H.H.H.H.H.H.H.H.H.H.H.H.H.H.H.H.H.H.H.H.H.H.H.H.H.H.H.H.H.H.H.H.H.H.H.H.H.H.H.H.H.H.H.H.H.H.H.H.H.H.H.H.H.H.H.H.H.H.H.H.H.H.H.H.H.H.H.H.H.H.H.H.H.H.H.H.H.H.H.H.H.H.H.H.H.H.H.H.H.H.H.H.H.",
"H.H.H.H.H.H.H.H.H.H.H.H.H.H.H.H.H.H.H.H.H.H.H.H.H.H.H.H.H.H.H.H.H.H.H.H.H.H.H.H.H.H.H.H.H.H.H.H.H.H.H.H.H.H.H.H.H.H.H.H.H.H.H.H.H.H.H.H.H.H.H.H.H.H.H.H.H.H.H.H.H.H.H.H.H.H.H.H.H.H.H.H.H.H.H.H.H.H.H.H.H.H.H.H.H.H.H.H.H.H.H.H.H.H.H.H.H.H.H.H.H.H.H.H.H.H.H.H.H.H.H.H.H.H.H.H.H.H.H.H.H.H.H.H.H.H.H.H.H.H.H.H.H.H.H.H.H.H.H.H.H.H.H.H.H.H.H.H.H.H.H.H.H.H.H.H.H.H.J.J.L.U.P.U.D.D.P.P.U.U.Q.Q.W.G.+X3X>.1.! &.=.#.#./ _ W _ _ ` =.=.,.I v x y jXe.w.r.r.w.w.w.p.r.w.e.q.e.y.q.y.r.r.e.d.nXZXVXAXAXVXJXtXY ' :.c r 0 ..xXr.r.9.w.a.5.P _ 2.` ] 2.2.] Q F NXJXZXHX| W ,.H l r { xXw.q.r.9.9.e.r.y.y.r.y.q.r.e.y.e.r.r.r.y.r.y.y.r.e.9.w.BXVXBXAXVXVXBXs.d.y.y.y.a.a.u.y.u.y.p.p.9.9.y.lXvXV M.K.P.G.H.P.H.G.L.H.L.L.L.L.H.H.H.H.H.H.H.H.H.H.H.H.H.H.H.H.H.H.H.H.H.H.H.H.H.H.H.H.H.H.H.H.H.H.H.H.H.H.H.H.H.H.H.H.H.H.H.H.H.H.H.H.H.H.H.H.H.H.H.H.H.H.H.H.H.H.H.H.H.H.H.H.H.H.H.H.H.H.H.H.H.H.H.H.H.H.H.H.H.H.H.H.H.H.H.H.H.H.H.H.H.H.H.H.H.H.H.H.H.H.H.H.H.H.H.H.H.H.H.H.H.H.H.H.H.H.H.H.H.H.H.H.H.H.H.H.H.H.H.H.H.H.H.H.H.H.H.H.H.H.H.H.H.H.H.H.H.H.H.H.H.H.H.H.H.H.H.H.H.H.H.H.H.H.H.H.H.H.H.H.H.H.H.H.H.H.H.H.H.H.H.H.H.H.H.H.H.H.H.H.H.H.H.H.H.H.H.H.H.H.H.H.H.H.H.H.H.H.H.H.H.H.H.H.H.H.H.H.H.H.H.H.H.H.H.H.H.H.H.H.H.H.H.H.H.H.H.H.H.H.H.H.H.H.H.H.H.H.H.H.H.H.H.H.H.H.H.H.H.H.H.H.H.H.H.H.H.H.H.H.H.H.H.H.H.H.H.H.H.H.H.H.H.H.H.H.H.H.H.H.H.H.H.H.H.H.H.H.H.H.H.H.H.H.H.H.H.H.H.H.H.H.H.H.H.H.H.H.H.H.H.H.H.H.H.H.H.H.H.H.H.H.H.H.H.H.H.H.H.H.H.H.H.H.H.H.H.H.H.H.H.H.H.H.H.H.H.H.H.H.H.H.H.H.H.H.H.H.H.H.H.H.H.H.H.H.H.H.H.H.H.H.H.H.H.H.H.H.H.H.H.H.H.H.H.H.H.H.H.H.H.H.H.H.H.H.H.H.H.H.H.H.H.H.H.H.H.H.H.H.H.H.H.H.H.H.H.H.H.H.H.H.H.H.H.H.H.H.H.H.H.H.H.H.H.H.H.H.H.H.H.H.H.H.H.H.H.H.H.H.H.H.H.H.H.H.H.H.H.H.H.H.H.H.H.H.H.H.H.H.H.H.H.H.H.H.H.H.H.H.H.H.",
"H.H.H.H.H.H.H.H.H.H.H.H.H.H.H.H.H.H.H.H.H.H.H.H.H.H.H.H.H.H.H.H.H.H.H.H.H.H.H.H.H.H.H.H.H.H.H.H.H.H.H.H.H.H.H.H.H.H.H.H.H.H.H.H.H.H.H.H.H.H.H.H.H.H.H.H.H.H.H.H.H.H.H.H.H.H.H.H.H.H.H.H.H.H.H.H.H.H.H.H.H.H.H.H.H.H.H.H.H.H.H.H.H.H.H.H.H.H.H.H.H.H.H.H.H.H.H.H.H.H.H.H.H.H.H.H.H.H.H.H.H.H.H.H.H.H.H.H.H.H.H.H.H.H.H.H.H.H.H.H.H.H.H.H.H.H.H.H.H.H.H.H.H.H.H.L.U.U.H.H.H.H.J.K.F.K.B.B.F.S.B.B.G.N.+X;X .$.( 2.( / =.W ( Q ) ( Q W Q R L q q u lXr.p.r.y.a.a.lXu.y.u.a.r.q.e.w.d.d.w.w.s.nXBXBXZXZXCXNX4.Y U I w q w ..jXjXr.a.e.jX5.P W ^ Y Y Y Q @.X.} cXJXCXxX} Q ,.L t w H xXe.9.y.e.e.y.q.e.9.w.y.9.e.9.e.r.y.y.r.r.e.r.r.e.y.r.w.BXVXBXBXBXBXBXs.w.y.e.e.e.e.r.q.e.e.e.r.r.e.y.xXvXA T.K.L.G.H.L.H.H.H.H.H.H.L.L.H.H.H.H.H.H.H.H.H.H.H.H.H.H.H.H.H.H.H.H.H.H.H.H.H.H.H.H.H.H.H.H.H.H.H.H.H.H.H.H.H.H.H.H.H.H.H.H.H.H.H.H.H.H.H.H.H.H.H.H.H.H.H.H.H.H.H.H.H.H.H.H.H.H.H.H.H.H.H.H.H.H.H.H.H.H.H.H.H.H.H.H.H.H.H.H.H.H.H.H.H.H.H.H.H.H.H.H.H.H.H.H.H.H.H.H.H.H.H.H.H.H.H.H.H.H.H.H.H.H.H.H.H.H.H.H.H.H.H.H.H.H.H.H.H.H.H.H.H.H.H.H.H.H.H.H.H.H.H.H.H.H.H.H.H.H.H.H.H.H.H.H.H.H.H.H.H.H.H.H.H.H.H.H.H.H.H.H.H.H.H.H.H.H.H.H.H.H.H.H.H.H.H.H.H.H.H.H.H.H.H.H.H.H.H.H.H.H.H.H.H.H.H.H.H.H.H.H.H.H.H.H.H.H.H.H.H.H.H.H.H.H.H.H.H.H.H.H.H.H.H.H.H.H.H.H.H.H.H.H.H.H.H.H.H.H.H.H.H.H.H.H.H.H.H.H.H.H.H.H.H.H.H.H.H.H.H.H.H.H.H.H.H.H.H.H.H.H.H.H.H.H.H.H.H.H.H.H.H.H.H.H.H.H.H.H.H.H.H.H.H.H.H.H.H.H.H.H.H.H.H.H.H.H.H.H.H.H.H.H.H.H.H.H.H.H.H.H.H.H.H.H.H.H.H.H.H.H.H.H.H.H.H.H.H.H.H.H.H.H.H.H.H.H.H.H.H.H.H.H.H.H.H.H.H.H.H.H.H.H.H.H.H.H.H.H.H.H.H.H.H.H.H.H.H.H.H.H.H.H.H.H.H.H.H.H.H.H.H.H.H.H.H.H.H.H.H.H.H.H.H.H.H.H.H.H.H.H.H.H.H.H.H.H.H.H.H.H.H.H.H.H.H.H.H.H.H.H.H.H.H.H.H.H.H.H.H.H.H.H.H.H.H.H.H.H.H.H.H.H.H.H.H.H.H.H.H.H.H.H.H.H.H.H.H.H.H.H.H.H.H.H.",
"H.H.H.H.H.H.H.H.H.H.H.H.H.H.H.H.H.H.H.H.H.H.H.H.H.H.H.H.H.H.H.H.H.H.H.H.H.H.H.H.H.H.H.H.H.H.H.H.H.H.H.H.H.H.H.H.H.H.H.H.H.H.H.H.H.H.H.H.H.H.H.H.H.H.H.H.H.H.H.H.H.H.H.H.H.H.H.H.H.H.H.H.H.H.H.H.H.H.H.H.H.H.H.H.H.H.H.H.H.H.H.H.H.H.H.H.H.H.H.H.H.H.H.H.H.H.H.H.H.H.H.H.H.H.H.H.H.H.H.H.H.H.H.H.H.H.H.H.H.H.H.H.H.H.H.H.H.H.H.H.H.H.H.H.H.H.H.H.H.H.H.H.H.H.H.H.H.J.H.H.U.U.U.U.D.D.N.#X3X>.] 2.#.| | L G D Y &.o.;.jXu.u.u.u.e.y.y.r.a.a.a.a.a.u.u.jX5.X.Q P P Q P +.u.u.s.mXBXVXCXBXBXmXs.w.e.w.w.w.s.nXBXCXBXw.u.t.5.;.X.O.t.u.u.u.i.u.lXjXlXjXjXu.u.q.+.X.;.;.P ! ,.G z v H xXe.w.nXBXBXmXs.a.e.bXBXmXBXs.a.e.y.e.e.e.e.e.r.r.a.r.w.BXVXBXBXd.e.a.e.q.r.y.y.r.e.e.y.r.u.u.y.y.u.t.u.kX8.O. .Z.G.G.L.H.H.H.H.H.H.L.L.L.L.H.H.H.H.H.H.H.H.H.H.H.H.H.H.H.H.H.H.H.H.H.H.H.H.H.H.H.H.H.H.H.H.H.H.H.H.H.H.H.H.H.H.H.H.H.H.H.H.H.H.H.H.H.H.H.H.H.H.H.H.H.H.H.H.H.H.H.H.H.H.H.H.H.H.H.H.H.H.H.H.H.H.H.H.H.H.H.H.H.H.H.H.H.H.H.H.H.H.H.H.H.H.H.H.H.H.H.H.H.H.H.H.H.H.H.H.H.H.H.H.H.H.H.H.H.H.H.H.H.H.H.H.H.H.H.H.H.H.H.H.H.H.H.H.H.H.H.H.H.H.H.H.H.H.H.H.H.H.H.H.H.H.H.H.H.H.H.H.H.H.H.H.H.H.H.H.H.H.H.H.H.H.H.H.H.H.H.H.H.H.H.H.H.H.H.H.H.H.H.H.H.H.H.H.H.H.H.H.H.H.H.H.H.H.H.H.H.H.H.H.H.H.H.H.H.H.H.H.H.H.H.H.H.H.H.H.H.H.H.H.H.H.H.H.H.H.H.H.H.H.H.H.H.H.H.H.H.H.H.H.H.H.H.H.H.H.H.H.H.H.H.H.H.H.H.H.H.H.H.H.H.H.H.H.H.H.H.H.H.H.H.H.H.H.H.H.H.H.H.H.H.H.H.H.H.H.H.H.H.H.H.H.H.H.H.H.H.H.H.H.H.H.H.H.H.H.H.H.H.H.H.H.H.H.H.H.H.H.H.H.H.H.H.H.H.H.H.H.H.H.H.H.H.H.H.H.H.H.H.H.H.H.H.H.H.H.H.H.H.H.H.H.H.H.H.H.H.H.H.H.H.H.H.H.H.H.H.H.H.H.H.H.H.H.H.H.H.H.H.H.H.H.H.H.H.H.H.H.H.H.H.H.H.H.H.H.H.H.H.H.H.H.H.H.H.H.H.H.H.H.H.H.H.H.H.H.H.H.H.H.H.H.H.H.H.H.H.H.H.H.H.H.H.H.H.H.H.H.H.H.H.H.H.H.H.H.H.H.H.H.H.H.H.H.H.H.H.H.H.H.H.H.H.H.H.H.H.H.H.H.H.H.H.H.H.H.H.H.H.H.",
"H.H.H.H.H.H.H.H.H.H.H.H.H.H.H.H.H.H.H.H.H.H.H.H.H.H.H.H.H.H.H.H.H.H.H.H.H.H.H.H.H.H.H.H.H.H.H.H.H.H.H.H.H.H.H.H.H.H.H.H.H.H.H.H.H.H.H.H.H.H.H.H.H.H.H.H.H.H.H.H.H.H.H.H.H.H.H.H.H.H.H.H.H.H.H.H.H.H.H.H.H.H.H.H.H.H.H.H.H.H.H.H.H.H.H.H.H.H.H.H.H.H.H.H.H.H.H.H.H.H.H.H.H.H.H.H.H.H.H.H.H.H.H.H.H.H.H.H.H.H.H.H.H.H.H.H.H.H.H.H.H.H.H.H.H.H.H.H.H.H.H.H.H.H.H.H.H.H.S.L.L.L.F.F.F.F.S.A. .&.[ [ ] 1.| v r t I 3.Q O.lXa.p.p.r.p.a.u.r.y.y.y.r.r.9.e.lX5.Q ` >.2.2.W ;.jXe.d.mXZXAXAXAXBXZXs.d.e.y.y.q.w.MXVXVXBXw.a.lX5.~ Y o.jXu.w.p.p.w.9.9.9.r.9.9.a.u.O.Y ` ` ` >.,.m b n H lXw.w.mXZXZXBX0.i.d.mXZXZXBXw.d.r.r.r.r.e.r.r.y.y.y.9.d.BXZXBXnX9.6.q.q.y.y.w.w.y.r.e.e.e.e.r.r.9.w.e.u.jX8.[ -.Z.D.G.U.H.L.H.H.H.H.L.L.L.L.H.H.H.H.H.H.H.H.H.H.H.H.H.H.H.H.H.H.H.H.H.H.H.H.H.H.H.H.H.H.H.H.H.H.H.H.H.H.H.H.H.H.H.H.H.H.H.H.H.H.H.H.H.H.H.H.H.H.H.H.H.H.H.H.H.H.H.H.H.H.H.H.H.H.H.H.H.H.H.H.H.H.H.H.H.H.H.H.H.H.H.H.H.H.H.H.H.H.H.H.H.H.H.H.H.H.H.H.H.H.H.H.H.H.H.H.H.H.H.H.H.H.H.H.H.H.H.H.H.H.H.H.H.H.H.H.H.H.H.H.H.H.H.H.H.H.H.H.H.H.H.H.H.H.H.H.H.H.H.H.H.H.H.H.H.H.H.H.H.H.H.H.H.H.H.H.H.H.H.H.H.H.H.H.H.H.H.H.H.H.H.H.H.H.H.H.H.H.H.H.H.H.H.H.H.H.H.H.H.H.H.H.H.H.H.H.H.H.H.H.H.H.H.H.H.H.H.H.H.H.H.H.H.H.H.H.H.H.H.H.H.H.H.H.H.H.H.H.H.H.H.H.H.H.H.H.H.H.H.H.H.H.H.H.H.H.H.H.H.H.H.H.H.H.H.H.H.H.H.H.H.H.H.H.H.H.H.H.H.H.H.H.H.H.H.H.H.H.H.H.H.H.H.H.H.H.H.H.H.H.H.H.H.H.H.H.H.H.H.H.H.H.H.H.H.H.H.H.H.H.H.H.H.H.H.H.H.H.H.H.H.H.H.H.H.H.H.H.H.H.H.H.H.H.H.H.H.H.H.H.H.H.H.H.H.H.H.H.H.H.H.H.H.H.H.H.H.H.H.H.H.H.H.H.H.H.H.H.H.H.H.H.H.H.H.H.H.H.H.H.H.H.H.H.H.H.H.H.H.H.H.H.H.H.H.H.H.H.H.H.H.H.H.H.H.H.H.H.H.H.H.H.H.H.H.H.H.H.H.H.H.H.H.H.H.H.H.H.H.H.H.H.H.H.H.H.H.H.H.H.H.H.H.H.H.H.H.H.H.H.H.H.H.H.H.H.H.H.H.H.H.H.H.H.H.H.H.H.H.H.H.H.H.H.H.H.H.H.H.H.",
"H.H.H.H.H.H.H.H.H.H.H.H.H.H.H.H.H.H.H.H.H.H.H.H.H.H.H.H.H.H.H.H.H.H.H.H.H.H.H.H.H.H.H.H.H.H.H.H.H.H.H.H.H.H.H.H.H.H.H.H.H.H.H.H.H.H.H.H.H.H.H.H.H.H.H.H.H.H.H.H.H.H.H.H.H.H.H.H.H.H.H.H.H.H.H.H.H.H.H.H.H.H.H.H.H.H.H.H.H.H.H.H.H.H.H.H.H.H.H.H.H.H.H.H.H.H.H.H.H.H.H.H.H.H.H.H.H.H.H.H.H.H.H.H.H.H.H.H.H.H.H.H.H.H.H.H.H.H.H.H.H.H.H.H.H.H.H.H.H.H.H.H.H.H.H.H.H.J.J.J.J.J.Q.Q.Q.K.M.c.R / ~ ~ Y / K 0 q v R >.! o.jXr.q.q.q.u.e.w.9.r.e.u.r.y.a.a.zX5.Q / / / / P O.jXe.w.mXBXZXZXVXBXZXzXw.y.q.r.u.e.MXZXCXZX0.9.u.O.P ^ X.kXu.t.u.y.y.r.r.y.u.e.e.jXjXX.Q ' / ^ ( $.t q q y u.d.d.nXBXCXBXw.y.d.mXZXBXBXd.w.y.r.r.e.r.r.r.y.q.q.q.w.BXZXZXBXw.y.p.y.y.y.r.w.r.w.w.r.p.p.p.p.p.p.a.a.jX} -.:.Z.D.D.U.L.L.J.H.H.H.H.H.L.L.L.L.H.H.H.H.H.H.H.H.H.H.H.H.H.H.H.H.H.H.H.H.H.H.H.H.H.H.H.H.H.H.H.H.H.H.H.H.H.H.H.H.H.H.H.H.H.H.H.H.H.H.H.H.H.H.H.H.H.H.H.H.H.H.H.H.H.H.H.H.H.H.H.H.H.H.H.H.H.H.H.H.H.H.H.H.H.H.H.H.H.H.H.H.H.H.H.H.H.H.H.H.H.H.H.H.H.H.H.H.H.H.H.H.H.H.H.H.H.H.H.H.H.H.H.H.H.H.H.H.H.H.H.H.H.H.H.H.H.H.H.H.H.H.H.H.H.H.H.H.H.H.H.H.H.H.H.H.H.H.H.H.H.H.H.H.H.H.H.H.H.H.H.H.H.H.H.H.H.H.H.H.H.H.H.H.H.H.H.H.H.H.H.H.H.H.H.H.H.H.H.H.H.H.H.H.H.H.H.H.H.H.H.H.H.H.H.H.H.H.H.H.H.H.H.H.H.H.H.H.H.H.H.H.H.H.H.H.H.H.H.H.H.H.H.H.H.H.H.H.H.H.H.H.H.H.H.H.H.H.H.H.H.H.H.H.H.H.H.H.H.H.H.H.H.H.H.H.H.H.H.H.H.H.H.H.H.H.H.H.H.H.H.H.H.H.H.H.H.H.H.H.H.H.H.H.H.H.H.H.H.H.H.H.H.H.H.H.H.H.H.H.H.H.H.H.H.H.H.H.H.H.H.H.H.H.H.H.H.H.H.H.H.H.H.H.H.H.H.H.H.H.H.H.H.H.H.H.H.H.H.H.H.H.H.H.H.H.H.H.H.H.H.H.H.H.H.H.H.H.H.H.H.H.H.H.H.H.H.H.H.H.H.H.H.H.H.H.H.H.H.H.H.H.H.H.H.H.H.H.H.H.H.H.H.H.H.H.H.H.H.H.H.H.H.H.H.H.H.H.H.H.H.H.H.H.H.H.H.H.H.H.H.H.H.H.H.H.H.H.H.H.H.H.H.H.H.H.H.H.H.H.H.H.H.H.H.H.H.H.H.H.H.H.H.H.H.H.H.H.H.H.H.H.H.H.H.H.H.H.H.H.H.H.H.H.H.H.H.H.",
"H.H.H.H.H.H.H.H.H.H.H.H.H.H.H.H.H.H.H.H.H.H.H.H.H.H.H.H.H.H.H.H.H.H.H.H.H.H.H.H.H.H.H.H.H.H.H.H.H.H.H.H.H.H.H.H.H.H.H.H.H.H.H.H.H.H.H.H.H.H.H.H.H.H.H.H.H.H.H.H.H.H.H.H.H.H.H.H.H.H.H.H.H.H.H.H.H.H.H.H.H.H.H.H.H.H.H.H.H.H.H.H.H.H.H.H.H.H.H.H.H.H.H.H.H.H.H.H.H.H.H.H.H.H.H.H.H.H.H.H.H.H.H.H.H.H.H.H.H.H.H.H.H.H.H.H.H.H.H.H.H.H.H.H.H.H.H.H.H.H.H.H.H.H.H.L.L.H.J.K.F.F.D.D.R.Z.Z.&XtXtX6.kX6.kX4.{ } } | R I } lXw.w.p.w.e.u.u.y.r.y.u.r.y.4.+.0.4.;.5.5.;.;.O.6.xXlXs.mXmXmXnXnXnXmXs.i.y.y.y.t.i.s.mXbXnXzXa.nXi.;.3.O.u.r.r.r.e.u.u.r.y.r.e.y.y.u.+.5.;.5.;.1.3.} L H { NXa.s.nXMXMXnXw.y.d.bXmXnXmXs.zXa.a.e.r.r.r.e.w.s.s.zXa.nXnXnXzX9.q.r.e.w.e.y.u.u.u.r.u.y.t.6.6.6.6.6.6.6.8.1.4X#XD.D.D.L.L.J.H.J.J.H.H.L.L.L.L.H.H.H.H.H.H.H.H.H.H.H.H.H.H.H.H.H.H.H.H.H.H.H.H.H.H.H.H.H.H.H.H.H.H.H.H.H.H.H.H.H.H.H.H.H.H.H.H.H.H.H.H.H.H.H.H.H.H.H.H.H.H.H.H.H.H.H.H.H.H.H.H.H.H.H.H.H.H.H.H.H.H.H.H.H.H.H.H.H.H.H.H.H.H.H.H.H.H.H.H.H.H.H.H.H.H.H.H.H.H.H.H.H.H.H.H.H.H.H.H.H.H.H.H.H.H.H.H.H.H.H.H.H.H.H.H.H.H.H.H.H.H.H.H.H.H.H.H.H.H.H.H.H.H.H.H.H.H.H.H.H.H.H.H.H.H.H.H.H.H.H.H.H.H.H.H.H.H.H.H.H.H.H.H.H.H.H.H.H.H.H.H.H.H.H.H.H.H.H.H.H.H.H.H.H.H.H.H.H.H.H.H.H.H.H.H.H.H.H.H.H.H.H.H.H.H.H.H.H.H.H.H.H.H.H.H.H.H.H.H.H.H.H.H.H.H.H.H.H.H.H.H.H.H.H.H.H.H.H.H.H.H.H.H.H.H.H.H.H.H.H.H.H.H.H.H.H.H.H.H.H.H.H.H.H.H.H.H.H.H.H.H.H.H.H.H.H.H.H.H.H.H.H.H.H.H.H.H.H.H.H.H.H.H.H.H.H.H.H.H.H.H.H.H.H.H.H.H.H.H.H.H.H.H.H.H.H.H.H.H.H.H.H.H.H.H.H.H.H.H.H.H.H.H.H.H.H.H.H.H.H.H.H.H.H.H.H.H.H.H.H.H.H.H.H.H.H.H.H.H.H.H.H.H.H.H.H.H.H.H.H.H.H.H.H.H.H.H.H.H.H.H.H.H.H.H.H.H.H.H.H.H.H.H.H.H.H.H.H.H.H.H.H.H.H.H.H.H.H.H.H.H.H.H.H.H.H.H.H.H.H.H.H.H.H.H.H.H.H.H.H.H.H.H.H.H.H.H.H.H.H.H.H.H.H.H.H.H.H.H.H.H.H.H.H.H.H.H.H.H.H.H.H.H.H.H.H.H.H.H.H.H.H.H.H.H.H.H.",
"H.H.H.H.H.H.H.H.H.H.H.H.H.H.H.H.H.H.H.H.H.H.H.H.H.H.H.H.H.H.H.H.H.H.H.H.H.H.H.H.H.H.H.H.H.H.H.H.H.H.H.H.H.H.H.H.H.H.H.H.H.H.H.H.H.H.H.H.H.H.H.H.H.H.H.H.H.H.H.H.H.H.H.H.H.H.H.H.H.H.H.H.H.H.H.H.H.H.H.H.H.H.H.H.H.H.H.H.H.H.H.H.H.H.H.H.H.H.H.H.H.H.H.H.H.H.H.H.H.H.H.H.H.H.H.H.H.H.H.H.H.H.H.H.H.H.H.H.H.H.H.H.H.H.H.H.H.H.H.H.H.H.H.H.H.H.H.H.H.H.H.H.H.H.H.H.J.Q.S.S.H.J.P.l.:.1.8.6.ZXZXZXZXZXZXBXw.s.nX{ u r q xXi.r.y.y.e.9.r.e.r.r.e.u.lXu q 0 { nXp.p.a.a.p.bXVXZXCXs.9.q.6.q.q.q.q.e.e.e.r.e.e.q.q.9.w.CXVXZXmXw.a.a.y.w.w.e.r.r.r.r.r.e.r.y.y.e.a.a.a.a.p.p.zX3.] ] 5.ZXVXJXxXi.6.y.q.e.q.y.q.9.w.BXVXCXzXw.e.p.p.e.w.bXVXVXCXw.9.q.q.y.q.q.r.e.e.y.r.u.e.a.9.u.kXY ' / Q / / / ' ! :.Z.D.D.U.H.F.G.L.S.G.L.L.L.J.J.J.H.L.U.U.G.G.G.G.U.P.J.J.K.J.S.D.H.H.H.H.H.H.H.H.H.H.H.H.H.H.H.H.H.H.H.H.H.H.H.H.H.H.H.H.H.H.H.H.H.H.H.H.H.H.H.H.H.H.H.H.H.H.H.H.H.H.H.H.H.H.H.H.H.H.H.H.H.H.H.H.H.H.H.H.H.H.H.H.H.H.H.H.H.H.H.H.H.H.H.H.H.H.H.H.H.H.H.H.H.H.H.H.H.H.H.H.H.H.H.H.H.H.H.H.H.H.H.H.H.H.H.H.H.H.H.H.H.H.H.H.H.H.H.H.H.H.H.H.H.H.H.H.H.H.H.H.H.H.H.H.H.H.H.H.H.H.H.H.H.H.H.H.H.H.H.H.H.H.H.H.H.H.H.H.H.H.H.H.H.H.H.H.H.H.H.H.H.H.H.H.H.H.H.H.H.H.H.H.H.H.H.H.H.H.H.H.H.H.H.H.H.H.H.H.H.H.H.H.H.H.H.H.H.H.H.H.H.H.H.H.H.H.H.H.H.H.H.H.H.H.H.H.H.H.H.H.H.H.H.H.H.H.H.H.H.H.H.H.H.H.H.H.H.H.H.H.H.H.H.H.H.H.H.H.H.H.H.H.H.H.H.H.H.H.H.H.H.H.H.H.H.H.H.H.H.H.H.H.H.H.H.H.H.H.H.H.H.H.H.H.H.H.H.H.H.H.H.H.H.H.H.H.H.H.H.H.H.H.H.H.H.H.H.H.H.H.H.H.H.H.H.H.H.H.H.H.H.H.H.H.H.H.H.H.H.H.H.H.H.H.H.H.H.H.H.H.H.H.H.H.H.H.H.H.H.H.H.H.H.H.H.H.H.H.H.H.H.H.H.H.H.H.H.H.H.H.H.H.H.H.H.H.H.H.H.H.H.H.H.H.H.H.H.H.H.H.H.H.H.H.H.H.H.H.H.H.H.H.H.H.H.H.H.H.H.H.H.H.H.H.H.H.H.H.H.H.H.H.H.H.H.H.H.H.H.H.H.H.H.H.H.H.H.H.H.H.H.H.H.H.H.H.H.H.H.H.H.H.H.H.H.H.H.H.H.H.H.H.",
"H.H.H.H.H.H.H.H.H.H.H.H.H.H.H.H.H.H.H.H.H.H.H.H.H.H.H.H.H.H.H.H.H.H.H.H.H.H.H.H.H.H.H.H.H.H.H.H.H.H.H.H.H.H.H.H.H.H.H.H.H.H.H.H.H.H.H.H.H.H.H.H.H.H.H.H.H.H.H.H.H.H.H.H.H.H.H.H.H.H.H.H.H.H.H.H.H.H.H.H.H.H.H.H.H.H.H.H.H.H.H.H.H.H.H.H.H.H.H.H.H.H.H.H.H.H.H.H.H.H.H.H.H.H.H.H.H.H.H.H.H.H.H.H.H.H.H.H.H.H.H.H.H.H.H.H.H.H.H.H.H.H.H.H.H.H.H.H.H.H.H.H.H.H.H.H.F.J.S.H.Q.Q.Q.k.;X6XY 6.CXBXmXSXBXBXnXd.w.lX{ 0 z t xXp.r.r.9.a.y.u.r.r.r.9.p.s.y l 0 { xXw.e.e.r.d.zXBXBXBXw.9.y.y.y.r.e.e.e.e.r.y.r.y.y.e.w.s.VXVXVXbXw.y.r.q.y.y.y.y.r.r.r.r.y.y.r.q.q.e.r.r.e.q.r.u.-.Q Q $.CXVXZXs.9.q.q.a.y.y.r.q.q.w.CXBXZXbXe.e.r.r.y.w.bXZXVXZXw.9.r.y.r.w.r.y.e.e.y.e.y.e.y.r.lXt.P ( =.` ) &.) ( ! :.Z.D.U.Q.K.K.Q.Q.P.Q.I.U.S.S.G.S.H.J.P.P.H.J.F.H.H.L.H.H.H.H.L.L.H.H.H.H.H.H.H.H.H.H.H.H.H.H.H.H.H.H.H.H.H.H.H.H.H.H.H.H.H.H.H.H.H.H.H.H.H.H.H.H.H.H.H.H.H.H.H.H.H.H.H.H.H.H.H.H.H.H.H.H.H.H.H.H.H.H.H.H.H.H.H.H.H.H.H.H.H.H.H.H.H.H.H.H.H.H.H.H.H.H.H.H.H.H.H.H.H.H.H.H.H.H.H.H.H.H.H.H.H.H.H.H.H.H.H.H.H.H.H.H.H.H.H.H.H.H.H.H.H.H.H.H.H.H.H.H.H.H.H.H.H.H.H.H.H.H.H.H.H.H.H.H.H.H.H.H.H.H.H.H.H.H.H.H.H.H.H.H.H.H.H.H.H.H.H.H.H.H.H.H.H.H.H.H.H.H.H.H.H.H.H.H.H.H.H.H.H.H.H.H.H.H.H.H.H.H.H.H.H.H.H.H.H.H.H.H.H.H.H.H.H.H.H.H.H.H.H.H.H.H.H.H.H.H.H.H.H.H.H.H.H.H.H.H.H.H.H.H.H.H.H.H.H.H.H.H.H.H.H.H.H.H.H.H.H.H.H.H.H.H.H.H.H.H.H.H.H.H.H.H.H.H.H.H.H.H.H.H.H.H.H.H.H.H.H.H.H.H.H.H.H.H.H.H.H.H.H.H.H.H.H.H.H.H.H.H.H.H.H.H.H.H.H.H.H.H.H.H.H.H.H.H.H.H.H.H.H.H.H.H.H.H.H.H.H.H.H.H.H.H.H.H.H.H.H.H.H.H.H.H.H.H.H.H.H.H.H.H.H.H.H.H.H.H.H.H.H.H.H.H.H.H.H.H.H.H.H.H.H.H.H.H.H.H.H.H.H.H.H.H.H.H.H.H.H.H.H.H.H.H.H.H.H.H.H.H.H.H.H.H.H.H.H.H.H.H.H.H.H.H.H.H.H.H.H.H.H.H.H.H.H.H.H.H.H.H.H.H.H.H.H.H.H.H.H.H.H.H.H.H.H.H.H.H.H.H.H.H.H.H.H.H.H.H.H.H.H.H.H.H.H.H.",
"H.H.H.H.H.H.H.H.H.H.H.H.H.H.H.H.H.H.H.H.H.H.H.H.H.H.H.H.H.H.H.H.H.H.H.H.H.H.H.H.H.H.H.H.H.H.H.H.H.H.H.H.H.H.H.H.H.H.H.H.H.H.H.H.H.H.H.H.H.H.H.H.H.H.H.H.H.H.H.H.H.H.H.H.H.H.H.H.H.H.H.H.H.H.H.H.H.H.H.H.H.H.H.H.H.H.H.H.H.H.H.H.H.H.H.H.H.H.H.H.H.H.H.H.H.H.H.H.H.H.H.H.H.H.H.H.H.H.H.H.H.H.H.H.H.H.H.H.H.H.H.H.H.H.H.H.H.H.H.H.H.H.H.H.H.H.H.H.H.H.H.H.H.H.H.P.U.U.K.Q.K.J.H.k.T ' Y ,.NXBXBXVXBXCXmXw.y.kX{ q u D u.zXa.zXe.r.r.q.e.a.y.u.lXxXy z q } lXw.e.r.r.9.zXBXBXBXs.i.9.q.9.9.r.e.q.r.q.r.e.e.r.r.e.s.CXBXBXzXw.r.9.y.q.q.q.w.w.w.9.9.9.9.9.9.r.e.q.y.y.e.y.u.;.Q | } JXJXNXzXw.a.9.e.r.e.w.w.r.y.BXBXBXbXe.e.q.y.y.e.nXBXBXCXs.e.y.y.e.e.y.r.w.e.y.y.p.a.u.u.lX6.X.Q ( / Q Q Q ! ! R R.B.B.Q.B.B.Q.B.K.K.K.K.J.Q.Q.Q.H.G.U.G.J.J.K.J.F.H.L.L.H.H.J.J.H.H.H.H.H.H.H.H.H.H.H.H.H.H.H.H.H.H.H.H.H.H.H.H.H.H.H.H.H.H.H.H.H.H.H.H.H.H.H.H.H.H.H.H.H.H.H.H.H.H.H.H.H.H.H.H.H.H.H.H.H.H.H.H.H.H.H.H.H.H.H.H.H.H.H.H.H.H.H.H.H.H.H.H.H.H.H.H.H.H.H.H.H.H.H.H.H.H.H.H.H.H.H.H.H.H.H.H.H.H.H.H.H.H.H.H.H.H.H.H.H.H.H.H.H.H.H.H.H.H.H.H.H.H.H.H.H.H.H.H.H.H.H.H.H.H.H.H.H.H.H.H.H.H.H.H.H.H.H.H.H.H.H.H.H.H.H.H.H.H.H.H.H.H.H.H.H.H.H.H.H.H.H.H.H.H.H.H.H.H.H.H.H.H.H.H.H.H.H.H.H.H.H.H.H.H.H.H.H.H.H.H.H.H.H.H.H.H.H.H.H.H.H.H.H.H.H.H.H.H.H.H.H.H.H.H.H.H.H.H.H.H.H.H.H.H.H.H.H.H.H.H.H.H.H.H.H.H.H.H.H.H.H.H.H.H.H.H.H.H.H.H.H.H.H.H.H.H.H.H.H.H.H.H.H.H.H.H.H.H.H.H.H.H.H.H.H.H.H.H.H.H.H.H.H.H.H.H.H.H.H.H.H.H.H.H.H.H.H.H.H.H.H.H.H.H.H.H.H.H.H.H.H.H.H.H.H.H.H.H.H.H.H.H.H.H.H.H.H.H.H.H.H.H.H.H.H.H.H.H.H.H.H.H.H.H.H.H.H.H.H.H.H.H.H.H.H.H.H.H.H.H.H.H.H.H.H.H.H.H.H.H.H.H.H.H.H.H.H.H.H.H.H.H.H.H.H.H.H.H.H.H.H.H.H.H.H.H.H.H.H.H.H.H.H.H.H.H.H.H.H.H.H.H.H.H.H.H.H.H.H.H.H.H.H.H.H.H.H.H.H.H.H.H.H.H.H.H.H.H.H.H.H.H.H.H.H.H.H.H.H.H.H.H.H.H.H.H.H.H.H.H.",
"H.H.H.H.H.H.H.H.H.H.H.H.H.H.H.H.H.H.H.H.H.H.H.H.H.H.H.H.H.H.H.H.H.H.H.H.H.H.H.H.H.H.H.H.H.H.H.H.H.H.H.H.H.H.H.H.H.H.H.H.H.H.H.H.H.H.H.H.H.H.H.H.H.H.H.H.H.H.H.H.H.H.H.H.H.H.H.H.H.H.H.H.H.H.H.H.H.H.H.H.H.H.H.H.H.H.H.H.H.H.H.H.H.H.H.H.H.H.H.H.H.H.H.H.H.H.H.H.H.H.H.H.H.H.H.H.H.H.H.H.H.H.H.H.H.H.H.H.H.H.H.H.H.H.H.H.H.H.H.H.H.H.H.H.H.H.H.H.H.H.H.H.H.H.H.L.U.S.G.D.+X;X .K NXCXnXNXZXVXBXBXAXBXmXd.e.lXi.0.kX0.D D w 4.u.y.a.q.e.u.} t D G | | U ;.lX9.r.a.e.d.s.BXBXZXmXmXBXCXBXmXmXzXw.y.r.r.e.w.r.r.e.w.w.s.a.e.e.y.s.mXmXBXBXBXSXSXmXmXBXBXBXBXBXs.w.a.r.e.y.u.i.t.t.0.y M y hXmXBXmXy.u.w.nXmXmXnXs.s.zXw.e.r.r.r.e.w.y.a.s.zXe.y.r.e.e.e.r.e.e.e.y.y.r.y.+.O.O.7.t.t.t.u.u.u.e.e.t.jX3.Q W -.W @.:.I G B V C.C.D.D.D.S.L.G.G.S.S.J.J.H.H.H.L.S.H.H.H.H.H.H.H.H.H.H.H.H.H.H.H.H.H.H.H.H.H.H.H.H.H.H.H.H.H.H.H.H.H.H.H.H.H.H.H.H.H.H.H.H.H.H.H.H.H.H.H.H.H.H.H.H.H.H.H.H.H.H.H.H.H.H.H.H.H.H.H.H.H.H.H.H.H.H.H.H.H.H.H.H.H.H.H.H.H.H.H.H.H.H.H.H.H.H.H.H.H.H.H.H.H.H.H.H.H.H.H.H.H.H.H.H.H.H.H.H.H.H.H.H.H.H.H.H.H.H.H.H.H.H.H.H.H.H.H.H.H.H.H.H.H.H.H.H.H.H.H.H.H.H.H.H.H.H.H.H.H.H.H.H.H.H.H.H.H.H.H.H.H.H.H.H.H.H.H.H.H.H.H.H.H.H.H.H.H.H.H.H.H.H.H.H.H.H.H.H.H.H.H.H.H.H.H.H.H.H.H.H.H.H.H.H.H.H.H.H.H.H.H.H.H.H.H.H.H.H.H.H.H.H.H.H.H.H.H.H.H.H.H.H.H.H.H.H.H.H.H.H.H.H.H.H.H.H.H.H.H.H.H.H.H.H.H.H.H.H.H.H.H.H.H.H.H.H.H.H.H.H.H.H.H.H.H.H.H.H.H.H.H.H.H.H.H.H.H.H.H.H.H.H.H.H.H.H.H.H.H.H.H.H.H.H.H.H.H.H.H.H.H.H.H.H.H.H.H.H.H.H.H.H.H.H.H.H.H.H.H.H.H.H.H.H.H.H.H.H.H.H.H.H.H.H.H.H.H.H.H.H.H.H.H.H.H.H.H.H.H.H.H.H.H.H.H.H.H.H.H.H.H.H.H.H.H.H.H.H.H.H.H.H.H.H.H.H.H.H.H.H.H.H.H.H.H.H.H.H.H.H.H.H.H.H.H.H.H.H.H.H.H.H.H.H.H.H.H.H.H.H.H.H.H.H.H.H.H.H.H.H.H.H.H.H.H.H.H.H.H.H.H.H.H.H.H.H.H.H.H.H.H.H.H.H.H.H.H.H.H.H.H.H.H.H.H.H.H.H.H.H.H.H.H.",
"H.H.H.H.H.H.H.H.H.H.H.H.H.H.H.H.H.H.H.H.H.H.H.H.H.H.H.H.H.H.H.H.H.H.H.H.H.H.H.H.H.H.H.H.H.H.H.H.H.H.H.H.H.H.H.H.H.H.H.H.H.H.H.H.H.H.H.H.H.H.H.H.H.H.H.H.H.H.H.H.H.H.H.H.H.H.H.H.H.H.H.H.H.H.H.H.H.H.H.H.H.H.H.H.H.H.H.H.H.H.H.H.H.H.H.H.H.H.H.H.H.H.H.H.H.H.H.H.H.H.H.H.H.H.H.H.H.H.H.H.H.H.H.H.H.H.H.H.H.H.H.H.H.H.H.H.H.H.H.H.H.H.H.H.H.H.H.H.H.H.H.H.L.L.L.L.U.S.F.D.@X2.1.8.BXVXVXVXVXSXBXCXZXZXmXd.9.a.r.a.a.kXu j 0 ..zX9.r.9.a.lX..0 0 t >.1.&.5.lXr.u.e.y.w.s.BXBXVXVXZXAXVXAXVXZXzXw.y.y.r.r.e.e.y.e.q.e.q.r.q.e.9.w.BXBXVXVXVXVXVXVXVXVXAXAXZXBXs.d.a.e.e.u.u.w.a.lXi.u B + NXZXVXCXd.y.9.BXZXZXBXd.q.e.q.e.y.u.e.e.e.q.q.9.e.q.e.r.e.e.y.r.e.r.y.r.e.y.jX1.Q Q o.jXp.p.p.a.a.p.p.p.a.6.o.o.;.o.1.1.P D l V C.D.U.M.Q.J.J.J.J.G.G.S.G.J.J.H.H.S.S.H.H.H.H.H.H.H.H.H.H.H.H.H.H.H.H.H.H.H.H.H.H.H.H.H.H.H.H.H.H.H.H.H.H.H.H.H.H.H.H.H.H.H.H.H.H.H.H.H.H.H.H.H.H.H.H.H.H.H.H.H.H.H.H.H.H.H.H.H.H.H.H.H.H.H.H.H.H.H.H.H.H.H.H.H.H.H.H.H.H.H.H.H.H.H.H.H.H.H.H.H.H.H.H.H.H.H.H.H.H.H.H.H.H.H.H.H.H.H.H.H.H.H.H.H.H.H.H.H.H.H.H.H.H.H.H.H.H.H.H.H.H.H.H.H.H.H.H.H.H.H.H.H.H.H.H.H.H.H.H.H.H.H.H.H.H.H.H.H.H.H.H.H.H.H.H.H.H.H.H.H.H.H.H.H.H.H.H.H.H.H.H.H.H.H.H.H.H.H.H.H.H.H.H.H.H.H.H.H.H.H.H.H.H.H.H.H.H.H.H.H.H.H.H.H.H.H.H.H.H.H.H.H.H.H.H.H.H.H.H.H.H.H.H.H.H.H.H.H.H.H.H.H.H.H.H.H.H.H.H.H.H.H.H.H.H.H.H.H.H.H.H.H.H.H.H.H.H.H.H.H.H.H.H.H.H.H.H.H.H.H.H.H.H.H.H.H.H.H.H.H.H.H.H.H.H.H.H.H.H.H.H.H.H.H.H.H.H.H.H.H.H.H.H.H.H.H.H.H.H.H.H.H.H.H.H.H.H.H.H.H.H.H.H.H.H.H.H.H.H.H.H.H.H.H.H.H.H.H.H.H.H.H.H.H.H.H.H.H.H.H.H.H.H.H.H.H.H.H.H.H.H.H.H.H.H.H.H.H.H.H.H.H.H.H.H.H.H.H.H.H.H.H.H.H.H.H.H.H.H.H.H.H.H.H.H.H.H.H.H.H.H.H.H.H.H.H.H.H.H.H.H.H.H.H.H.H.H.H.H.H.H.H.H.H.H.H.H.H.H.H.H.H.H.H.H.H.H.H.H.H.H.H.H.H.H.H.H.H.H.H.H.H.H.H.H.H.H.H.H.H.H.H.H.",
"H.H.H.H.H.H.H.H.H.H.H.H.H.H.H.H.H.H.H.H.H.H.H.H.H.H.H.H.H.H.H.H.H.H.H.H.H.H.H.H.H.H.H.H.H.H.H.H.H.H.H.H.H.H.H.H.H.H.H.H.H.H.H.H.H.H.H.H.H.H.H.H.H.H.H.H.H.H.H.H.H.H.H.H.H.H.H.H.H.H.H.H.H.H.H.H.H.H.H.H.H.H.H.H.H.H.H.H.H.H.H.H.H.H.H.H.H.H.H.H.H.H.H.H.H.H.H.H.H.H.H.H.H.H.H.H.H.H.H.H.H.H.H.H.H.H.H.H.H.H.H.H.H.H.H.H.H.H.H.H.H.H.H.H.H.H.H.H.H.H.H.H.L.L.H.J.M.Q.W.j.x.;X/ F NXCXNXBXBXBXVXVXSXBXnXw.i.y.9.q.a.kXu j 0 4.nXp.p.r.a.lX..r r t R ~ ~ ;.jXu.y.e.y.e.zXCXBXBXSXBXBXBXBXBXBXa.+.q.q.q.q.e.e.r.r.e.y.r.y.r.y.w.s.CXBXVXVXVXVXVXVXVXVXVXVXZXBXs.9.q.r.e.u.e.w.w.a.i.u B + cXJXVXBXd.q.+.nXAXVXVXd.a.y.q.r.y.e.e.r.e.y.y.y.y.r.r.e.e.e.y.r.y.y.e.q.e.9.jX-./ / -.jXu.e.e.q.6.q.q.e.jX;.Q Q / Q / / L q k V C.S.J.W.W.K.Q.Q.Q.Q.J.L.S.H.J.J.F.H.L.L.U.L.H.H.H.H.H.H.H.H.H.H.H.H.H.H.H.H.H.H.H.H.H.H.H.H.H.H.H.H.H.H.H.H.H.H.H.H.H.H.H.H.H.H.H.H.H.H.H.H.H.H.H.H.H.H.H.H.H.H.H.H.H.H.H.H.H.H.H.H.H.H.H.H.H.H.H.H.H.H.H.H.H.H.H.H.H.H.H.H.H.H.H.H.H.H.H.H.H.H.H.H.H.H.H.H.H.H.H.H.H.H.H.H.H.H.H.H.H.H.H.H.H.H.H.H.H.H.H.H.H.H.H.H.H.H.H.H.H.H.H.H.H.H.H.H.H.H.H.H.H.H.H.H.H.H.H.H.H.H.H.H.H.H.H.H.H.H.H.H.H.H.H.H.H.H.H.H.H.H.H.H.H.H.H.H.H.H.H.H.H.H.H.H.H.H.H.H.H.H.H.H.H.H.H.H.H.H.H.H.H.H.H.H.H.H.H.H.H.H.H.H.H.H.H.H.H.H.H.H.H.H.H.H.H.H.H.H.H.H.H.H.H.H.H.H.H.H.H.H.H.H.H.H.H.H.H.H.H.H.H.H.H.H.H.H.H.H.H.H.H.H.H.H.H.H.H.H.H.H.H.H.H.H.H.H.H.H.H.H.H.H.H.H.H.H.H.H.H.H.H.H.H.H.H.H.H.H.H.H.H.H.H.H.H.H.H.H.H.H.H.H.H.H.H.H.H.H.H.H.H.H.H.H.H.H.H.H.H.H.H.H.H.H.H.H.H.H.H.H.H.H.H.H.H.H.H.H.H.H.H.H.H.H.H.H.H.H.H.H.H.H.H.H.H.H.H.H.H.H.H.H.H.H.H.H.H.H.H.H.H.H.H.H.H.H.H.H.H.H.H.H.H.H.H.H.H.H.H.H.H.H.H.H.H.H.H.H.H.H.H.H.H.H.H.H.H.H.H.H.H.H.H.H.H.H.H.H.H.H.H.H.H.H.H.H.H.H.H.H.H.H.H.H.H.H.H.H.H.H.H.H.H.H.H.H.H.H.H.H.H.H.H.H.H.H.H.H.H.H.H.H.H.",
"H.H.H.H.H.H.H.H.H.H.H.H.H.H.H.H.H.H.H.H.H.H.H.H.H.H.H.H.H.H.H.H.H.H.H.H.H.H.H.H.H.H.H.H.H.H.H.H.H.H.H.H.H.H.H.H.H.H.H.H.H.H.H.H.H.H.H.H.H.H.H.H.H.H.H.H.H.H.H.H.H.H.H.H.H.H.H.H.H.H.H.H.H.H.H.H.H.H.H.H.H.H.H.H.H.H.H.H.H.H.H.H.H.H.H.H.H.H.H.H.H.H.H.H.H.H.H.H.H.H.H.H.H.H.H.H.H.H.H.H.H.H.H.H.H.H.H.H.H.H.H.H.H.H.H.H.H.H.H.H.H.H.H.H.H.H.H.H.H.H.H.H.L.L.L.H.S.T.Z.C  .tX,.} CXBXBXBXBXSXSXSXBXBXmXs.lXlXr.9.r.i.D { { ..4.0.0.0.0.4...K L D 4.;.;.5.jXy.y.w.w.d.s.ZXBXAXBXVXBXBXBXBXBXbXs.zXs.s.s.a.y.e.e.y.y.w.y.e.e.r.w.nXmXmXmXmXmXmXmXmXmXmXmXmXnXzXs.s.a.q.y.e.e.w.u.u.y { { hXvXvX0.xXs.s.nXmXnXmXw.e.y.r.e.y.e.e.r.y.e.e.r.r.r.e.e.y.r.r.r.y.y.e.y.zXlXxX+.O.O.7.u.r.r.a.a.a.p.w.w.lX5.;.;.;.;.;.;.| K T T C b.R.R.k.l.C.D.J.Q.J.H.L.H.H.H.H.H.L.P.P.L.H.H.H.H.H.H.H.H.H.H.H.H.H.H.H.H.H.H.H.H.H.H.H.H.H.H.H.H.H.H.H.H.H.H.H.H.H.H.H.H.H.H.H.H.H.H.H.H.H.H.H.H.H.H.H.H.H.H.H.H.H.H.H.H.H.H.H.H.H.H.H.H.H.H.H.H.H.H.H.H.H.H.H.H.H.H.H.H.H.H.H.H.H.H.H.H.H.H.H.H.H.H.H.H.H.H.H.H.H.H.H.H.H.H.H.H.H.H.H.H.H.H.H.H.H.H.H.H.H.H.H.H.H.H.H.H.H.H.H.H.H.H.H.H.H.H.H.H.H.H.H.H.H.H.H.H.H.H.H.H.H.H.H.H.H.H.H.H.H.H.H.H.H.H.H.H.H.H.H.H.H.H.H.H.H.H.H.H.H.H.H.H.H.H.H.H.H.H.H.H.H.H.H.H.H.H.H.H.H.H.H.H.H.H.H.H.H.H.H.H.H.H.H.H.H.H.H.H.H.H.H.H.H.H.H.H.H.H.H.H.H.H.H.H.H.H.H.H.H.H.H.H.H.H.H.H.H.H.H.H.H.H.H.H.H.H.H.H.H.H.H.H.H.H.H.H.H.H.H.H.H.H.H.H.H.H.H.H.H.H.H.H.H.H.H.H.H.H.H.H.H.H.H.H.H.H.H.H.H.H.H.H.H.H.H.H.H.H.H.H.H.H.H.H.H.H.H.H.H.H.H.H.H.H.H.H.H.H.H.H.H.H.H.H.H.H.H.H.H.H.H.H.H.H.H.H.H.H.H.H.H.H.H.H.H.H.H.H.H.H.H.H.H.H.H.H.H.H.H.H.H.H.H.H.H.H.H.H.H.H.H.H.H.H.H.H.H.H.H.H.H.H.H.H.H.H.H.H.H.H.H.H.H.H.H.H.H.H.H.H.H.H.H.H.H.H.H.H.H.H.H.H.H.H.H.H.H.H.H.H.H.H.H.H.H.H.H.H.H.H.H.H.H.H.H.H.H.H.H.H.H.H.H.H.H.H.H.H.H.H.H.H.H.H.H.H.H.H.H.H.H.",
"H.H.H.H.H.H.H.H.H.H.H.H.H.H.H.H.H.H.H.H.H.H.H.H.H.H.H.H.H.H.H.H.H.H.H.H.H.H.H.H.H.H.H.H.H.H.H.H.H.H.H.H.H.H.H.H.H.H.H.H.H.H.H.H.H.H.H.H.H.H.H.H.H.H.H.H.H.H.H.H.H.H.H.H.H.H.H.H.H.H.H.H.H.H.H.H.H.H.H.H.H.H.H.H.H.H.H.H.H.H.H.H.H.H.H.H.H.H.H.H.H.H.H.H.H.H.H.H.H.H.H.H.H.H.H.H.H.H.H.H.H.H.H.H.H.H.H.H.H.H.H.H.H.H.H.H.H.H.H.H.H.H.H.H.H.H.H.H.H.H.H.H.L.H.H.D.+X%X>.Q i.CXJXZXBXBXBXCXCXBXBXBXBXVXVXVXZXCXzXw.e.a.a.zXxX..u j 0 q 0 w I :.3.X.lXa.p.r.a.q.u.e.y.w.s.ZXBXBXBXBXBXBXBXBXVXVXVXZXZXZXZXBXzXw.e.y.e.e.y.e.y.y.9.e.q.q.q.q.q.6.6.6.6.q.6.+.w.mXZXZXNXw.w.r.y.q.y.r.a.s.zXD + 7 e JXJXZXs.9.+.r.e.r.r.w.e.y.e.r.y.e.y.r.r.e.y.y.e.e.y.r.e.e.w.w.zXCXZXZXs.a.zXy.p.w.d.nXZXZXSXs.i.u.a.a.a.a.a.a.p.p.p.a.y.7.O.o.X.D D B C D.H.J.H.G.U.U.H.H.H.H.J.J.H.H.H.H.H.H.H.H.H.H.H.H.H.H.H.H.H.H.H.H.H.H.H.H.H.H.H.H.H.H.H.H.H.H.H.H.H.H.H.H.H.H.H.H.H.H.H.H.H.H.H.H.H.H.H.H.H.H.H.H.H.H.H.H.H.H.H.H.H.H.H.H.H.H.H.H.H.H.H.H.H.H.H.H.H.H.H.H.H.H.H.H.H.H.H.H.H.H.H.H.H.H.H.H.H.H.H.H.H.H.H.H.H.H.H.H.H.H.H.H.H.H.H.H.H.H.H.H.H.H.H.H.H.H.H.H.H.H.H.H.H.H.H.H.H.H.H.H.H.H.H.H.H.H.H.H.H.H.H.H.H.H.H.H.H.H.H.H.H.H.H.H.H.H.H.H.H.H.H.H.H.H.H.H.H.H.H.H.H.H.H.H.H.H.H.H.H.H.H.H.H.H.H.H.H.H.H.H.H.H.H.H.H.H.H.H.H.H.H.H.H.H.H.H.H.H.H.H.H.H.H.H.H.H.H.H.H.H.H.H.H.H.H.H.H.H.H.H.H.H.H.H.H.H.H.H.H.H.H.H.H.H.H.H.H.H.H.H.H.H.H.H.H.H.H.H.H.H.H.H.H.H.H.H.H.H.H.H.H.H.H.H.H.H.H.H.H.H.H.H.H.H.H.H.H.H.H.H.H.H.H.H.H.H.H.H.H.H.H.H.H.H.H.H.H.H.H.H.H.H.H.H.H.H.H.H.H.H.H.H.H.H.H.H.H.H.H.H.H.H.H.H.H.H.H.H.H.H.H.H.H.H.H.H.H.H.H.H.H.H.H.H.H.H.H.H.H.H.H.H.H.H.H.H.H.H.H.H.H.H.H.H.H.H.H.H.H.H.H.H.H.H.H.H.H.H.H.H.H.H.H.H.H.H.H.H.H.H.H.H.H.H.H.H.H.H.H.H.H.H.H.H.H.H.H.H.H.H.H.H.H.H.H.H.H.H.H.H.H.H.H.H.H.H.H.H.H.H.H.H.H.H.H.H.H.H.H.H.H.H.H.H.H.H.H.H.H.H.H.H.H.H.",
"H.H.H.H.H.H.H.H.H.H.H.H.H.H.H.H.H.H.H.H.H.H.H.H.H.H.H.H.H.H.H.H.H.H.H.H.H.H.H.H.H.H.H.H.H.H.H.H.H.H.H.H.H.H.H.H.H.H.H.H.H.H.H.H.H.H.H.H.H.H.H.H.H.H.H.H.H.H.H.H.H.H.H.H.H.H.H.H.H.H.H.H.H.H.H.H.H.H.H.H.H.H.H.H.H.H.H.H.H.H.H.H.H.H.H.H.H.H.H.H.H.H.H.H.H.H.H.H.H.H.H.H.H.H.H.H.H.H.H.H.H.H.H.H.H.H.P.J.J.J.J.J.L.U.U.L.L.L.L.J.K.J.G.D.G.G.J.K.J.J.G.S.S.S.H.D.c.&X4XY 4.JXmXBXBXBXBXBXBXBXBXBXBXBXBXBXBXCXzXi.e.y.q.u.xX..q N N m M H U =.&.~ jXu.y.e.y.q.u.e.y.9.s.ZXBXCXCXBXBXVXBXSXAXBXBXBXBXSXVXBXs.9.y.r.e.e.y.r.a.a.w.e.e.e.r.r.r.r.e.e.y.e.y.w.w.mXVXBXnXd.e.e.r.a.e.u.w.e.lX{ M e y JXCXVXs.d.p.r.r.r.e.e.y.y.u.u.y.e.e.e.a.e.y.q.y.r.e.u.e.y.r.9.s.ZXBXBXs.9.s.w.e.y.d.mXVXZXmXw.e.y.r.q.r.y.w.r.q.r.e.e.jXX.! 3.R j v B k.L.P.F.J.G.P.M.L.Y.J.J.Q.P.Y.G.J.Q.H.H.H.G.H.H.S.S.H.J.J.J.H.H.H.H.H.H.H.H.H.H.H.H.H.H.H.H.H.H.H.H.H.H.H.H.H.H.H.H.H.H.H.H.H.H.H.H.H.H.H.H.H.H.H.H.H.H.H.H.H.H.H.H.H.H.H.H.H.H.H.H.H.H.H.H.H.H.H.H.H.H.H.H.H.H.H.H.H.H.H.H.H.H.H.H.H.H.H.H.H.H.H.H.H.H.H.H.H.H.H.H.H.H.H.H.H.H.H.H.H.H.H.H.H.H.H.H.H.H.H.H.H.H.H.H.H.H.H.H.H.H.H.H.H.H.H.H.H.H.H.H.H.H.H.H.H.H.H.H.H.H.H.H.H.H.H.H.H.H.H.H.H.H.H.H.H.H.H.H.H.H.H.H.H.H.H.H.H.H.H.H.H.H.H.H.H.H.H.H.H.H.H.H.H.H.H.H.H.H.H.H.H.H.H.H.H.H.H.H.H.H.H.H.H.H.H.H.H.H.H.H.H.H.H.H.H.H.H.H.H.H.H.H.H.H.H.H.H.H.H.H.H.H.H.H.H.H.H.H.H.H.H.H.H.H.H.H.H.H.H.H.H.H.H.H.H.H.H.H.H.H.H.H.H.H.H.H.H.H.H.H.H.H.H.H.H.H.H.H.H.H.H.H.H.H.H.H.H.H.H.H.H.H.H.H.H.H.H.H.H.H.H.H.H.H.H.H.H.H.H.H.H.H.H.H.H.H.H.H.H.H.H.H.H.H.H.H.H.H.H.H.H.H.H.H.H.H.H.H.H.H.H.H.H.H.H.H.H.H.H.H.H.H.H.H.H.H.H.H.H.H.H.H.H.H.H.H.H.H.H.H.H.H.H.H.H.H.H.H.H.H.H.H.H.H.H.H.H.H.H.H.H.H.H.H.H.H.H.H.H.H.H.H.H.H.H.H.H.H.H.H.H.H.H.H.H.H.H.H.H.H.H.H.H.H.H.H.H.H.H.H.H.H.H.H.H.H.H.H.H.H.H.H.H.H.H.H.H.H.H.H.H.H.H.H.H.H.",
"H.H.H.H.H.H.H.H.H.H.H.H.H.H.H.H.H.H.J.H.H.H.H.H.H.H.H.H.H.H.H.H.H.H.H.H.H.H.J.H.H.H.H.H.H.H.H.H.H.H.H.H.H.H.H.H.H.H.H.H.H.H.H.H.H.H.H.H.H.H.H.H.H.H.H.H.H.H.J.H.H.H.H.H.H.H.H.H.H.H.H.H.H.H.J.H.H.H.H.H.H.H.H.H.H.H.H.H.H.H.H.H.H.H.J.H.H.H.H.H.H.H.H.H.H.H.H.H.H.H.H.H.H.H.J.H.H.H.H.H.H.H.H.L.G.U.I.I.L.H.G.G.G.G.G.G.S.S.F.J.Q.Q.P.L.L.L.G.G.U.U.G.G.U.U.U.D.v.&X4XY 4.JXNXBXBXBXBXBXBXBXBXBXSXBXZXVXZXCXzXw.e.y.q.e.u.{ u q 0 q 0 j L R / Y jXu.e.w.p.r.a.r.a.w.bXZXVXVXZXVXVXVXZXVXVXVXVXAXZXVXZXBXs.9.9.q.q.q.q.q.q.r.r.y.r.r.r.r.r.r.r.e.e.e.p.r.s.mXCXBXbXw.9.9.9.r.e.e.9.a.lX{ u u M HXJXCXnXp.y.9.e.i.y.e.q.q.q.r.y.e.r.y.y.q.y.q.q.9.9.9.9.9.9.9.a.BXBXZXa.e.e.q.q.q.d.nXBXZXBXs.w.e.r.e.y.q.e.q.6.q.q.t.kXP P ^ K j k V V.B.W.W.W.B.Q.W.W.W.W.Q.Q.Q.F.M.K.Q.G.H.P.J.P.P.L.L.L.L.L.L.H.H.H.H.H.H.H.H.H.H.H.H.H.H.H.H.H.H.H.H.H.H.H.H.H.H.H.H.H.H.H.H.H.H.H.H.H.H.H.H.H.H.H.H.H.H.H.H.H.H.H.H.H.H.H.H.H.H.H.H.H.H.H.H.H.H.H.H.H.H.H.H.H.H.H.H.H.H.H.H.H.H.H.H.H.H.H.H.H.H.H.H.H.H.H.H.H.H.H.H.H.H.H.H.H.H.H.H.H.H.H.H.H.H.H.H.H.H.H.H.H.H.H.H.H.H.H.H.H.H.H.H.H.H.H.H.H.H.H.H.H.H.H.H.H.H.H.H.H.H.H.H.H.H.H.H.H.H.H.H.H.H.H.H.H.H.H.H.H.H.H.H.H.H.H.H.H.H.H.H.H.H.H.H.H.H.H.H.H.H.H.H.H.H.H.H.H.H.H.H.H.H.H.H.H.H.H.H.H.H.H.H.H.H.H.H.H.H.H.H.H.H.H.H.H.H.H.H.H.H.H.H.H.H.H.H.H.H.H.H.H.H.H.H.H.H.H.H.H.H.H.H.H.H.H.H.H.H.H.H.H.H.H.H.H.H.H.H.H.H.H.H.H.H.H.H.H.H.H.H.H.H.H.H.H.H.H.H.H.H.H.H.H.H.H.H.H.H.H.H.H.H.H.H.H.H.H.H.H.H.H.H.H.H.H.H.H.H.H.H.H.H.H.H.H.H.H.H.H.H.H.H.H.H.H.H.H.H.H.H.H.H.H.H.H.H.H.H.H.H.H.H.H.H.H.H.H.H.H.H.H.H.H.H.H.H.H.H.H.H.H.H.H.H.H.H.H.H.H.H.H.H.H.H.H.H.H.H.H.H.H.H.H.H.H.H.H.H.H.H.H.H.H.H.H.H.H.H.H.H.H.H.H.H.H.H.H.H.H.H.H.H.H.H.H.H.H.H.H.H.H.H.H.H.H.H.H.H.H.H.H.H.H.H.H.H.H.H.H.H.H.H.H.H.H.H.H.H.H.H.H.H.H.H.H.H.",
"L.L.L.L.L.L.L.L.L.L.L.L.L.L.L.L.L.L.L.L.L.L.L.L.L.L.L.L.L.L.L.L.L.L.L.L.L.L.L.L.L.L.L.L.L.L.L.L.L.L.L.L.L.L.L.L.L.L.L.L.L.L.L.L.L.L.L.L.L.L.L.L.L.L.L.L.L.L.L.L.L.L.L.L.L.L.L.L.L.L.L.L.L.L.L.L.L.L.L.L.L.L.L.L.L.L.L.L.L.L.L.L.L.L.L.L.L.L.L.L.L.L.L.L.L.L.L.L.L.L.L.L.L.L.L.L.L.L.L.L.L.L.L.H.J.J.H.L.H.J.J.J.J.P.J.J.J.P.P.I.U.U.J.K.J.J.J.J.J.J.J.J.J.J.U.D.l.;X:.P 0.JXBXVXBXVXVXVXBXVXBXVXBXCXmXw.s.zXu.e.e.r.r.p.lXi.4.i.i.i.i.i.t.t.t.q.y.r.r.r.y.e.u.+.;.X.4.lXu.a.s.a.s.s.a.a.s.nXCXBXmXw.w.s.nXBXmXmXmXmXmXzXw.e.y.e.e.e.y.y.r.y.e.e.y.e.y.e.w.a.a.s.bXmXmXmXs.w.y.y.y.y.r.d.4.kX4.{ { { 4.t.i.w.NXmXmXzXe.e.e.y.y.y.e.e.w.w.mXmXmXmXmXmXBXBXmXmXbXs.s.a.q.q.e.s.BXBXmXbXs.a.a.9.e.y.e.r.y.w.mXmXmXBXSXmXBXd.i.t.i.4.5.5.$.| :.:.:.R  .J B N B B N B C.L.P.H.L.S.H.G.G.G.H.H.H.H.H.H.G.G.G.G.G.G.G.G.G.G.G.G.G.G.G.G.G.G.G.G.G.G.G.G.G.G.G.G.G.G.G.G.G.G.G.G.G.G.G.G.G.G.G.G.G.G.G.G.G.G.G.G.G.G.G.G.G.G.G.G.G.G.G.G.G.G.G.G.G.G.G.G.G.G.G.G.G.G.G.G.G.G.G.G.G.G.G.G.G.G.G.G.G.G.G.G.G.G.G.G.G.G.G.G.G.G.G.G.G.G.G.G.G.G.G.G.G.G.G.G.G.G.G.G.G.G.G.G.G.G.G.G.G.G.G.G.G.G.G.G.G.G.G.G.G.G.G.G.G.G.G.G.G.G.G.G.G.G.G.G.G.G.G.G.G.G.G.G.G.G.G.G.G.G.G.G.G.G.G.G.G.G.G.G.G.G.G.G.G.G.G.G.G.G.G.G.G.G.G.G.G.G.G.G.G.G.G.G.G.G.G.G.G.G.G.G.G.G.G.G.G.G.G.G.G.G.G.G.G.G.G.G.G.G.G.G.G.G.G.G.G.G.G.G.G.G.G.G.G.G.G.G.G.G.G.G.G.G.G.G.G.G.G.G.G.G.G.G.G.G.G.G.G.G.G.G.G.G.G.G.G.G.G.G.G.G.G.G.G.G.G.G.G.G.G.G.G.G.G.G.G.G.G.G.G.G.G.G.G.G.G.G.G.G.G.G.G.G.G.G.G.G.G.G.G.G.G.G.G.G.G.G.G.G.G.G.G.G.G.G.G.G.G.G.G.G.G.G.G.G.G.G.G.G.G.G.G.G.G.G.G.G.G.G.G.G.G.G.G.G.G.G.G.G.G.G.G.G.G.G.G.G.G.G.G.G.G.G.G.G.G.G.G.G.G.G.G.G.G.G.G.G.G.G.G.G.G.G.G.G.G.G.G.G.G.G.G.G.G.G.G.G.G.G.G.G.G.G.G.G.G.G.G.G.G.G.G.G.G.G.G.G.G.G.G.G.G.G.G.G.G.G.G.G.G.G.G.G.G.G.G.G.G.G.G.G.",
"L.L.L.L.L.L.L.L.L.L.L.L.L.L.L.L.L.L.L.L.L.L.L.L.L.L.L.L.L.L.L.L.L.L.L.L.L.L.L.L.L.L.L.L.L.L.L.L.L.L.L.L.L.L.L.L.L.L.L.L.L.L.L.L.L.L.L.L.L.L.L.L.L.L.L.L.L.L.L.L.L.L.L.L.L.L.L.L.L.L.L.L.L.L.L.L.L.L.L.L.L.L.L.L.L.L.L.L.L.L.L.L.L.L.L.L.L.L.L.L.L.L.L.L.L.L.L.L.L.L.L.L.L.L.L.L.L.L.L.L.L.L.L.P.J.P.P.P.U.L.L.L.G.D.D.D.L.D.D.D.D.D.S.H.S.D.D.D.D.D.U.U.L.U.D.D.v.<X:.P 4.CXBXBXSXSXBXmXSXSXSXSXBXCXnXd.9.r.q.e.y.e.w.e.r.a.lXlXa.a.a.p.a.a.a.e.y.r.y.y.u.u.jXX.` ~ ;.jXq.q.9.q.9.9.q.q.9.nXZXBXmXw.9.9.bXZXAXZXVXBXCXbXd.e.y.e.e.e.e.e.y.e.e.e.e.e.y.e.q.q.q.d.s.CXZXJXzXd.y.r.y.e.r.p.a.nXkXu q u } lXe.w.ZXVXZXbXd.w.e.e.e.e.y.y.e.w.BXZXVXVXZXBXAXBXBXZXmXd.9.e.q.u.e.s.VXBXVXs.+.q.r.q.a.y.a.y.u.d.ZXZXVXVXVXVXVXs.p.a.a.a.a.a.5.! 1.1.] 1.o.F D D D D D r k.S.L.S.Y.H.L.P.H.J.J.H.J.J.H.J.H.H.H.H.H.H.H.H.H.H.H.H.H.H.H.H.H.H.H.H.H.H.H.H.H.H.H.H.H.H.H.H.H.H.H.H.H.H.H.H.H.H.H.H.H.H.H.H.H.H.H.H.H.H.H.H.H.H.H.H.H.H.H.H.H.H.H.H.H.H.H.H.H.H.H.H.H.H.H.H.H.H.H.H.H.H.H.H.H.H.H.H.H.H.H.H.H.H.H.H.H.H.H.H.H.H.H.H.H.H.H.H.H.H.H.H.H.H.H.H.H.H.H.H.H.H.H.H.H.H.H.H.H.H.H.H.H.H.H.H.H.H.H.H.H.H.H.H.H.H.H.H.H.H.H.H.H.H.H.H.H.H.H.H.H.H.H.H.H.H.H.H.H.H.H.H.H.H.H.H.H.H.H.H.H.H.H.H.H.H.H.H.H.H.H.H.H.H.H.H.H.H.H.H.H.H.H.H.H.H.H.H.H.H.H.H.H.H.H.H.H.H.H.H.H.H.H.H.H.H.H.H.H.H.H.H.H.H.H.H.H.H.H.H.H.H.H.H.H.H.H.H.H.H.H.H.H.H.H.H.H.H.H.H.H.H.H.H.H.H.H.H.H.H.H.H.H.H.H.H.H.H.H.H.H.H.H.H.H.H.H.H.H.H.H.H.H.H.H.H.H.H.H.H.H.H.H.H.H.H.H.H.H.H.H.H.H.H.H.H.H.H.H.H.H.H.H.H.H.H.H.H.H.H.H.H.H.H.H.H.H.H.H.H.H.H.H.H.H.H.H.H.H.H.H.H.H.H.H.H.H.H.H.H.H.H.H.H.H.H.H.H.H.H.H.H.H.H.H.H.H.H.H.H.H.H.H.H.H.H.H.H.H.H.H.H.H.H.H.H.H.H.H.H.H.H.H.H.H.H.H.H.H.H.H.H.H.H.H.H.H.H.H.H.H.H.H.H.H.H.H.H.H.H.H.H.H.H.H.H.H.H.H.H.H.H.H.H.H.H.H.H.H.H.H.H.H.H.H.H.H.H.H.H.H.H.",
"F.F.F.F.F.F.F.F.F.F.F.F.F.F.F.F.F.F.F.F.F.F.F.F.F.F.F.F.F.F.F.F.F.F.F.F.F.F.F.F.F.F.F.F.F.F.F.F.F.F.F.F.F.F.F.F.F.F.F.F.F.F.F.F.F.F.F.F.F.F.F.F.F.F.F.F.F.F.F.F.F.F.F.F.F.F.F.F.F.F.F.F.F.F.F.F.F.F.F.F.F.F.F.F.F.F.F.F.F.F.F.F.F.F.F.F.F.F.F.F.F.F.F.F.F.F.F.F.F.F.F.F.F.F.F.F.F.F.F.F.F.F.F.F.S.S.S.S.F.F.F.F.J.J.J.Q.Q.Q.Q.Q.Q.Q.Q.Q.Q.J.K.J.F.F.F.K.W.W.W.K.c.,XR Y 4.JXZXZXZXZXZXZXZXVXVXVXVXZXBXw.w.a.e.e.u.w.w.e.q.e.e.q.i.i.u.e.e.u.y.y.q.q.q.9.9.q.jXO.X.X.+.a.p.p.p.a.a.r.a.9.9.nXVXVXmXw.9.9.nXZXAXZXVXBXZXbXd.e.y.e.r.r.r.r.r.r.r.e.w.w.w.y.y.y.y.w.s.VXmXBXs.9.y.r.e.w.r.p.9.i.kXu n 0 4.xXw.d.VXmXVXs.d.q.r.r.e.e.y.r.e.w.BXZXVXVXVXBXVXVXVXZXmXw.a.w.w.e.+.e.BXVXZXbXw.r.y.r.y.e.9.r.9.d.CXCXVXVXVXCXBXw.i.q.q.q.i.kXX.Y / / / :.4XJ l B N B x B R.'.'.M.Q.G.G.G.G.G.G.G.G.G.G.G.F.F.F.F.F.F.F.F.F.F.F.F.F.F.F.F.F.F.F.F.F.F.F.F.F.F.F.F.F.F.F.F.F.F.F.F.F.F.F.F.F.F.F.F.F.F.F.F.F.F.F.F.F.F.F.F.F.F.F.F.F.F.F.F.F.F.F.F.F.F.F.F.F.F.F.F.F.F.F.F.F.F.F.F.F.F.F.F.F.F.F.F.F.F.F.F.F.F.F.F.F.F.F.F.F.F.F.F.F.F.F.F.F.F.F.F.F.F.F.F.F.F.F.F.F.F.F.F.F.F.F.F.F.F.F.F.F.F.F.F.F.F.F.F.F.F.F.F.F.F.F.F.F.F.F.F.F.F.F.F.F.F.F.F.F.F.F.F.F.F.F.F.F.F.F.F.F.F.F.F.F.F.F.F.F.F.F.F.F.F.F.F.F.F.F.F.F.F.F.F.F.F.F.F.F.F.F.F.F.F.F.F.F.F.F.F.F.F.F.F.F.F.F.F.F.F.F.F.F.F.F.F.F.F.F.F.F.F.F.F.F.F.F.F.F.F.F.F.F.F.F.F.F.F.F.F.F.F.F.F.F.F.F.F.F.F.F.F.F.F.F.F.F.F.F.F.F.F.F.F.F.F.F.F.F.F.F.F.F.F.F.F.F.F.F.F.F.F.F.F.F.F.F.F.F.F.F.F.F.F.F.F.F.F.F.F.F.F.F.F.F.F.F.F.F.F.F.F.F.F.F.F.F.F.F.F.F.F.F.F.F.F.F.F.F.F.F.F.F.F.F.F.F.F.F.F.F.F.F.F.F.F.F.F.F.F.F.F.F.F.F.F.F.F.F.F.F.F.F.F.F.F.F.F.F.F.F.F.F.F.F.F.F.F.F.F.F.F.F.F.F.F.F.F.F.F.F.F.F.F.F.F.F.F.F.F.F.F.F.F.F.F.F.F.F.F.F.F.F.F.F.F.F.F.F.F.F.F.F.F.F.F.F.F.F.F.F.F.F.F.F.F.F.F.F.F.F.F.F.F.F.F.F.F.F.F.",
"I.I.I.I.I.I.I.I.I.I.I.I.I.I.I.I.I.I.I.I.I.I.I.I.I.I.I.I.I.I.I.I.I.I.I.I.I.I.I.I.I.I.I.I.I.I.I.I.I.I.I.I.I.I.I.I.I.I.I.I.I.I.I.I.I.I.I.I.I.I.I.I.I.I.I.I.I.I.I.I.I.I.I.I.I.I.I.I.I.I.I.I.I.I.I.I.I.I.I.I.I.I.I.I.I.I.I.I.I.I.I.I.I.I.I.I.I.I.I.I.I.I.I.I.I.I.I.I.I.I.I.I.I.I.I.I.I.I.I.I.I.I.I.I.P.Y.Y.Y.P.Q.P.Y.D.D.C.D.D.D.D.D.D.D.D.D.C.D.J.Q.Q.P.R.Z.R.R.R.Z.C 3X<.O.0.NXNXmXmXmXmXmXmXmXmXmXmXmXnXw.w.y.e.y.e.e.u.y.u.y.a.e.r.r.y.r.r.r.r.e.a.a.a.a.s.lXxX} W &.;.kXt.t.t.t.6.i.lXs.w.mXBXBXmXw.w.s.nXBXmXmXmXmXmXzXw.e.y.e.r.r.r.r.y.y.e.e.e.e.w.e.e.r.r.w.s.ZXBXCXa.q.y.y.y.e.e.a.r.a.kXw K w +.lXd.d.VXBXZXzXw.r.y.y.y.u.w.w.w.w.mXmXmXmXmXmXBXBXmXmXnXw.y.9.s.s.s.zXmXBXBXzXw.e.q.q.y.e.w.a.s.s.nXmXmXBXmXmXmXw.e.r.y.a.a.lX5.o.5.o.! &.>.L t m H c z B C.C.C.V.!.I.I.I.Y.Y.I.I.Y.I.I.I.I.I.I.I.I.I.I.I.I.I.I.I.I.I.I.I.I.I.I.I.I.I.I.I.I.I.I.I.I.I.I.I.I.I.I.I.I.I.I.I.I.I.I.I.I.I.I.I.I.I.I.I.I.I.I.I.I.I.I.I.I.I.I.I.I.I.I.I.I.I.I.I.I.I.I.I.I.I.I.I.I.I.I.I.I.I.I.I.I.I.I.I.I.I.I.I.I.I.I.I.I.I.I.I.I.I.I.I.I.I.I.I.I.I.I.I.I.I.I.I.I.I.I.I.I.I.I.I.I.I.I.I.I.I.I.I.I.I.I.I.I.I.I.I.I.I.I.I.I.I.I.I.I.I.I.I.I.I.I.I.I.I.I.I.I.I.I.I.I.I.I.I.I.I.I.I.I.I.I.I.I.I.I.I.I.I.I.I.I.I.I.I.I.I.I.I.I.I.I.I.I.I.I.I.I.I.I.I.I.I.I.I.I.I.I.I.I.I.I.I.I.I.I.I.I.I.I.I.I.I.I.I.I.I.I.I.I.I.I.I.I.I.I.I.I.I.I.I.I.I.I.I.I.I.I.I.I.I.I.I.I.I.I.I.I.I.I.I.I.I.I.I.I.I.I.I.I.I.I.I.I.I.I.I.I.I.I.I.I.I.I.I.I.I.I.I.I.I.I.I.I.I.I.I.I.I.I.I.I.I.I.I.I.I.I.I.I.I.I.I.I.I.I.I.I.I.I.I.I.I.I.I.I.I.I.I.I.I.I.I.I.I.I.I.I.I.I.I.I.I.I.I.I.I.I.I.I.I.I.I.I.I.I.I.I.I.I.I.I.I.I.I.I.I.I.I.I.I.I.I.I.I.I.I.I.I.I.I.I.I.I.I.I.I.I.I.I.I.I.I.I.I.I.I.I.I.I.I.I.I.I.I.I.I.I.I.I.I.I.I.I.I.I.I.I.I.I.I.I.I.I.I.I.I.I.I.I.I.I.I.I.I.I.I.I.I.I.I.I.I.I.I.I.I.I.I.I.I.I.I.I.I.I.I.I.I.",
"|.|.|.|.|.|.|.|.|.|.|.|.|.|.|.|.|.|.|.|.|.|.|.|.|.|.|.|.|.|.|.|.|.|.|.|.|.|.|.|.|.|.|.|.|.|.|.|.|.|.|.|.|.|.|.|.|.|.|.|.|.|.|.|.|.|.|.|.|.|.|.|.|.|.|.|.|.|.|.|.|.|.|.|.|.|.|.|.|.|.|.|.|.|.|.|.|.|.|.|.|.|.|.|.|.|.|.|.|.|.|.|.|.|.|.|.|.|.|.|.|.|.|.|.|.|.|.|.|.|.|.|.|.|.|.|.|.|.|.|.|.|.|. XpXpXpXpX XpXdX>XB x t t t t y y y D y D t B A.>X>X,X:.1.] [ [ [ O.jXu.q.e.a.9.9.9.9.9.9.9.q.9.9.9.w.e.e.e.y.e.e.y.r.r.e.q.e.e.w.e.u.u.u.r.r.w.d.CXCXZXZXCXCXJX..R ' / >.U Q U Q Y 4.NXCXBXZXBXBXZXVXZXBXs.9.q.q.q.q.q.q.q.r.r.y.e.e.e.e.e.e.e.r.r.y.e.r.y.r.y.w.s.ZXVXZXlXi.e.r.e.r.e.r.e.y.jXP ,.Q 6.lXr.w.BXBXZXbXw.e.y.e.e.e.r.r.y.q.r.q.q.9.q.9.9.9.+.q.e.e.y.d.BXZXVXmXd.6.q.q.q.y.r.e.w.d.mXZXBXBXw.q.9.9.9.9.r.9.r.w.bXVXVXZXzXw.lXi.X.-.-.L r n n l M b X . # i E.].|. X.X}.}.}.}.}.}.|.|.|.|.|.|.|.|.|.|.|.|.|.|.|.|.|.|.|.|.|.|.|.|.|.|.|.|.|.|.|.|.|.|.|.|.|.|.|.|.|.|.|.|.|.|.|.|.|.|.|.|.|.|.|.|.|.|.|.|.|.|.|.|.|.|.|.|.|.|.|.|.|.|.|.|.|.|.|.|.|.|.|.|.|.|.|.|.|.|.|.|.|.|.|.|.|.|.|.|.|.|.|.|.|.|.|.|.|.|.|.|.|.|.|.|.|.|.|.|.|.|.|.|.|.|.|.|.|.|.|.|.|.|.|.|.|.|.|.|.|.|.|.|.|.|.|.|.|.|.|.|.|.|.|.|.|.|.|.|.|.|.|.|.|.|.|.|.|.|.|.|.|.|.|.|.|.|.|.|.|.|.|.|.|.|.|.|.|.|.|.|.|.|.|.|.|.|.|.|.|.|.|.|.|.|.|.|.|.|.|.|.|.|.|.|.|.|.|.|.|.|.|.|.|.|.|.|.|.|.|.|.|.|.|.|.|.|.|.|.|.|.|.|.|.|.|.|.|.|.|.|.|.|.|.|.|.|.|.|.|.|.|.|.|.|.|.|.|.|.|.|.|.|.|.|.|.|.|.|.|.|.|.|.|.|.|.|.|.|.|.|.|.|.|.|.|.|.|.|.|.|.|.|.|.|.|.|.|.|.|.|.|.|.|.|.|.|.|.|.|.|.|.|.|.|.|.|.|.|.|.|.|.|.|.|.|.|.|.|.|.|.|.|.|.|.|.|.|.|.|.|.|.|.|.|.|.|.|.|.|.|.|.|.|.|.|.|.|.|.|.|.|.|.|.|.|.|.|.|.|.|.|.|.|.|.|.|.|.|.|.|.|.|.|.|.|.|.|.|.|.|.|.|.|.|.|.|.|.|.|.|.|.|.|.|.|.|.|.|.|.|.|.|.|.|.|.|.|.|.|.|.|.|.|.|.|.|.|.|.|.|.|.|.|.|.|.|.|.|.|.|.|.|.|.|.|.|.|.|.|.|.|.|.|.|.|.",
").).).).).).).).).).).).).).).).).).).).).).).).).).).).).).).).).).).).).).).).).).).).).).).).).).).).).).).).).).).).).).).).).).).).).).).).).).).).).).).).).).).).).).).).).).).).).).).).).).).).).).).).).).).).).).).).).).).).).).).).).).).).).).).).).).).).).).).).).).).).).).).).).).~.~.(.).^.>XC B c c c c c c N x z t t B R.pX^.>X .%.%.%.#.@.} u.a.y.w.w.q.u.u.u.y.r.r.r.r.r.y.q.y.u.y.a.w.r.e.r.y.y.y.y.r.r.r.y.y.y.r.r.r.d.VXBXBXBXBXCXJX} X.&.! &.Q *.` >.Y 6.CXZXSXSXSXVXBXSXVXBXzX9.y.r.u.e.y.r.p.a.w.e.r.r.r.e.e.e.r.r.e.y.r.e.e.e.y.w.s.BXmXBXa.e.e.y.w.a.u.u.u.u.t.X.@.X.6.u.e.e.CXCXCXzXw.q.r.r.e.y.w.w.a.e.y.w.y.r.y.r.e.a.y.y.r.r.y.d.mXBXVXBXd.r.e.y.s.w.y.y.q.9.bXBXSXCXd.y.r.y.y.y.u.u.u.0.zXZXBXBXs.w.lXi.X.@.,.L t m c v G J 8 % % p aX|.`.`.`.`.`.`.~.~.~.~.~.~.~.~.~.~.~.~.~.~.~.~.~.~.~.~.~.~.~.~.~.~.~.~.~.~.~.~.~.~.~.~.~.~.~.~.~.~.~.~.~.~.~.~.~.~.~.~.~.~.~.~.~.~.~.~.~.~.~.~.~.~.~.~.~.~.~.~.~.~.~.~.~.~.~.~.~.~.~.~.~.~.~.~.~.~.~.~.~.~.~.~.~.~.~.~.~.~.~.~.~.~.~.~.~.~.~.~.~.~.~.~.~.~.~.~.~.~.~.~.~.~.~.~.~.~.~.~.~.~.~.~.~.~.~.~.~.~.~.~.~.~.~.~.~.~.~.~.~.~.~.~.~.~.~.~.~.~.~.~.~.~.~.~.~.~.~.~.~.~.~.~.~.~.~.~.~.~.~.~.~.~.~.~.~.~.~.~.~.~.~.~.~.~.~.~.~.~.~.~.~.~.~.~.~.~.~.~.~.~.~.~.~.~.~.~.~.~.~.~.~.~.~.~.~.~.~.~.~.~.~.~.~.~.~.~.~.~.~.~.~.~.~.~.~.~.~.~.~.~.~.~.~.~.~.~.~.~.~.~.~.~.~.~.~.~.~.~.~.~.~.~.~.~.~.~.~.~.~.~.~.~.~.~.~.~.~.~.~.~.~.~.~.~.~.~.~.~.~.~.~.~.~.~.~.~.~.~.~.~.~.~.~.~.~.~.~.~.~.~.~.~.~.~.~.~.~.~.~.~.~.~.~.~.~.~.~.~.~.~.~.~.~.~.~.~.~.~.~.~.~.~.~.~.~.~.~.~.~.~.~.~.~.~.~.~.~.~.~.~.~.~.~.~.~.~.~.~.~.~.~.~.~.~.~.~.~.~.~.~.~.~.~.~.~.~.~.~.~.~.~.~.~.~.~.~.~.~.~.~.~.~.~.~.~.~.~.~.~.~.~.~.~.~.~.~.~.~.~.~.~.~.~.~.~.~.~.~.~.~.~.~.~.~.~.~.~.~.~.~.~.~.~.~.~.~.~.~.~.~.~.~.~.~.~.~.",
"pXpXpXpXpXpXpXpXpXpXpXpXpXpXpXpXpXpXpXpXpXpXpXpXpXpXpXpXpXpXpXpXpXpXpXpXpXpXpXpXpXpXpXpXpXpXpXpXpXpXpXpXpXpXpXpXpXpXpXpXpXpXpXpXpXpXpXpXpXpXpXpXpXpXpXpXpXpXpXpXpXpXpXpXpXpXpXpXpXpXpXpXpXpXpXpXpXpXpXpXpXpXpXpXpXpXpXpXpXpXpXpXpXpXpXpXpXpXpXpXpXpXpXpXpXpXpXpXpXpXpXpXpXpXpXpXpXpXpXpXpXpXpXpXpX|.XXXXXXXXXX|.C k k l l l l e n M t M c Z D.XXXX>X%XY ~ / / Q P t.y.r.p.p.a.a.y.y.i.lXu.e.r.r.p.e.q.q.7.9.r.r.r.e.r.6.q.q.r.y.q.q.q.q.q.q.9.d.BXZXZXZXBXJXCX} F ~ ] ! >.*.^ >.~ ;.JXCXSXBXAXAXZXAXZXBXzXw.e.r.e.e.a.e.r.y.9.e.9.6.q.q.a.q.q.q.q.q.9.9.9.9.7.+.zXBXZXBXzXw.u.y.q.e.r.y.q.u.6.8.Y Y 3.6.q.w.mXBXVXbXd.9.q.9.q.r.r.r.r.e.r.y.e.r.e.y.q.u.9.q.e.q.q.w.BXZXZXmXw.9.q.6.q.6.q.7.q.+.nXZXZXCXw.+.q.q.u.e.w.w.y.q.zXCXZXBXa.+.t.5.Y Q :.G q r e l l b O X . p E.aX|.|.pXpX|.|.].].|.|.pXpXpXpXpXpXpXpXpXpXpXpXpXpXpXpXpXpXpXpXpXpXpXpXpXpXpXpXpXpXpXpXpXpXpXpXpXpXpXpXpXpXpXpXpXpXpXpXpXpXpXpXpXpXpXpXpXpXpXpXpXpXpXpXpXpXpXpXpXpXpXpXpXpXpXpXpXpXpXpXpXpXpXpXpXpXpXpXpXpXpXpXpXpXpXpXpXpXpXpXpXpXpXpXpXpXpXpXpXpXpXpXpXpXpXpXpXpXpXpXpXpXpXpXpXpXpXpXpXpXpXpXpXpXpXpXpXpXpXpXpXpXpXpXpXpXpXpXpXpXpXpXpXpXpXpXpXpXpXpXpXpXpXpXpXpXpXpXpXpXpXpXpXpXpXpXpXpXpXpXpXpXpXpXpXpXpXpXpXpXpXpXpXpXpXpXpXpXpXpXpXpXpXpXpXpXpXpXpXpXpXpXpXpXpXpXpXpXpXpXpXpXpXpXpXpXpXpXpXpXpXpXpXpXpXpXpXpXpXpXpXpXpXpXpXpXpXpXpXpXpXpXpXpXpXpXpXpXpXpXpXpXpXpXpXpXpXpXpXpXpXpXpXpXpXpXpXpXpXpXpXpXpXpXpXpXpXpXpXpXpXpXpXpXpXpXpXpXpXpXpXpXpXpXpXpXpXpXpXpXpXpXpXpXpXpXpXpXpXpXpXpXpXpXpXpXpXpXpXpXpXpXpXpXpXpXpXpXpXpXpXpXpXpXpXpXpXpXpXpXpXpXpXpXpXpXpXpXpXpXpXpXpXpXpXpXpXpXpXpXpXpXpXpXpXpXpXpXpXpXpXpXpXpXpXpXpXpXpXpXpXpXpXpXpXpXpXpXpXpXpXpXpXpXpXpXpXpXpXpXpXpXpXpXpXpXpXpXpXpXpXpXpXpXpXpXpXpXpXpXpXpXpXpXpXpXpXpXpXpXpXpXpXpXpXpXpXpXpXpXpXpXpXpXpXpXpXpXpXpXpXpXpXpXpXpX",
"I.I.I.I.I.I.I.I.I.I.I.I.I.I.I.I.I.I.I.I.I.I.I.I.I.I.I.I.I.I.I.I.I.I.I.I.I.I.I.I.I.I.I.I.I.I.I.I.I.I.I.I.I.I.I.I.I.I.I.I.I.I.I.I.I.I.I.I.I.I.I.I.I.I.I.I.I.I.I.I.I.I.I.I.I.I.I.I.I.I.I.I.I.I.I.I.I.I.I.I.I.I.I.I.I.I.I.I.I.I.I.I.I.I.I.I.I.I.I.I.I.I.I.I.I.I.I.I.I.I.I.I.I.I.I.I.I.I.I.I.I.I.I.I.Y.P.Y.T.C.l.C C | } U U U / $.I G N z m t t T *X;X .t.q.q.t.q.6.5.u.y.u.6.O.;.O.t.a.w.a.w.r.p.p.d.w.s.BXmXNXa.9.r.y.nXnXmXzXw.w.w.nXmXnXmXnXmXnXzXs.s.p.p.lXzXxXNXNXkXP U X.W &.~ ;.JXBXBXBXCXCXNXs.zXlXa.e.r.e.e.w.u.e.e.y.w.nXNXmXa.9.w.w.mXBXmXmXmXmXNXCXJXCXzXs.zXlXu.q.u.u.a.r.w.w.w.a.zXxXnXzXmXmXMXMXVXVXVXSXMXmXnXa.e.r.r.r.e.r.e.e.e.e.e.a.w.nXmXmXnXw.y.9.a.zXs.zXnXmXNXmXmXMXBXNXJXCXzXs.s.zXnXNXBXzXe.e.y.e.y.9.s.zXs.zXnXmXCXnX4.t.kXX.} | | @.^  .C k.V.k.Y.!.U.I.I.I.I.I.I.I.I.I.I.I.I.I.I.I.I.I.I.I.I.I.I.I.I.I.I.I.I.I.I.I.I.I.I.I.I.I.I.I.I.I.I.I.I.I.I.I.I.I.I.I.I.I.I.I.I.I.I.I.I.I.I.I.I.I.I.I.I.I.I.I.I.I.I.I.I.I.I.I.I.I.I.I.I.I.I.I.I.I.I.I.I.I.I.I.I.I.I.I.I.I.I.I.I.I.I.I.I.I.I.I.I.I.I.I.I.I.I.I.I.I.I.I.I.I.I.I.I.I.I.I.I.I.I.I.I.I.I.I.I.I.I.I.I.I.I.I.I.I.I.I.I.I.I.I.I.I.I.I.I.I.I.I.I.I.I.I.I.I.I.I.I.I.I.I.I.I.I.I.I.I.I.I.I.I.I.I.I.I.I.I.I.I.I.I.I.I.I.I.I.I.I.I.I.I.I.I.I.I.I.I.I.I.I.I.I.I.I.I.I.I.I.I.I.I.I.I.I.I.I.I.I.I.I.I.I.I.I.I.I.I.I.I.I.I.I.I.I.I.I.I.I.I.I.I.I.I.I.I.I.I.I.I.I.I.I.I.I.I.I.I.I.I.I.I.I.I.I.I.I.I.I.I.I.I.I.I.I.I.I.I.I.I.I.I.I.I.I.I.I.I.I.I.I.I.I.I.I.I.I.I.I.I.I.I.I.I.I.I.I.I.I.I.I.I.I.I.I.I.I.I.I.I.I.I.I.I.I.I.I.I.I.I.I.I.I.I.I.I.I.I.I.I.I.I.I.I.I.I.I.I.I.I.I.I.I.I.I.I.I.I.I.I.I.I.I.I.I.I.I.I.I.I.I.I.I.I.I.I.I.I.I.I.I.I.I.I.I.I.I.I.I.I.I.I.I.I.I.I.I.I.I.I.I.I.I.I.I.I.I.I.I.I.I.I.I.I.I.I.I.I.I.I.I.I.I.I.I.I.I.I.I.I.I.I.I.I.I.I.I.I.I.I.I.I.I.I.I.I.I.I.I.I.I.I.I.I.I.I.I.I.I.I.I.I.",
"F.G.F.G.G.G.G.G.F.G.F.G.G.G.G.G.G.G.G.G.G.G.G.G.G.G.G.G.G.G.F.G.G.G.G.G.G.G.G.G.G.G.F.G.G.G.G.G.F.G.F.G.G.G.G.G.F.G.F.G.G.G.G.G.G.G.G.G.G.G.G.G.G.G.G.G.G.G.F.G.G.G.G.G.G.G.G.G.G.G.F.G.G.G.G.G.F.G.F.G.G.G.G.G.F.G.F.G.G.G.G.G.G.G.G.G.G.G.G.G.G.G.G.G.G.G.F.G.G.G.G.G.G.G.G.G.G.G.F.G.G.G.G.J.J.J.H.D.V b z t W 1.1.1.) 2.3.Y t z l n t t P 1.! o.y.p.a.p.p.p.p.9.9.lX6.Q / Q 6.y.w.w.w.y.e.e.y.r.w.VXBXZXzXr.e.s.ZXZXZXbXw.y.s.CXZXVXZXZXZXCXd.q.q.q.p.d.d.BXBXZXxX} X.>.>.#.U 4.JXVXBXSXBXBXmXd.9.q.r.q.y.e.y.e.r.e.r.w.s.CXVXZXnXr.w.w.BXVXVXZXVXCXJXJXLXLXCXw.9.y.e.u.e.e.w.e.r.y.a.w.d.ZXJXCXZXVXZXBXCXBXBXCXVXJXBXs.w.e.w.u.y.y.y.y.y.y.y.w.d.mXZXZXBXw.a.q.r.e.+.s.CXZXVXVXZXCXJXJXLXLXxX9.9.w.BXZXZXbXi.q.y.e.a.9.9.9.9.w.mXVXZXmXd.a.lX7.X.%.] ] ] 4XR.'.Q.Q.P.G.S.H.H.H.H.H.F.H.H.H.F.G.F.G.G.G.G.G.F.G.F.G.G.G.G.G.G.G.G.G.G.G.G.G.G.G.G.G.G.G.F.G.G.G.G.G.G.G.G.G.G.G.F.G.G.G.G.G.F.G.F.G.G.G.G.G.F.G.F.G.G.G.G.G.G.G.G.G.G.G.G.G.G.G.G.G.G.G.F.G.G.G.G.G.G.G.G.G.G.G.F.G.G.G.G.G.F.G.F.G.G.G.G.G.F.G.F.G.G.G.G.G.G.G.G.G.G.G.G.G.G.G.G.G.G.G.F.G.G.G.G.G.G.G.G.G.G.G.F.G.G.G.G.G.F.G.F.G.G.G.G.G.F.G.F.G.G.G.G.G.G.G.G.G.G.G.G.G.G.G.G.G.G.G.F.G.G.G.G.G.G.G.G.G.G.G.F.G.G.G.G.G.F.G.F.G.G.G.G.G.F.G.F.G.G.G.G.G.G.G.G.G.G.G.G.G.G.G.G.G.G.G.F.G.G.G.G.G.G.G.G.G.G.G.F.G.G.G.G.G.F.G.F.G.G.G.G.G.F.G.F.G.G.G.G.G.G.G.G.G.G.G.F.G.G.G.G.G.G.G.G.G.F.F.F.G.G.G.G.G.G.G.G.G.G.G.G.G.G.G.G.G.G.G.F.G.G.G.G.G.G.G.G.G.F.F.F.G.G.G.G.G.G.G.G.G.G.G.G.G.G.G.G.G.G.G.F.G.G.G.G.G.G.G.G.G.F.F.F.G.G.G.G.G.G.G.G.G.G.G.G.G.G.G.G.G.G.G.F.G.G.G.G.G.G.G.G.G.F.F.F.G.G.G.G.G.G.G.G.G.G.G.G.G.F.G.F.G.G.G.G.G.F.G.F.G.G.G.G.G.G.G.G.G.G.G.G.G.G.G.G.G.G.G.F.G.G.G.G.G.G.G.G.G.G.G.F.G.G.G.G.G.F.G.F.G.G.G.G.G.F.G.F.G.G.G.G.G.G.G.G.G.G.G.G.G.G.G.G.G.G.G.F.G.G.G.",
"F.F.F.F.F.F.F.F.F.F.F.F.F.F.F.F.F.F.F.F.F.F.F.F.F.F.F.F.F.F.F.F.F.F.F.F.F.F.F.F.F.F.F.F.F.F.F.F.F.F.F.F.F.F.F.F.F.F.F.F.F.F.F.F.F.F.F.F.F.F.F.F.F.F.F.F.F.F.F.F.F.F.F.F.F.F.F.F.F.F.F.F.F.F.F.F.F.F.F.F.F.F.F.F.F.F.F.F.F.F.F.F.F.F.F.F.F.F.F.F.F.F.F.F.F.F.F.F.F.F.F.F.F.F.F.F.F.F.F.F.F.F.F.F.G.G.J.D.V k b v U >._ _ / -.>.L z N b N B q Y ) ! ! u.p.r.w.r.a.p.e.e.jX6.U / ~ u.a.p.p.p.a.9.r.7.q.s.ZXZXCXs.d.d.w.VXZXZXs.d.q.d.mXBXBXAXAXVXBXw.e.q.q.r.d.d.CXZXJXxX8.~ ' ' ' Y ;.JXBXVXSXVXZXBXw.e.e.r.q.y.y.y.e.y.r.r.9.w.CXBXCXa.9.9.w.BXZXVXVXBXBXCXJXLXLXCX+.9.e.9.r.r.r.y.e.y.r.r.d.d.ZXVXVXVXVXVXSXVXBXBXBXVXZXmXw.w.y.r.u.y.q.r.q.q.q.y.y.d.mXBXBXnX0.9.r.q.r.i.s.ZXVXAXAXZXJXCXJXLXLXnX9.y.w.ZXVXZXmX9.q.y.q.a.a.y.r.q.d.BXZXZXmXd.q.jXO.~ ( ` ` &.4Xc.M.S.S.S.S.F.G.F.F.S.S.S.S.S.S.F.F.F.F.F.F.F.F.F.F.F.F.F.F.F.F.F.F.F.F.F.F.F.F.F.F.F.F.F.F.F.F.F.F.F.F.F.F.F.F.F.F.F.F.F.F.F.F.F.F.F.F.F.F.F.F.F.F.F.F.F.F.F.F.F.F.F.F.F.F.F.F.F.F.F.F.F.F.F.F.F.F.F.F.F.F.F.F.F.F.F.F.F.F.F.F.F.F.F.F.F.F.F.F.F.F.F.F.F.F.F.F.F.F.F.F.F.F.F.F.F.F.F.F.F.F.F.F.F.F.F.F.F.F.F.F.F.F.F.F.F.F.F.F.F.F.F.F.F.F.F.F.F.F.F.F.F.F.F.F.F.F.F.F.F.F.F.F.F.F.F.F.F.F.F.F.F.F.F.F.F.F.F.F.F.F.F.F.F.F.F.F.F.F.F.F.F.F.F.F.F.F.F.F.F.F.F.F.F.F.F.F.F.F.F.F.F.F.F.F.F.F.F.F.F.F.F.F.F.F.F.F.F.F.F.F.F.F.F.F.F.F.F.F.F.F.F.F.F.F.F.F.F.F.F.F.F.F.F.F.F.F.F.F.F.F.F.F.F.F.F.F.F.F.F.F.F.F.F.F.F.F.F.F.F.F.F.F.F.F.F.F.F.F.F.F.F.F.F.F.F.F.F.F.F.F.F.F.F.F.F.F.F.F.F.F.F.F.F.F.F.F.F.F.F.F.F.F.F.F.F.F.F.F.F.F.F.F.F.F.F.F.F.F.F.F.F.F.F.F.F.F.F.F.F.F.F.F.F.F.F.F.F.F.F.F.F.F.F.F.F.F.F.F.F.F.F.F.F.F.F.F.F.F.F.F.F.F.F.F.F.F.F.F.F.F.F.F.F.F.F.F.F.F.F.F.F.F.F.F.F.F.F.F.F.F.F.F.F.F.F.F.F.F.F.F.F.F.F.F.F.F.F.F.F.F.F.F.F.F.F.F.F.F.F.F.F.F.F.F.F.F.F.F.F.F.F.F.F.F.F.F.F.F.F.F.",
"I.I.I.I.I.I.I.I.I.I.I.I.I.I.I.I.I.I.I.I.I.I.I.I.I.I.I.I.I.I.I.I.I.I.I.I.I.I.I.I.I.I.I.I.I.I.I.I.I.I.I.I.I.I.I.I.I.I.I.I.I.I.I.I.I.I.I.I.I.I.I.I.I.I.I.I.I.I.I.I.I.I.I.I.I.I.I.I.I.I.I.I.I.I.I.I.I.I.I.I.I.I.I.I.I.I.I.I.I.I.I.I.I.I.I.I.I.I.I.I.I.I.I.I.I.I.I.I.I.I.I.I.I.I.I.I.I.I.I.I.I.I.I.I.L.Y.I.R.A.k B v R >.' *.o.%.,.I t x t J N j } ;.X.O.u.r.a.q.q.t.i.lXa.y.6.O.X.X.t.t.t.t.t.u.+.lXa.s.s.mXmXmXzXs.w.s.NXNXNXzXs.d.s.BXBXVXBXmXBXBXs.w.e.w.s.zXlXxXNXHXkXO.;.Q @.-.X.4.NXBXZXmXSXBXnXp.y.q.e.e.s.w.w.e.y.e.y.w.d.BXBXVXzXs.s.s.nXmXMXSXBXBXCXJXJXJXCXhXxXxXe.e.r.e.e.q.e.9.w.a.lXNXCXCXBXNXCXSXZXVXVXVXBXBXmXs.w.r.e.y.r.9.a.s.s.y.q.r.w.mXBXBXNXhX0.lXq.e.u.a.BXmXVXmXNXNXNXJXJXJXbXd.a.w.BXmXmXnXw.p.a.d.w.e.e.e.e.w.mXmXnXnXzXjXlXO.X.;.=.~ !  .Z.D.D.I.I.I.Q.U.I.I.I.I.I.P.I.P.I.I.I.I.I.I.I.I.I.I.I.I.I.I.I.I.I.I.I.I.I.I.I.I.I.I.I.I.I.I.I.I.I.I.I.I.I.I.I.I.I.I.I.I.I.I.I.I.I.I.I.I.I.I.I.I.I.I.I.I.I.I.I.I.I.I.I.I.I.I.I.I.I.I.I.I.I.I.I.I.I.I.I.I.I.I.I.I.I.I.I.I.I.I.I.I.I.I.I.I.I.I.I.I.I.I.I.I.I.I.I.I.I.I.I.I.I.I.I.I.I.I.I.I.I.I.I.I.I.I.I.I.I.I.I.I.I.I.I.I.I.I.I.I.I.I.I.I.I.I.I.I.I.I.I.I.I.I.I.I.I.I.I.I.I.I.I.I.I.I.I.I.I.I.I.I.I.I.I.I.I.I.I.I.I.I.I.I.I.I.I.I.I.I.I.I.I.I.I.I.I.I.I.I.I.I.I.I.I.I.I.I.I.I.I.I.I.I.I.I.I.I.I.I.I.I.I.I.I.I.I.I.I.I.I.I.I.I.I.I.I.I.I.I.I.I.I.I.I.I.I.I.I.I.I.I.I.I.I.I.I.I.I.I.I.I.I.I.I.I.I.I.I.I.I.I.I.I.I.I.I.I.I.I.I.I.I.I.I.I.I.I.I.I.I.I.I.I.I.I.I.I.I.I.I.I.I.I.I.I.I.I.I.I.I.I.I.I.I.I.I.I.I.I.I.I.I.I.I.I.I.I.I.I.I.I.I.I.I.I.I.I.I.I.I.I.I.I.I.I.I.I.I.I.I.I.I.I.I.I.I.I.I.I.I.I.I.I.I.I.I.I.I.I.I.I.I.I.I.I.I.I.I.I.I.I.I.I.I.I.I.I.I.I.I.I.I.I.I.I.I.I.I.I.I.I.I.I.I.I.I.I.I.I.I.I.I.I.I.I.I.I.I.I.I.I.I.I.I.I.I.I.I.I.I.I.I.I.I.I.I.I.I.I.I.I.I.I.I.I.I.I.I.I.I.I.I.I.I.I.I.I.I.I.I.I.",
").).).)._._._._.).).).).).).).).).).).).).).).)._._.).).).).).).).)._._.).).).).).).).).).).).).).).).)._._._._.).).).).).).).).).).).).).).).)._._.).).).).).).).)._._.).).).).).).).).).).).).).).).)._._._._.).).).).).).).).).).).).).).).)._._.).).).).).).).)._._.).).).).).).).).).).).]..X|.).dXZ.B B v / =.^ =.o.o.,.I v J L :.:.| t.lXu.t.lXy.u.7.P Q 8.t.r.9.a.y.jXlXO.P ^ / ^ X.Y cXJXBXnXw.i.w.nXCXJXNX} F F kXCXCXBXZXBXBXzX9.d.d.CXZXZXZXBXZXNX} F P O.t.zXzXCXZXBXBXZXBXBXs.9.q.r.q.r.e.mXVXZXCXw.e.y.q.y.e.w.BXBXVXBXBXCXmXs.w.w.s.SXBXBXBXBXCXJXJXJXJXxXw.r.r.y.u.a.y.w.u.6.P ~ ~ ~ ~ ~ ~ 6.6.q.q.7.q.y.q.q.y.y.u.a.w.BXBXCXNXd.e.d.mXVXAXJXJXJXJXzXw.u.q.e.9.q.O.8.Y } NXNXCXzXd.y.9.a.w.w.s.CXBXBXs.e.y.y.y.e.i.p.w.d.s.BXBXZXzXu.lXkXo.o.:.>X|.|.|._.).|.~.|.|.|.|.|.|.`.`.).).).)._._._._.).).).).).).).).).).).).).).).)._._.).).).).).).).)._._.).).).).).).).).).).).).).).).)._._._._.).).).).).).).).).).).).).).).)._._.).).).).).).).)._._.).).).).).).).).).).).).).).).)._._._._.).).).).).).).).).).).).).).).)._._.).).).).).).).)._._.).).).).).).).).).).).).).).).)._._._._.).).).).).).).).).).).).).).).)._._.).).).).).).).)._._.).).).).).).).).).).).).).).).)._._._._.).).).).).).).).).).).).).).).)._._.).).).).).).).)._._.).).).).).).).).).).).).).).).)._._._._.).).).).).).).)._._.).).).).).).).)._._.).).).)._.).).).).).).).).)._._.).).).)._._.).).).).).).).)._._.).).).)._.).).).).).).).).)._._.).).).)._._.).).).).).).).)._._.).).).)._.).).).).).).).).)._._.).).).)._._.).).).).).).).)._._.).).).)._.).).).).).).).).)._._.).).).).).).).)._._._._.).).).).).).).).).).).).).).).)._._.).).).).).).).)._._.).).).).).).).).).).).).).).).)._._._._.).).).).).).).).).).).).).).).)._._.).).).).).).).).",
"|.|.|.|.|.|.|.|.|.|.|.|.|.|.|.|.|.|.|.|.|.|.|.|.|.|.|.|.|.|.|.|.|.|.|.|.|.|.|.|.|.|.|.|.|.|.|.|.|.|.|.|.|.|.|.|.|.|.|.|.|.|.|.|.|.|.|.|.|.|.|.|.|.|.|.|.|.|.|.|.|.|.|.|.|.|.|.|.|.|.|.|.|.|.|.|.|.|.|.|.|.|.|.|.|.|.|.|.|.|.|.|.|.|.|.|.|.|.|.|.|.|.|.|.|.|.|.|.|.|.|.|.|.|.|.|.|.|.|.|.|.|.|.|. X X`.aX#XB B j Q =.W -.%.^ ,.L v v D @.-.~ 6.a.r.r.y.q.jX6.Q >.Q kXjXe.r.e.y.jXO.W 2.] ) W Y HXJXBXBXi.u.i.nXBXCXCXF ( Y cXJXBXAXBXAXCXzX9.y.w.BXBXAXVXAXJXJX} ^ Q 5.jXy.d.SXBXBXBXVXBXZXs.w.u.r.y.q.d.mXVXAXmXw.y.y.q.y.e.w.BXBXBXVXAXVXVXw.q.7.a.BXVXBXBXBXBXJXLXLXJXxXi.y.r.w.w.e.r.w.lXjXP @.%.=.*.W O.lXlXr.r.9.e.e.e.a.a.p.e.r.d.BXVXZXmXw.y.d.mXBXAXJXLXLXLXxX9.y.y.r.e.xX5.~ U } JXZXZXzXw.y.r.q.9.9.zXVXBXBXw.w.r.w.e.i.y.r.r.9.s.VXBXVXs.w.lXt.X.~ $.>X^.^.^.].].].|.|.|.).).~.~.~.~.|.|.|.|.|.|.|.|.|.|.|.|.|.|.|.|.|.|.|.|.|.|.|.|.|.|.|.|.|.|.|.|.|.|.|.|.|.|.|.|.|.|.|.|.|.|.|.|.|.|.|.|.|.|.|.|.|.|.|.|.|.|.|.|.|.|.|.|.|.|.|.|.|.|.|.|.|.|.|.|.|.|.|.|.|.|.|.|.|.|.|.|.|.|.|.|.|.|.|.|.|.|.|.|.|.|.|.|.|.|.|.|.|.|.|.|.|.|.|.|.|.|.|.|.|.|.|.|.|.|.|.|.|.|.|.|.|.|.|.|.|.|.|.|.|.|.|.|.|.|.|.|.|.|.|.|.|.|.|.|.|.|.|.|.|.|.|.|.|.|.|.|.|.|.|.|.|.|.|.|.|.|.|.|.|.|.|.|.|.|.|.|.|.|.|.|.|.|.|.|.|.|.|.|.|.|.|.|.|.|.|.|.|.|.|.|.|.|.|.|.|.|.|.|.|.|.|.|.|.|.|.|.|.|.|.|.|.|.|.|.|.|.|.|.|.|.|.|.|.|.|.|.|.|.|.|.|.|.|.|.|.|.|.|.|.|.|.|.|.|.|.|.|.|.|.|.|.|.|.|.|.|.|.|.|.|.|.|.|.|.|.|.|.|.|.|.|.|.|.|.|.|.|.|.|.|.|.|.|.|.|.|.|.|.|.|.|.|.|.|.|.|.|.|.|.|.|.|.|.|.|.|.|.|.|.|.|.|.|.|.|.|.|.|.|.|.|.|.|.|.|.|.|.|.|.|.|.|.|.|.|.|.|.|.|.|.|.|.|.|.|.|.|.|.|.|.|.|.|.|.|.|.|.|.|.|.|.|.|.|.|.|.|.|.|.|.|.|.|.|.|.|.|.|.|.|.|.|.|.|.|.|.|.|.|.|.|.|.|.|.|.|.|.|.|.|.|.|.|.|.|.|.|.|.|.|.|.|.|.|.|.|.|.|.|.|.|.|.|.|.|.|.|.|.|.|.|.|.|.|.|.|.|.|.|.|.",
"~.~.~.~.~.~.~.~.~.~.~.~.~.~.~.~.~.~.~.~.~.~.~.~.^.~.~.~.~.~.~.~.~.~.~.~.~.~.~.~.~.~.~.~.~.~.~.~.~.~.~.~.~.~.~.~.~.~.~.~.~.~.~.~.~.~.~.~.~.~.~.~.^.~.~.~.~.~.~.~.~.~.~.~.~.~.~.~.~.~.~.~.~.~.~.~.~.~.~.~.~.~.~.~.~.~.~.~.~.~.~.~.~.~.~.~.~.~.~.~.^.~.~.~.~.~.~.~.~.~.~.~.~.~.~.~.~.~.~.~.~.~.~.).(.`./.dXZ.B B v $.3.=.2.1.1.3.Y t z D <.>.~ q.a.p.a.a.r.zXi.~ 1.O.jXu.e.r.q.y.jXQ Y ' ' ~ Y F cXJXSXNX+.q.9.BXZXVXJXF _ E cXCXBXVXBXAXZXzX+.q.d.ZXZXVXZXBXCXJX} U Y ;.kXq.+.CXCXZXVXZXCXJXw.7.q.q.q.q.d.mXZXZXZXd.e.y.e.y.w.d.CXZXVXZXAXSXVX9.9.9.zXZXZXZXVXVXZXJXLXLXJXxX+.q.9.e.y.q.y.r.y.kXF ~ ~ ' ' Y ~ jXu.e.r.e.r.y.r.r.r.q.6.q.7.mXVXBXnX+.q.d.mXJXCXJXLXLXJXa.7.q.q.e.e.u.;.Y U } JXBXVXzXd.q.y.e.a.d.zXZXBXBXs.a.a.a.a.a.a.9.q.9.s.JXCXZXs.i.jX6.Q ! 4X>X|.^.~.|.|.`. XXXXXXXXX X`.).~.~.~.~.~.~.~.~.~.~.~.~.~.~.~.~.~.~.~.~.~.~.~.~.~.^.~.~.~.~.~.~.~.~.~.~.~.~.~.~.~.~.~.~.~.~.~.~.~.~.~.~.~.~.~.~.~.~.~.~.~.~.~.~.~.~.~.~.~.~.~.~.~.^.~.~.~.~.~.~.~.~.~.~.~.~.~.~.~.~.~.~.~.~.~.~.~.~.~.~.~.~.~.~.~.~.~.~.~.~.~.~.~.~.~.~.~.~.~.~.~.^.~.~.~.~.~.~.~.~.~.~.~.~.~.~.~.~.~.~.~.~.~.~.~.~.~.~.~.~.~.~.~.~.~.~.~.~.~.~.~.~.~.~.~.~.~.~.~.^.~.~.~.~.~.~.~.~.~.~.~.~.~.~.~.~.~.~.~.~.~.~.~.~.~.~.~.~.~.~.~.~.~.~.~.~.~.~.~.~.~.~.~.~.~.~.~.^.~.~.~.~.~.~.~.~.~.~.~.~.~.~.~.~.~.~.~.~.~.~.~.~.~.~.~.~.~.~.~.~.~.~.~.~.~.~.~.^.~.~.~.~.~.~.~.~.~.~.~.~.~.~.~.^.^.~.~.~.~.~.~.~.~.~.~.~.~.~.~.^.~.~.~.~.~.~.~.~.~.~.~.~.~.~.~.^.^.~.~.~.~.~.~.~.~.~.~.~.~.~.~.^.~.~.~.~.~.~.~.~.~.~.~.~.~.~.~.^.^.~.~.~.~.~.~.~.~.~.~.~.~.~.~.^.~.~.~.~.~.~.~.~.~.~.~.~.~.~.~.^.^.~.~.~.~.~.~.~.~.~.~.~.~.~.~.~.~.~.~.~.~.~.~.~.~.~.~.~.~.~.~.~.~.~.~.~.~.~.~.^.~.~.~.~.~.~.~.~.~.~.~.~.~.~.~.~.~.~.~.~.~.~.~.~.~.~.~.~.~.~.~.~.~.~.~.~.~.~.~.~.~.~.~.~.~.~.~.^.~.~.~.~.~.~.~.~.~.",
").).).).).).).).).).).).).).).).).).).).).).).).).).).).).).).).).).).).).).).).).).).).).).).).).).).).).).).).).).).).).).).).).).).).).).).).).).).).).).).).).).).).).).).).).).).).).).).).).).).).).).).).).).).).).).)._.^.^.^._._._.).`.`.`.`.`._._._._.).).).).~.^.^.^.^.^.^.^.^.^.).).).).).dX>Xj c v J J L L K K K L v v G :.-.-.;.;.5.;.,.3.6.O.G K D lXe.e.a.e.u.lX6.i.5.t.xXxXxXNXVXSXBXMXmXNXkX5.tX5.i.d.+.zXCXBXBXBXBXBXmXmXSXNX4.6.4.i.zXzXs.w.9.+.w.NXmXmXs.a.a.a.s.zXs.nXnXnXnXmXMXmXkX+.tX6.u.w.q.e.e.y.jX6.6.4.xXJXmXBXCXNXNXNXs.zXa.zXs.s.bXJXCXCXSXMXBXbXd.r.r.e.y.y.q.6.6.6.6.6.+.9.u.e.u.e.y.y.e.r.u.e.a.NXbXmXBXSXCXBXnXbXmXs.zXs.bXZXVXBXJXHXHXNXi.y.y.q.i.0.0.CXmXCXzXd.u.u.u.y.d.s.BXCXJX+.O.3.;.;.3.X.nXmXMXnXa.zXp.p.w.a.kX~ ! :.>X^.|.~..X!.aXA.C C l.aX|.).(.`.).).).).).).).).).).).).).).).).).).).).).).).).).).).).).).).).).).).).).).).).).).).).).).).).).).).).).).).).).).).).).).).).).).).).).).).).).).).).).).).).).).).).).).).).).).).).).).).).).).).).).).).).).).).).).).).).).).).).).).).).).).).).).).).).).).).).).).).).).).).).).).).).).).).).).).).).).).).).).).).).).).).).).).).).).).).).).).).).).).).).).).).).).).).).).).).).).).).).).).).).).).).).).).).).).).).).).).).).).).).).).).).).).).).).).).).).).).).).).).).).).).).).).).).).).).).).).).).).).).).).).).).).).).).).).).).).).).).).).).).).).).).).).).).).).).).).).).).).).).).).).).).).).).).).).).).).).).).).).).).).).).).).).).).).).).).).).).).).).).).).).).).).).).).).).).).).).).).).).).).).).).).).).).).).).).).).).).).).).).).).).).).).).).).).).).).).).).).).).).).).).).).).).).).).).).).).).).).).).).).).).).).).).).).).).).).).).).).).).).).).).).).).).).).).).).).).).).).).).).).).).).).).).).",
").).).).).).).).).).).).).).).).).).).).).).).).).).).).).).).).).).).).).).).).).).).).).).).).).).).).).).).).).).).).).).).).).).).).).).).).).).).).).).).).).).).).).).).).).).).).).).).).).).).).).).).).).).).).).).).).).}.}.).].~.~.~.^.^.^.^.~.~.~.).`.`.`.`.`._._._._._._._._._.).).).).).dX>Xk n z l l r l b b l r M t G :._ ( _ *.Q Q / / $.K q l u xXu.q.r.r.r.e.lXlXw.zXZXZXAXZXVXBXBXmXBXCX4.E Y X.jXlXw.nXZXSXBXBXCXCXBXVXZXJXY ~ Y ;.t.t.u.e.a.p.bXZXVXBXs.d.9.q.i.i.d.NXZXZXZXZXVXCX6.F Q Y lXp.y.r.q.u.t.~ ~ F 4.JXAXCXLXLXLXHX0.q.6.q.q.9.w.BXBXBXVXBXZXBXd.r.e.w.p.a.a.p.a.a.a.a.y.y.y.e.e.e.e.y.e.r.r.d.bXZXVXVXVXBXZXAXVXCXCXw.9.9.s.CXSXBXJXLXLXJX0.e.y.r.y.e.w.CXBXVXzX9.r.e.e.r.9.bXZXCXJX} Y ! Q Q ' Y NXZXBXmX0.q.9.q.9.u.kX~ o.:.>X/._.~.^./.dXx.j v B >X>X^.].].~.).).).).).).).).).).).).).).).).).).).).).).).).).).).).).).).).).).).).).).).).).).).).).).).).).).).).).).).).).).).).).).).).).).).).).).).).).).).).).).).).).).).).).).).).).).).).).).).).).).).).).).).).).).).).).).).).).).).).).).).).).).).).).).).).).).).).).).).).).).).).).).).).).).).).).).).).).).).).).).).).).).).).).).).).).).).).).).).).).).).).).).).).).).).).).).).).).).).).).).).).).).).).).).).).).).).).).).).).).).).).).).).).).).).).).).).).).).).).).).).).).).).).).).).).).).).).).).).).).).).).).).).).).).).).).).).).).).).).).).).).).).).).).).).).).).).).).).).).).).).).).).).).).).).).).).).).).).).).).).).).).).).).).).).).).).).).).).).).).).).).).).).).).).).).).).).).).).).).).).).).).).).).).).).).).).).).).).).).).).).).).).).).).).).).).).).).).).).).).).).).).).).).).).).).).).).).).).).).).).).).).).).).).).).).).).).).).).).).).).).).).).).).).).).).).).).).).).).).).).).).).).).).).",
").).).).).).).).).).).).).).).).).).).).).).).).).).).).).).).).).).).).).).).).).).).).).).).).).).).).).).).).).).).).).).).).).).).).).).).).).).).).).).).).).).).).).).).).).).).).).).).).).).).).).).).).).).).).).).)._.^.^.^.^.^.^.^.^._._._._._._.)._.^.^.^./.^.^.^.^.^.^.^._.).).).).).).).dX>Xk x z m c c m m c z z n z G <._ ' _ ` Q &.] 2.1.U t M u xXzXa.p.p.e.y.q.r.9.p.VXVXSXVXBXVXVXVXZXCX6.F ! 1.jXa.d.f.VXVXVXVXCXCXAXSXVXCXX.! ~ 5.y.r.e.y.e.i.zXCXBXCXa.7.u.u.y.9.d.nXZXSXAXAXZXJXtXY ` ( jXq.q.q.9.a.jXP ! F i.JXVXBXJXLXLXNXd.9.r.r.9.d.s.ZXVXBXVXBXBXmXi.r.r.e.e.r.e.r.r.e.e.e.9.r.r.p.p.p.r.e.e.u.y.w.bXZXZXVXVXVXVXAXSXBXVXs.w.d.s.VXAXAXJXJXLXJX0.y.q.e.r.w.w.VXBXCXzX9.e.e.e.y.w.zXZXCXHX} Q ` ] _ ` Y CXJXZXBX0.a.e.y.e.jXkX~ o.$.>X~.|.|.|.|.].A.k l C >XpXXX(.(.).).).).).).).).).).).).).).).).).).).).).).).).).).).).).).).).).).).).).).).).).).).).).).).).).).).).).).).).).).).).).).).).).).).).).).).).).).).).).).).).).).).).).).).).).).).).).).).).).).).).).).).).).).).).).).).).).).).).).).).).).).).).).).).).).).).).).).).).).).).).).).).).).).).).).).).).).).).).).).).).).).).).).).).).).).).).).).).).).).).).).).).).).).).).).).).).).).).).).).).).).).).).).).).).).).).).).).).).).).).).).).).).).).).).).).).).).).).).).).).).).).).).).).).).).).).).).).).).).).).).).).).).).).).).).).).).).).).).).).).).).).).).).).).).).).).).).).).).).).).).).).).).).).).).).).).).).).).).).).).).).).).).).).).).).).).).).).).).).).).).).).).).).).).).).).).).).).).).).).).).).).).).).).).).).).).).).).).).).).).).).).).).).).).).).).).).).).).).).).).).).).).).).).).).).).).).).).).).).).).).).).).).).).).).).).).).).).).).).).).).).).).).).).).).).).).).).).).).).).).).).).).).).).",
").).).).).).).).).).).).).).).).).).).).).).).).).).).).).).).).).).).).).).).).).).).).).).).).).).).).).).).).).).).).).).).).).).).).).).).).).).).).).).).).).).).).).).).).).).).).).).).).).).).).).).).).).).).).).).).^.^.^.^.).).).}.{.{.{.{.}.}.}.].].{.(.(.(.}.}.).).).).~.~.~.~.~.~.)._._.dX>Xk n z x z z z n x z m v w D $.X.X.o.o.;.,./ / $.I G G D kXjXt.i.y.e.y.w.p.r.s.mXBXVXBXZXJXCXBXCXNXkXO.X.O.i.s.w.nXCXCXZXVXZXZXVXVXCXJX} U U 5.jXjXjXjXt.i.s.BXBXBXzXd.w.w.w.s.s.nXCXCXZXCXCXNX0.} } } lXr.r.r.q.y.t.O.Q } 0.NXCXJXLXLXJXNXxXw.q.q.t.y.s.VXSXmXBXBXBXmXw.y.u.u.u.e.w.e.u.e.e.i.y.a.9.y.i.y.a.y.i.u.e.i.mXSXBXBXBXCXCXZXZXBXmXs.w.i.zXCXCXCXJXJXLXJX0.u.a.e.q.r.s.CXBXCXzXw.s.u.w.e.d.zXCXBXNX} X.o.X.Q X.} NXBXBXmXd.e.r.y.e.u.t.P o.:.>X/._._./.E.>XA.B B C >X>X/.~. X).).).).).).).).).).).).).).).).).).).).).).).).).).).).).).).).).).).).).).).).).).).).).).).).).).).).).).).).).).).).).).).).).).).).).).).).).).).).).).).).).).).).).).).).).).).).).).).).).).).).).).).).).).).).).).).).).).).).).).).).).).).).).).).).).).).).).).).).).).).).).).).).).).).).).).).).).).).).).).).).).).).).).).).).).).).).).).).).).).).).).).).).).).).).).).).).).).).).).).).).).).).).).).).).).).).).).).).).).).).).).).).).).).).).).).).).).).).).).).).).).).).).).).).).).).).).).).).).).).).).).).).).).).).).).).).).).).).).).).).).).).).).).).).).).).).).).).).).).).).).).).).).).).).).).).).).).).).).).).).).).).).).).).).).).).).).).).).).).).).).).).).).).).).).).).).).).).).).).).).).).).).).).).).).).).).).).).).).).).).).).).).).).).).).).).).).).).).).).).).).).).).).).).).).).).).).).).).).).).).).).).).).).).).).).).).).).).).).).).).).).).).).).).).).).).).).).).).).).).).).).).).).).).",
").).).).).).).).).).).).).).).).).).).).).).).).).).).).).).).).).).).).).).).).).).).).).).).).).).).).).).).).).).).).).).).).).).).).).).).).).).).).).).).).).).).).).).).).).).).).).).).).).).).).).).).).).).).).).~.~.).).).).).).).).).~.~.~.~.^.^.^.^.^._._.^._._._._.^.^.~.~.]..X.X~.).).).dX>Xk x z n x m z c m z K ,.@.;.jXu.u.u.a.u.i.D v v z l l e b e u { jXe.w.CXZXCXnXi.i.t.O.F ~ ~ ~ Q O.5.t.jXu.y.t.t.;.P ~ ~ ~ ~ ~ ~ ~ ~ P jXjXr.y.a.r.9.9.r.w.zXZXVXZXBXBXZXVXBXCXNX4.Y ~ F 8.~ } xXNXJXJXBXVXVXZXZXZXZXCXCXJXkX} ~ ~ ~ ~ Y tXGXLXLXLXLXLXJXZXBXCXBXBXVXmXd.q.e.e.u.e.e.y.y.r.y.y.u.i.y w w ..u.r.r.p.r.u.;.Y Y Q Q Y Y 4.JXmXVXVXBXSXMXd.d.d.nXCXZXZXSXBXVXzXw.i.9.e.w.d.mXBXBXBXs.r.w.zXVXVXZXw.y.u.a.lXjXq.a.w.w.w.y.a.r.r.w.u.t.~ &.:.>X/.dX>XC x H L -.*.| L z b l.E.^.).).).).).).).).).).).).).).).).).).).).).).).).).).).).).).).).).).).).).).).).).).).).).).).).).).).).).).).).).).).).).).).).).).).).).).).).).).).).).).).).).).).).).).).).).).).).).).).).).).).).).).).).).).).).).).).).).).).).).).).).).).).).).).).).).).).).).).).).).).).).).).).).).).).).).).).).).).).).).).).).).).).).).).).).).).).).).).).).).).).).).).).).).).).).).).).).).).).).).).).).).).).).).).).).).).).).).).).).).).).).).).).).).).).).).).).).).).).).).).).).).).).).).).).).).).).).).).).).).).).).).).).).).).).).).).).).).).).).).).).).).).).).).).).).).).).).).).).).).).).).).).).).).).).).).).).).).).).).).).).).).).).).).).).).).).).).).).).).).).).).).).).).).).).).).).).).).).).).).).).).).).).).).).).).).).).).).).).).).).).).).).).).).).).).).).).).).).).).).).).).).).).).).).).).).).).).).).).).).).).).).).).).).).).).).).).).).).).).).).).).).).).).).).).).).).).).).).).).).).).).).).).).).",
").).).).).).).).).).).).).).).).).).).).).).).).).).).).).).).).).).).).).).).).).).).).).).).).).).).).).).).).).).).).).).).).).).).).).).).).).).).).).).).).).).).).).).).).).).).).).).).).).).).).).).).).).).).).).~.~.).`.`._._._.^.^.^.^._._.).`.`.`.`.)._._._.).).).).).).).).^.^.^.~.).}.}.dX>Xk x z m z m v c G G R >.! O.jXr.r.p.r.a.lXy l l m J J J T z q { xXu.0.BXAXZXmXi.u.lXo.! ] ] ` ~ ~ 6.zXw.p.w.e.jX5.~ ] =.*.%.*._ _ ( Q u.p.w.r.e.e.y.y.e.d.s.CXBXBXAXVXAXSXAXJXJX4.Y ] 8X8X' Y xXZXAXAXVXVXAXVXBXSXAXVXVXJXkXF ~ =.` 3.E hXLXLXLXPXLXJXJXCXAXAXAXSXVXmXw.r.r.r.r.e.e.r.e.9.r.y.a.lXt v 0 ..lXr.9.r.9.y.t.Q W &.` ` ~ tXJXAXAXAXCXJXNX4.u.q.mXVXSXAXBXBXZXbXw.u.y.y.r.9.bXVXZXBXw.9.i.zXVXBXVXd.w.w.r.e.y.y.r.q.y.q.y.q.r.r.e.jXkX~ ! R >X~.|.R.k q D } -.-.| D w l Z.pX^.).).).).).).).).).).).).).).).).).).).).).).).).).).).).).).).).).).).).).).).).).).).).).).).).).).).).).).).).).).).).).).).).).).).).).).).).).).).).).).).).).).).).).).).).).).).).).).).).).).).).).).).).).).).).).).).).).).).).).).).).).).).).).).).).).).).).).).).).).).).).).).).).).).).).).).).).).).).).).).).).).).).).).).).).).).).).).).).).).).).).).).).).).).).).).).).).).).).).).).).).).).).).).).).).).).).).).).).).).).).).).).).).).).).).).).).).).).).).).).).).).).).).).).).).).).).).).).).).).).).).).).).).).).).).).).).).).).).).).).).).).).).).).).).).).).).).).).).).).).).).).).).).).).).).).).).).).).).).).).).).).).).).).).).).).).).).).).).).).).).).).).).).).).).).).).).).).).).).).).).).).).).).).).).).).).).).).).).).).).).).).).).).).).).).).).).).).).).).).).).).).).).).).).).).).).).).).).).).).).).).).).).).).).).).).).).).).).).).).).).).).).).).).).).).).).).).).).).).).).).).).).).).).",
").).).).).).).).).).).).).).).).).).).).).).).).).).).).).).).).).).).).).).).).).).).).).).).).).).).).).).).).).).).).).).).).).).).).).).).).).).).).).).).).).).).).).).).).).).).).).).).).).).).).).).).).).).).).).).).).).}.}.}.}.}.{.{.}.{.{.{.{.{.{.{.[.[.[.[.[.[.[.[.{.{.`.)._.^.^.^.).).).].>Xk n z l r l r l l q K >.W O.jXu.u.y.u.e.kXq j 0 0 0 u u 0 q u H xXi.d.BXBXVXnX9.q.jXO.Y ' / / Q ~ 5.jX9.r.u.u.jX5.Y / Q ~ ~ Q / / Q ~ jXy.r.q.q.q.q.q.u.w.zXZXCXJXCXJXJXZXZXCXCX4.F W U U / F xXCXmXBXBXVXBXBXBXVXZXAXJXJXcXW *./ ~ Y Y uXLXLXLXLXLXLXJXJXZXZXZXVXZXBXw.y.y.u.a.y.e.y.a.e.u.e.e.lXy J 0 ..lXr.e.y.e.lX5.Y Q Q Q ^ Y 4.JXZXZXVXVXVXMXd.d.0.mXCXBXBXBXmXCXzXi.y.u.e.y.d.nXZXCXCXw.i.i.s.ZXCXCXs.a.u.u.e.y.e.e.9.e.e.y.y.r.r.q.u.t.8.~ R dXsXsXdXB l r K :.:. .G t B A.pX^.).).).).).).).).).).).).).).).).).).).).).).).).).).).).).).).).).).).).).).).).).).).).).).).).).).).).).).).).).).).).).).).).).).).).).).).).).).).).).).).).).).).).).).).).).).).).).).).).).).).).).).).).).).).).).).).).).).).).).).).).).).).).).).).).).).).).).).).).).).).).).).).).).).).).).).).).).).).).).).).).).).).).).).).).).).).).).).).).).).).).).).).).).).).).).).).).).).).).).).).).).).).).).).).).).).).).).).).).).).).).).).).).).).).).).).).).).).).).).).).).).).).).).).).).).).).).).).).).).).).).).).).).).).).).).).).).).).).).).).).).).).).).).).).).).).).).).).).).).).).).).).).).).).).).).).).).).).).).).).).).).).).).).).).).).).).).).).).).).).).).).).).).).).).).).).).).).).).).).).).).).).).).).).).).).).).).).).).).).).).).).).).).).).).).).).).).).).).).).).).).).).).).).).).).).).).).).).).).).).).).).).).).).).).).).).).).).).).).).).).).).).).).).).).).).).).).).).).).).).).).).).).).).",
").).).).).).).).).).).).).).).).).).).).).).).).).).).).).).).).).).).).).).).).).).).).).).).).).).).).).).).).).).).).).).).).).).).).).).).).).).).).).).).).).).).).).).).).).).).).).).).).).).).).).).).).).).).).).).).^.^.^.^._.`.`.`.`._.^.dX>X>X>X,X&X&X&X,X,X,X>X>X>X>XdX^.~.].{.{.{.}.}.).dX>Xj c v { K } I I I L :.-.P O.jXu.r.y.r.r.zX} ....4.hXhXhX....} +.lXq.w.BXBXVXmXd.w.lX5.5.6.5.6.6.+.i.u.u.u.e.e.p.i.+.6.6.5.6.6.6.6.5.+.u.e.e.a.zXbXzXa.y.9.p.nXzXnXu.i.t.kXkX0.kX4.;.6.5.5.tXO.nXZXAXBXBXBXVXBXBXCXNXh.h.4.4.;.6.4.6.6.5.4.cXhXvXvXhXkXlXzXzXzXnXnXzXlX+.7.5.q.u.u.e.r.r.w.a.y.y.lXu c 0 ..lXe.e.a.9.y.t.+.6.5.5.6.;.kXkXhXi.i.kX0.xXxXnXzXBXVXSXBXBXBXVXbXd.r.w.w.a.9.a.nXzXmXs.zXzXnXMXbXnX9.y.e.y.u.e.e.zXzXnXs.w.w.r.y.e.lXjXO.6.tXT C x.#XJ I Y Q =.=.$.D G B A.pX~.).).).).).).).).).).).).).).).).).).).).).).).).).).).).).).).).).).).).).).).).).).).).).).).).).).).).).).).).).).).).).).).).).).).).).).).).).).).).).).).).).).).).).).).).).).).).).).).).).).).).).).).).).).).).).).).).).).).).).).).).).).).).).).).).).).).).).).).).).).).).).).).).).).).).).).).).).).).).).).).).).).).).).).).).).).).).).).).).).).).).).).).).).).).).).).).).).).).).).).).).).).).).).).).).).).).).).).).).).).).).).).).).).).).).).).).).).).).).).).).).).).).).).).).).).).).).).).).).).).).).).).).).).).).).).).).).).).).).).).).).).).).).).).).).).).).).).).).).).).).).).).).).).).).).).).).).).).).).).).).).).).).).).).).).).).).).).).).).).).).).).).).).).).).).).).).).).).).).).).).).).).).).).).).).).).).).).).).).).).).).).).).).).).).).).).).).).).).).).).).).).).).).).).).).).).).).).).).).).).).).).).).).).).).).).).).).).).).).).).).).).).).).).).).).).).).).).).).).).).).).).).).).).",
").).).).).).).).).).).).).).).).).).).).).).).).).).).).).).).).).).).).).).).).).).).).).).).).).).).).).).).).).).).).).).).).).).).).).).).).).).).).).).).).).).).).).).).).).).).).).).).).).).).).).).).).).).).).).).).).{.}.).).].~.^.^.].!.|.>X/ [ ] [ [ ] [ [ [ o.;X>XdX`.}.)._.`.`._. X(.`.pX>XZ x t | ,.&.1.1.3.1.1.( @.} jXt.y.y.r.w.w.zXzXs.mXZXVXZXzXlXlXr.r.r.d.BXBXZXmXw.y.e.a.a.a.a.a.a.a.a.r.r.r.r.r.r.y.y.p.a.p.a.a.a.a.a.a.e.y.9.nXZXZXCXs.w.y.e.9.q.t.~ Y ~ Y ~ ~ Y tXlXp.a.a.a.w.mXVXSXBXBXCXmXVXSXBXJX+ 0 u } zXlXp.a.r.a.5.F Y ~ ~ ~ F O.t.t.q.9.9.u.6.Y ~ ~ 6.lXe.w.w.y.q.y.e.a.u.w m q ..lXw.w.u.9.y.a.a.p.p.p.a.a.q.F ~ ~ [ ~ F } JXZXVXVXBXBXBXVXBXVXs.d.r.y.u.e.e.q.q.q.9.CXZXZXnX+.q.q.y.w.y.r.y.u.d.ZXZXBXBXd.y.y.y.y.r.y.a.s.zX{ w D F 1.] 1.2.*.@.$.D m k A.dX^.).).).).).).).).).).).).).).).).).).).).).).).).).).).).).).).).).).).).).).).).).).).).).).).).).).).).).).).).).).).).).).).).).).).).).).).).).).).).).).).).).).).).).).).).).).).).).).).).).).).).).).).).).).).).).).).).).).).).).).).).).).).).).).).).).).).).).).).).).).).).).).).).).).).).).).).).).).).).).).).).).).).).).).).).).).).).).).).).).).).).).).).).).).).).).).).).).).).).).).).).).).).).).).).).).).).).).).).).).).).).).).).).).).).).).).).).).).).).).).).).).).).).).).).).).).).).).).).).).).).).).).).).).).).).).).).).).).).).).).).).).).).).).).).).).).).).).).).).).).).).).).).).).).).).).).).).).).).).).).).).).).).).).).).).).).).).).).).).).).).).).).).).).).).).).).).).).).).).).).).).).).).).).).).).).).).).).).).).).).).).).).).).).).).).).).).).).).).).).).).).).).).).).).).).).).).).).).).).).).).).).).).).).).).).).).).).).).).).).).).).).).).).).).).).).).).).).).).).).).).).).).).).).",
").).).).).).).).).).).).).).).).).).).).).).).).).).).).).).).).).).).).).).).).).).).).).).).).).).).).).).).).).).).).).).).).).).).).).).).).).).).).).).).).).).).).).).).).).).).).).).).).).).).).).).).).).).).).).).).~.^.^.^._.`.`.).).}.(.[.>X| 1.) / @.$.>.>.*.| >XdX).).~.~.~.~.].]..X~.|.aX>Xk x t I -.=.) / Q _ _ ) o.O.jXu.e.q.9.r.q.q.9.d.zXBXBXBXw.w.e.q.r.e.9.mXBXVXmX9.q.r.y.y.y.y.r.r.y.e.e.r.e.r.r.y.y.r.r.r.r.r.r.r.r.r.r.r.e.9.zXCXZXCXw.d.r.r.r.y.jXo.W 2.] ] ( P 6.a.r.q.r.9.d.nXZXVXVXAXAXAXVXBXJXJXu l q } lXu.i.p.w.lX6.Q ` 2.] 8X( ;.jXu.u.y.y.jXkXQ ^ Q 6.lXe.e.y.e.y.p.r.a.i.y x 0 ..zXp.r.p.e.u.u.u.e.r.w.u.a.6.X.>.=.&.@.Y 4.JXCXBXBXBXBXBXBXBXZXbXw.r.y.r.e.e.y.w.e.w.BXVXVXbXw.a.y.y.9.q.r.y.q.d.BXVXVXmXd.r.q.q.e.e.r.r.e.lX{ e l v <.*.1.) _ *.$.D t l Z.aX^.).).).).).).).).).).).).).).).).).).).).).).).).).).).).).).).).).).).).).).).).).).).).).).).).).).).).).).).).).).).).).).).).).).).).).).).).).).).).).).).).).).).).).).).).).).).).).).).).).).).).).).).).).).).).).).).).).).).).).).).).).).).).).).).).).).).).).).).).).).).).).).).).).).).).).).).).).).).).).).).).).).).).).).).).).).).).).).).).).).).).).).).).).).).).).).).).).).).).).).).).).).).).).).).).).).).).).).).).).).).).).).).).).).).).).).).).).).).).).).).).).).).).).).).).).).).).).).).).).).).).).).).).).).).).).).).).).).).).).).).).).).).).).).).).).).).).).).).).).).).).).).).).).).).).).).).).).).).).).).).).).).).).).).).).).).).).).).).).).).).).).).).).).).).).).).).).).).).).).).).).).).).).).).).).).).).).).).).).).).).).).).).).).).).).).).).).).).).).).).).).).).).).).).).).).).).).).).).).).).).).).).).).).).).).).).).).).).).).).).).).).).).).).).).).).).).).).).).).).).).).).).).).).",
").).).).).).).).).).).).).).).).).).).).).).).).).).).).).).).).).).).).).).).).).).).).).).).).).).).).).).).).).).).).).).).).).).).).).).).).).).).).).).).).).).).).).).).).).).).).).).).).).).).).).).).).).).).).).).).).^.^._._.`.`.).).}.~.}.>X:.o.W -.Q Q ` ` / :.,XR.^.`.`.`.`.`.`.`._._.|.R.A.k l w | / / ~ #.Q *.Q _ @.X.jXu.w.y.a.9.w.e.w.w.bXBXBXBXs.w.w.e.e.i.0.mXBXBXnXd.e.y.9.e.r.e.e.e.y.e.e.e.e.e.e.e.e.e.y.e.e.e.r.r.r.e.e.w.w.w.zXmXBXCXs.u.u.u.u.e.t.O.X.Q ^ X.X.Q 6.t.9.r.w.w.s.nXZXZXZXVXVXZXZXCXCXNXM q w } u.jXu.u.e.e.5.X.^ @.U Q Y 5.u.u.q.r.e.u.t.8.X.} 5.u.e.u.y.d.a.u.u.lXu.H v v ..kXu.i.lXa.e.y.r.w.e.i.u.u.6.P *.%.o.-.X.4.HXJXZXZXZXVXVXZXCXBXs.w.e.r.r.r.u.e.e.y.p.BXBXVXmXw.e.9.a.w.r.e.9.y.a.mXBXBXmXw.w.a.e.r.r.r.r.q.lXK q z G :.*.1.! #.$.<.G H l Z.aX^.).).).).).).).).).).).).).).).).).).).).).).).).).).).).).).).).).).).).).).).).).).).).).).).).).).).).).).).).).).).).).).).).).).).).).).).).).).).).).).).).).).).).).).).).).).).).).).).).).).).).).).).).).).).).).).).).).).).).).).).).).).).).).).).).).).).).).).).).).).).).).).).).).).).).).).).).).).).).).).).).).).).).).).).).).).).).).).).).).).).).).).).).).).).).).).).).).).).).).).).).).).).).).).).).).).).).).).).).).).).).).).).).).).).).).).).).).).).).).).).).).).).).).).).).).).).).).).).).).).).).).).).).).).).).).).).).).).).).).).).).).).).).).).).).).).).).).).).).).).).).).).).).).).).).).).).).).).).).).).).).).).).).).).).).).).).).).).).).).).).).).).).).).).).).).).).).).).).).).).).).).).).).).).).).).).).).).).).).).).).).).).).).).).).).).).).).).).).).).).).).).).).).).).).).).).).).).).).).).).).).).).).).).).).).).).).).).).).).).).).).).).).).).).).).).).).).).).).).).).).).).).).).).",
").).).).).).).).).).).).).).).).).).).).).).).).).).).).).).).).).).).).).).).).).).).).).).).).).).).).).).).).).).).).).).).).).).).).).).).).).).).).).).).).).).).).).).).).).).).).).).).).).).).).).).).).).).).).).).).).).)._._.)._.^.^.^.^.].>X:.! Q 5.xXa.a.y.r.kXgX2X/.].].].]././.^.^./.^.>X1XhXxXjX;.! &.O.jXu.lX6.W ^ X.jXu.w.zXCXCXZXBXBXBXbXs.p.e.w.w.p.nXCXCXCXBXBXZXCXNXCXCXzXw.r.y.r.y.y.y.r.e.e.e.e.r.r.r.r.y.r.e.r.r.y.r.w.CXVXmXnXw.w.y.9.r.e.r.w.r.a.e.t.lXlXy.u.q.lXu.u.u.u.u.t.;.W U Q Q P Q Q Q @.;.5.jXe.r.a.y.e.r.r.a.y.q.u.u.y.a.a.9.y.r.r.y.r.e.e.u.jXt.u.a.r.r.e.p.lX} u w L U $.| I L y D 0.u.e.y.r.r.p.r.y.u.t.Q =.&.! ( Q ~ -.~ ~ 7.q.q.q.y.u.lXr.q.r.w.e.e.y.r.e.e.9.a.w.w.9.y.r.s.mXBXBXnXw.w.w.w.w.w.zXmXBXNXs.e.y.r.e.w.lX5.W -.$.-.%.X.I t z H t v l A.^.^.).).).).).).).).).).).).).).).).).).).).).).).).).).).).).).).).).).).).).).).).).).).).).).).).).).).).).).).).).).).).).).).).).).).).).).).).).).).).).).).).).).).).).).).).).).).).).).).).).).).).).).).).).).).).).).).).).).).).).).).).).).).).).).).).).).).).).).).).).).).).).).).).).).).).).).).).).).).).).).).).).).).).).).).).).).).).).).).).).).).).).).).).).).).).).).).).).).).).).).).).).).).).).).).).).).).).).).).).).).).).).).).).).).).).).).).).).).).).).).).).).).).).).).).).).).).).).).).).).).).).).).).).).).).).).).).).).).).).).).).).).).).).).).).).).).).).).).).).).).).).).).).).).).).).).).).).).).).).).).).).).).).).).).).).).).).).).).).).).).).).).).).).).).).).).).).).).).).).).).).).).).).).).).).).).).).).).).).).).).).).).).).).).).).).).).).).).).).).).).).).).).).).).).).).).).).).).).).).).).).).).).).).).).).).).).).).).).).).).).).).).).).).).).).).).).).).).).).).).).).).).).).).).",
").).).).).).).).).).).).).).).).).).).).).).).).).).).).).).).).).).).).).).).).).).).).).).).).).).).).).).).).).).).).).).).).).).).).).).).).).).).).).).).).).).).).).).).).).).).).).).).).).).).).).).).).).).).).).).).).~.~._.^.~.~._._.).}.}.>X .W ! 6.u.9.9.9.p.xXgXA.^.`.`.`.^./.~.|.}.).`.R.:XxXa.lX3.Q &.O.a.r.a.O.Q ^ X.jXy.d.MXZXBXCXAXZXVXf.9.q.q.y.e.w.s.BXVXSXAXAXBXBXBXVXVXs.w.r.e.r.r.r.e.r.r.r.r.r.r.r.e.r.e.e.e.e.e.e.e.w.mXVXVXbXw.9.y.y.y.r.r.r.r.y.p.p.9.9.9.p.9.r.e.r.9.9.p.a.5.~ ^ 2.) ! ) ` ^ P X.xXa.y.r.q.q.q.e.r.r.r.e.r.r.w.r.r.r.a.y.y.y.r.r.e.y.u.e.e.r.e.e.e.w.lX..0 l H $.=.3.Y w 0 r hXlXy.e.y.w.r.e.u.u.6.Q >.>._ >.>._ ( Q X.6.lXr.9.e.9.e.e.y.p.r.e.y.r.r.r.y.w.y.r.r.r.y.9.d.BXZXZXnXd.a.y.q.r.9.s.ZXVXZXs.w.e.r.e.w.lXo.~ o.! ( %.$.K l l N z H B Z.aX^.).).).).).).).).).).).).).).).).).).).).).).).).).).).).).).).).).).).).).).).).).).).).).).).).).).).).).).).).).).).).).).).).).).).).).).).).).).).).).).).).).).).).).).).).).).).).).).).).).).).).).).).).).).).).).).).).).).).).).).).).).).).).).).).).).).).).).).).).).).).).).).).).).).).).).).).).).).).).).).).).).).).).).).).).).).).).).).).).).).).).).).).).).).).).).).).).).).).).).).).).).).).).).).).).).).).).).).).).).).).).).).).).).).).).).).).).).).).).).).).).).).).).).).).).).).).).).).).).).).).).).).).).).).).).).).).).).).).).).).).).).).).).).).).).).).).).).).).).).).).).).).).).).).).).).).).).).).).).).).).).).).).).).).).).).).).).).).).).).).).).).).).).).).).).).).).).).).).).).).).).).).).).).).).).).).).).).).).).).).).).).).).).).).).).).).).).).).).).).).).).).).).).).).).).).).).).).).).).).).).).).).).).).).).).).).).).).).).).).).).).).).).).).).).).).).).).).).).).).).).).).).).).).",
").).).).).).).).).).).).).).).).).).).).).).).).).).).).).).).).).).).).).).).).).).).).).).).).).).).).).).).).).).).).).).).).).).).).).).).).).).).).).).).).).).).).).).).).).).).).).).).).).).).).).).).).).).).).).).).~.~.~.~.^.~.~.).`._._.|.>X:.! ! 5.lXa.p.p.lXvXgXD.(.oXoXoX[.[.oXXX[.[.XXR.2XvXu.jX*.U Q ;.jXlXlX4.P X.O.jXlXw.bXVXBXCXBXCXZXnXw.y.w.y.e.w.bXZXJXZXZXZXVXVXVXBXBXw.w.r.y.r.r.r.r.r.y.y.y.r.r.r.e.e.r.r.r.r.r.e.q.w.BXZXVXbXw.9.q.q.9.q.e.q.u.u.u.e.y.a.u.xXu.y.y.y.y.e.y.jX,.Y / ' / ' ' ' ' / Y kXt.e.u.y.u.u.e.e.e.e.e.u.u.u.u.u.e.e.e.e.e.e.e.e.e.y.y.e.e.e.y.y.e.lX..0 r z | %.*.K t r y hXu.9.e.e.e.y.u.u.u.t.Y / / / / / Q ~ W W 6.lXr.q.y.q.e.q.e.y.e.e.r.r.r.e.y.w.r.e.e.y.y.w.d.BXZXCXnXd.9.6.q.y.9.w.BXSXZXs.9.r.y.r.r.lX;.W =.1.=.3.,.I v v v t q q A.dX^.).).).).).).).).).).).).).).).).).).).).).).).).).).).).).).).).).).).).).).).).).).).).).).).).).).).).).).).).).).).).).).).).).).).).).).).).).).).).).).).).).).).).).).).).).).).).).).).).).).).).).).).).).).).).).).).).).).).).).).).).).).).).).).).).).).).).).).).).).).).).).).).).).).).).).).).).).).).).).).).).).).).).).).).).).).).).).).).).).).).).).).).).).).).).).).).).).).).).).).).).).).).).).).).).).).).).).).).).).).).).).).).).).).).).).).).).).).).).).).).).).).).).).).).).).).).).).).).).).).).).).).).).).).).).).).).).).).).).).).).).).).).).).).).).).).).).).).).).).).).).).).).).).).).).).).).).).).).).).).).).).).).).).).).).).).).).).).).).).).).).).).).).).).).).).).).).).).).).).).).).).).).).).).).).).).).).).).).).).).).).).).).).).).).).).).).).).).).).).).).).).).).).).).).).).).).).).).).).).).).).).).).).).).).).).).).).).).).).).).).).).).).).).).).).).).).).).).).).).).).).).).).).).",
").).).).).).).).).).).).).).).).).).).).).).).).).).).).).).).).).).).).).).).).).).).).).).).).).).).).).).).).).).).).).).).).).).).).).).).).).).).).).).).).).).).).).).).).).).).).).).).).).).).).).).).).).).).).).).).).~.~.).).~.~.~.).^./.|.>X&X;X;X4X6.7.7.6.6.4.9X:X:X:X:X1X1X1X,X,X,X,X,X;X..xXi.lX5.+.7.5.5.6.6.O.Q %.X.tX6.+.zXCXBXBXnXzXnXzXw.w.p.r.e.y.0.0.gXh.nXnXbXMXVXBXVXs.w.y.y.y.r.r.r.y.r.r.r.r.r.r.r.r.y.y.r.r.y.r.e.w.BXSXBXmXzXzXzXzXzXbXa.9.y.e.r.e.p.i.+...} i.a.r.r.e.w.e.6.+.5.5.5.5.+.;.+.5.7.u.y.r.9.9.9.w.r.y.r.r.r.r.r.e.e.r.y.u.u.y.u.r.y.y.e.w.e.r.e.r.r.y.e.lX+.D I K @.W -./ K D D t.u.y.e.r.r.y.u.e.y.t.;.5.6.5.;.5.6.5.5.+.q.y.9.r.zXzXzXw.w.e.e.r.e.r.r.q.y.e.r.y.e.a.w.w.w.nXnXbXzXzXnXzXs.zXs.bXVXBXCXs.9.y.y.r.r.lX;.~ o.o.Y I } L G c B T C A.E.aX~.).).).).).).).).).).).).).).).).).).).).).).).).).).).).).).).).).).).).).).).).).).).).).).).).).).).).).).).).).).).).).).).).).).).).).).).).).).).).).).).).).).).).).).).).).).).).).).).).).).).).).).).).).).).).).).).).).).).).).).).).).).).).).).).).).).).).).).).).).).).).).).).).).).).).).).).).).).).).).).).).).).).).).).).).).).).).).).).).).).).).).).).).).).).).).).).).).).).).).).).).).).).).).).).).).).).).).).).).).).).).).).).).).).).).).).).).).).).).).).).).).).).).).).).).).).).).).).).).).).).).).).).).).).).).).).).).).).).).).).).).).).).).).).).).).).).).).).).).).).).).).).).).).).).).).).).).).).).).).).).).).).).).).).).).).).).).).).).).).).).).).).).).).).).).).).).).).).).).).).).).).).).).).).).).).).).).).).).).).).).).).).).).).).).).).).).).).).).).).).).).).).).).).).).).).).).).).).).).).).).).).).).).).).).).).).).).).).).).).).).).).).).).).).).).).).).).).).).).).).).).).).).).).",
").).).).).).).).).).).).).).).).).).).).).).).).).).).).).).).).).).).).).).).).).).).).).).).).).).).).).).).).).).).).).).).).).).).).).).).).).).).).).).).).).).).).).).).).).).).).).).).).).).).).).).).).).).).).).).)._.^._.`.).~.].~.).|.).[.[. X`.(.dXR ' ' ' ~ ~ +.a.p.p.p.p.p.7.O.[ [ [ [ ~ O.jXi.p.p.a.a.jXU Y ' ` ` >./ ' ~ F kXJXBXmXr.+.q.q.q.y.r.e.y.lX..u u u 6.t.9.s.CXBXCXs.w.r.y.r.e.e.e.r.e.e.r.r.r.r.r.e.r.e.e.y.y.e.e.w.CXBXZXVXBXZXZXZXJXJXmXd.u.e.r.r.lX4.q u u 4.lXe.t.u.y.a.y.y.a.p.p.p.a.zXa.a.r.y.y.r.r.u.y.y.u.u.u.u.y.e.r.r.r.r.e.e.e.r.r.r.r.y.r.e.y.y.u.e.e.w.r.jX6.! 3.=.1.! ) >.>.2.o.jXu.w.r.y.e.r.e.w.p.w.a.a.p.p.p.s.s.p.a.e.a.p.d.zXCXZXVXbXw.u.y.u.e.w.y.w.y.y.e.y.w.e.e.y.q.q.9.d.zXCXVXZXZXZXZXVXAXmXZXs.w.y.e.w.e.lX;.Q -.| j k b l b B C dXsXXXXXoX`.).).).).).).).).).).).).).).).).).).).).).).).).).).).).).).).).).).).).).).).).).).).).).).).).).).).).).).).).).).).).).).).).).).).).).).).).).).).).).).).).).).).).).).).).).).).).).).).).).).).).).).).).).).).).).).).).).).).).).).).).).).).).).).).).).).).).).).).).).).).).).).).).).).).).).).).).).).).).).).).).).).).).).).).).).).).).).).).).).).).).).).).).).).).).).).).).).).).).).).).).).).).).).).).).).).).).).).).).).).).).).).).).).).).).).).).).).).).).).).).).).).).).).).).).).).).).).).).).).).).).).).).).).).).).).).).).).).).).).).).).).).).).).).).).).).).).).).).).).).).).).).).).).).).).).).).).).).).).).).).).).).).).).).).).).).).).).).).).).).).).).).).).).).).).).).).).).).).).).).).).).).).).).).).).).).).).).).).).).).).).).).).).).).).).).).).).).).).).).).).).).).).).).).).).).).).).).).).).).).).).).).).).).).).).).).).).).).).).).).).).).).).).).).).).).).).).).).).).).).).).).).).).).",
").).).).).).).).).).).).).).).).).).).).).).).).).).).).).).).).).).).).).).).).).).).).).).).).).).).).).).).).).).).).).).).).).).).).).).).).).).).).).).).).).).).).).).).).).).).).).).).).).).).).).).).).).).).).).).).).^.^.~.~.).).).)._._.^.^.^.dXdX>X:.o.! &.=.o.+.jXi.y.e.w.a.i.U / #._ >.W O.lXr.y.y.e.y.t.X.#.*.*.@.%.! W 2.Y xXCXCXBXy.q.r.q.y.r.w.r.w.lX4.q J t i.a.w.s.CXBXBXs.w.p.e.y.q.u.e.y.e.r.q.y.e.y.e.y.e.y.y.e.r.y.e.w.BXVXVXBXBXBXBXBXAXVXNXi.i.y.e.y.a.i.q N 0 0.lXy.y.y.w.r.w.e.e.w.e.q.r.q.i.e.e.e.r.r.r.r.e.e.e.y.e.r.r.e.y.y.y.y.e.y.9.r.r.y.w.y.r.e.e.e.p.w.i.a.w.lX;.Q W &./ =.@.$.$.$.X.kXu.q.e.r.e.p.r.w.r.e.y.q.e.9.y.q.e.w.w.r.q.y.q.p.BXBXVXzXw.e.q.y.w.y.r.r.e.e.e.y.r.r.w.a.r.a.y.0.zXCXBXBXBXBXBXBXBXBXCXs.d.e.y.e.y.jX;.! %.$.v n t y z B C >XdX~.!.).).).).).).).).).).).).).).).).).).).).).).).).).).).).).).).).).).).).).).).).).).).).).).).).).).).).).).).).).).).).).).).).).).).).).).).).).).).).).).).).).).).).).).).).).).).).).).).).).).).).).).).).).).).).).).).).).).).).).).).).).).).).).).).).).).).).).).).).).).).).).).).).).).).).).).).).).).).).).).).).).).).).).).).).).).).).).).).).).).).).).).).).).).).).).).).).).).).).).).).).).).).).).).).).).).).).).).).).).).).).).).).).).).).).).).).).).).).).).).).).).).).).).).).).).).).).).).).).).).).).).).).).).).).).).).).).).).).).).).).).).).).).).).).).).).).).).).).).).).).).).).).).).).).).).).).).).).).).).).).).).).).).).).).).).).).).).).).).).).).).).).).).).).).).).).).).).).).).).).).).).).).).).).).).).).).).).).).).).).).).).).).).).).).).).).).).).).).).).).).).).).).).).).).).).).).).).).).).).).).).).).).).).).).).).).).).).).).).).).).).).).).).).).).).).).).).).).).).).).).).).).).).).).).",
").).).).).).).).).).).).).).).).).).).).).).).).).).).).).).).).).).).).).).).).).).).).).).).).).).).).).).).).).).).).).).).).).).).).).).).).).).).).).).).).).).).).).).).).).).).).).).).).).).).).).).).).).).).).).).).)._._.).).).).).).)._.~.^.^.^.^.,X/ [ 3.] 1.O.7.zXy.a.a.w.y.6.o.1.=.*.>.Q O.lXe.e.r.w.a.t.Q ^ *.^ %.=.=.=.>.E hXCXSXmXw.e.r.q.r.q.lXu.xXxX4.w u u e.y.9.s.ZXBXVXw.e.e.9.u.e.y.e.e.y.y.r.y.9.e.w.w.w.d.w.e.e.e.w.w.VXZXVXVXZXZXZXVXVXVXnXw.r.a.w.w.lX0.y t y 4.lXlXi.lXy.y.e.y.e.r.e.w.e.9.9.y.u.u.e.y.e.e.e.e.e.e.y.y.y.r.r.e.e.e.r.r.r.a.y.lXa.lXa.y.r.u.r.r.e.y.y.t.;.~ P o.~ ` 1.=.( Q 8.t.e.w.y.q.q.r.e.e.r.y.w.9.a.i.y.u.y.u.u.y.e.p.w.s.BXBXCXzXd.9.e.e.q.q.e.u.e.e.e.y.y.y.a.a.9.r.r.w.bXBXVXVXVXVXVXZXVXVXmXs.w.y.r.e.y.jX-./ $.$.j v t t B B C R.E.]./.].~.).).).).).).).).).).).).).).).).).).).).).).).).).).).).).).).).).).).).).).).).).).).).).).).).).).).).).).).).).).).).).).).).).).).).).).).).).).).).).).).).).).).).).).).).).).).).).).).).).).).).).).).).).).).).).).).).).).).).).).).).).).).).).).).).).).).).).).).).).).).).).).).).).).).).).).).).).).).).).).).).).).).).).).).).).).).).).).).).).).).).).).).).).).).).).).).).).).).).).).).).).).).).).).).).).).).).).).).).).).).).).).).).).).).).).).).).).).).).).).).).).).).).).).).).).).).).).).).).).).).).).).).).).).).).).).).).).).).).).).).).).).).).).).).).).).).).).).).).).).).).).).).).).).).).).).).).).).).).).).).).).).).).).).).).).).).).).).).).).).).).).).).).).).).).).).).).).).).).).).).).).).).).).).).).).).).).).).).).).).).).).).).).).).).).).).).).).).).).).).).).).).).).).).).).).).).).).).).).).).).).).).).).).).).).).).).).).).).).).).).).).).).).).).).).).).).).).).).).).).).).).).).).).",
").).).).).).).).).).).).).).).).).).).).).).).).).).).).).).).).).).).).).).).).).).).).).).).).).).).).).).).).).).).).).).).).).).).).).).).).).).).).).).).).).).).).).).).).).).).).).).).).).).).).).).).).).).).).).).).)._._.).).~.~.).).).|.~.~.|.^.^.|..X!.E.i p O q <.W =.-.@.;.&.~ ] =.) =.Q O.lXjXu.u.e.lXt.Q ) =.( *.( ` ` 2.Y xXZXVXVXmXmXBXmXBXBXCXy u y ..JXJXCXr.r.e.s.VXMXZXs.w.w.s.BXBXBXzXw.p.w.e.y.w.nXBXBXmXw.u.lXu.e.q.e.w.w.w.w.w.w.w.w.w.u.u.9.e.u.{ t D K R | R I v w { u.u.r.y.y.i.w.BXBXBXzXe.y.i.w.e.e.e.e.e.e.e.e.e.e.e.r.r.e.r.r.y.e.r.w.{ y y y a.w.y.y.i.u.e.w.r.p.nXCXCXNX$.^ ^ -.=.*.} JXBXVXzXw.e.y.y.e.w.a.BXmXBXs.w.e.u.w.e.r.r.y.w.w.a.s.s.nXBXmXmXd.w.a.e.e.r.u.e.e.u.u.e.u.u.y.y.w.p.a.w.e.e.e.e.e.e.e.a.w.e.y.e.q.e.y.y.q.y.t.| :. .;X>XE./.dX X_.).).).).).~.).).).).).).).).).).).).).).).).).).).).).).).).).).).).).).).).).).).).).).).).).).).).).).).).).).).).).).).).).).).).).).).).).).).).).).).).).).).).).).).).).).).).).).).).).).).).).).).).).).).).).).).).).).).).).).).).).).).).).).).).).).).).).).).).).).).).).).).).).).).).).).).).).).).).).).).).).).).).).).).).).).).).).).).).).).).).).).).).).).).).).).).).).).).).).).).).).).).).).).).).).).).).).).).).).).).).).).).).).).).).).).).).).).).).).).).).).).).).).).).).).).).).).).).).).).).).).).).).).).).).).).).).).).).).).).).).).).).).).).).).).).).).).).).).).).).).).).).).).).).).).).).).).).).).).).).).).).).).).).).).).).).).).).).).).).).).).).).).).).).).).).).).).).).).).).).).).).).).).).).).).).).).).).).).).).).).).).).).).).).).).).).).).).).).).).).).).).).).).).).).).).).).).).).).).).).).).).).).).).).).).).).).).).).).).).).).).).).).).).).).).).).).).).).).).).).).).).).).).).).).).).",
").).).).).).).).).).).).).).).).).).).).).).).).).).).).).).).).).).).).).).).).).).).).).).).).).).).).).).).).).).).).).).).).).).).).).).).).).).).).).).).).).).).).).).).).).).).).).).).).).).).).).).).).).).).).).).).)._._.).).~.~.~.~.~.|.~.). X_.). X(.`.|.i ; . r 4XY ~ W Q W @.U :.%.&.) Q O.jXu.e.e.w.u.t.~ ( =._ @.X.-.>.-.Y kXCXmXBXmXBXCXCXCXCXJXr q u ..JXVXCXa.r.e.s.ZXMXJXs.i.9.s.VXZXVXzXd.a.i.r.w.d.nXZXBXBXw.i.y.e.e.r.r.y.q.q.y.r.r.r.q.e.e.r.q.a.jX{ q t L 6X2.3.L q q y jXu.e.y.y.i.w.VXZXZXMXi.q.q.y.e.e.e.r.y.y.e.e.y.r.y.y.y.y.y.y.r.e.lXxXJ 0 l H lX9.9.y.q.u.y.y.r.d.nXZXZXCX} Q _ >._ X.F JXCXZXnXw.w.y.y.y.w.s.ZXVXZXs.d.e.y.e.r.y.y.y.y.q.q.9.d.nXZXVXVXd.y.y.e.e.r.r.e.e.e.u.u.i.r.q.r.e.w.d.e.e.e.e.r.e.e.r.e.9.e.y.e.e.y.r.a.r.a.u.X.:.4X<XpX X`._._.].].~.~.).~.~.).).).).).).).).).).).).).).).).).).).).).).).).).).).).).).).).).).).).).).).).).).).).).).).).).).).).).).).).).).).).).).).).).).).).).).).).).).).).).).).).).).).).).).).).).).).).).).).).).).).).).).).).).).).).).).).).).).).).).).).).).).).).).).).).).).).).).).).).).).).).).).).).).).).).).).).).).).).).).).).).).).).).).).).).).).).).).).).).).).).).).).).).).).).).).).).).).).).).).).).).).).).).).).).).).).).).).).).).).).).).).).).).).).).).).).).).).).).).).).).).).).).).).).).).).).).).).).).).).).).).).).).).).).).).).).).).).).).).).).).).).).).).).).).).).).).).).).).).).).).).).).).).).).).).).).).).).).).).).).).).).).).).).).).).).).).).).).).).).).).).).).).).).).).).).).).).).).).).).).).).).).).).).).).).).).).).).).).).).).).).).).).).).).).).).).).).).).).).).).).).).).).).).).).).).).).).).).).).).).).).).).).).).).).).).).).).).).).).).).).).).).).).).).).).).).).).).).).).).).).).).).",
").).).).).).).).).).).).).).).).).).).).).).).).).).).).).).).).).).).).).).).).).).).).).).).).).).).).).).).).).).).).).).).).).).).).).).).).).).).).).).).).).).).).).).).).).).).).).).).).).).).).).).).).).).).).).).).).).).).).~.~.~.~.~.|.(.).}.).|.~.pXaXaXi % o t 6X3.3.3.3.1.1.&.&.^ #.@.X.+.lXa.p.p.p.a.t.X.W / ' ' / ` / Y Y hXJXZXZXZXZXZXVXVXZXJXe l 0 ..JXCXCXw.d.0.lXZXBXZXs.i.+.s.BXBXBXa.9.u.q.r.9.w.nXCXJXVXs.r.p.r.r.r.9.w.w.w.r.e.e.y.y.y.r.w.9.r.lX{ r m D -.~ *.L t r y lXu.i.e.e.e.a.CXVXVXs.d.q.e.r.r.e.r.r.r.r.y.y.y.r.y.r.e.w.w.d.r.9.a.lXt u q y nXa.r.p.9.q.9.q.u.9.nXBXBXCXP ` ` >.W X.{ JXZXJXzXq.9.9.9.q.9.a.BXmXBXs.9.y.y.q.q.q.q.q.e.y.r.y.d.mXZXBXBXw.q.q.r.e.r.y.r.r.r.r.p.e.a.e.a.a.a.r.w.e.e.e.e.y.y.y.r.e.y.y.y.r.y.e.u.i.u.t.~ / ' ;XR.!.!.~.~.^.|.|.).).).).).).).).).).).).).).).).).).).).).).).).).).).).).).).).).).).).).).).).).).).).).).).).).).).).).).).).).).).).).).).).).).).).).).).).).).).).).).).).).).).).).).).).).).).).).).).).).).).).).).).).).).).).).).).).).).).).).).).).).).).).).).).).).).).).).).).).).).).).).).).).).).).).).).).).).).).).).).).).).).).).).).).).).).).).).).).).).).).).).).).).).).).).).).).).).).).).).).).).).).).).).).).).).).).).).).).).).).).).).).).).).).).).).).).).).).).).).).).).).).).).).).).).).).).).).).).).).).).).).).).).).).).).).).).).).).).).).).).).).).).).).).).).).).).).).).).).).).).).).).).).).).).).).).).).).).).).).).).).).).).).).).).).).).).).).).).).).).).).).).).).).).).).).).).).).).).).).).).).).).).).).).).).).).).).).).).).).).).).).).).).).).).).).).).).).).).).).).).).).).).).).).).).).).).).).).).).).).).).).).).).).).).).).).).).).).).).).).).).).).).).).).).).).).).).).).).).).).).).).).).).).).",
").).).).).).).).).).).).).).).).).).).).).).).).).).).).).).).).).).).).).).).).).).).).).).).).).).).).).).).).).).).).).).).).).).).).).).).).).).).).).).).).).).).).).).).).).).).).).).).).).).).).).).).).).).).).).).).).).).).).~.~.).).).|.~.}.).).|.I.C.C.C.a a 0 j J K L R | I | $./ @.*.&.%.o.tX6.6.6.6.6.6.W W W ,.3.;.;.;.;.+.kXxXxXxXxXxXxXxXxXxXHX{ G w ..cXcXxXzXs.zXzXnXzXnXnXzXs.MXVXVXZXzXw.y.r.zXzXzXxXhXvXhX0.6.6.t.u.r.w.s.s.zXa.q.q.y.r.e.e.u.u.a.xXH r l G ,.=.6XR L t D nXzXs.a.i.y.y.NXnXnXbXzXzXzXd.e.e.r.r.r.r.y.y.q.e.r.e.w.a.zXs.lX9.w.a.} { { { 4.4...xXzXs.s.s.s.w.mXZXVXJXY ( ` =.%.-.O.cXcXxXlXzXzXzXzXs.s.zXZXVXZXs.w.u.y.zXzXs.zXs.zXzXw.e.d.zXmXnXnXs.s.zXa.e.r.y.r.e.y.e.r.e.xX+.4.+.+.a.e.y.r.r.y.y.y.r.y.y.r.e.e.u.e.r.y.e.lXu.X.=.,.*X>X}. X`.`.`.`.`.).).).).).).).).).).).).).).).).).).).).).).).).).).).).).).).).).).).).).).).).).).).).).).).).).).).).).).).).).).).).).).).).).).).).).).).).).).).).).).).).).).).).).).).).).).).).).).).).).).).).).).).).).).).).).).).).).).).).).).).).).).).).).).).).).).).).).).).).).).).).).).).).).).).).).).).).).).).).).).).).).).).).).).).).).).).).).).).).).).).).).).).).).).).).).).).).).).).).).).).).).).).).).).).).).).).).).).).).).).).).).).).).).).).).).).).).).).).).).).).).).).).).).).).).).).).).).).).).).).).).).).).).).).).).).).).).).).).).).).).).).).).).).).).).).).).).).).).).).).).).).).).).).).).).).).).).).).).).).).).).).).).).).).).).).).).).).).).).).).).).).).).).).).).).).).).).).).).).).).).).).).).).).).).).).).).).).).).).).).).).).).).).).).).).).).).).).).).).).).).).).).).).).).).).).).).).).).).).).).).).).).).).).).).).).).).).).).).).).).).).).).).).).).).).).).).).).).).).).).).).).).).).).).",
").).).).).).).).).).).).).).).).).).).).).).).).).).).).).).).).).).).).).).).).).).).).).).).).).).).).).).).).).).).).).).).).).).).).).).).).).).).).).).).).).).).).).).).).).).).).).).).).).).).).).).).).).).).).).).).).).).).).).).).).).`.~.|./.].pXk.. o O e N N e X . X e l q K *.) %.&.( ) Q _ Q Q Q / / _ Q ! o.6.zXs.s.a.a.a.7.8.Y Y ~ ~ ~ ~ ~ ~ ~ ~ 3.2.] ~ Y F CXVXCXmX0.w.d.mXZXBXBXAXAXVXzXe.w.s.CXZXCX..+ u w I Q Y 5.jXu.w.ZXZXZXmXw.w.p.w.r.e.e.e.e.lXD t t L -.! ( W >.$...JXCXCXzXw.r.9.9.d.d.nXCXZXCXs.e.e.r.r.r.r.e.r.e.y.y.y.s.mXZXCXnXe.e.zXa.lXlXxXu e u vXJXVXZXZXZXVXVXAXSXCXP 2.1.) ) ( ~ ~ ~ F 0.CXCXCXZXZXZXVXAXSXBXd.w.w.zXZXZXZXZXVXZXmXw.r.r.q.+.d.w.CXVXZXs.w.e.y.e.u.y.e.u.u.kXy u u { xXu.e.e.e.e.e.e.e.e.e.w.e.e.e.e.y.q.9.y.t.P / ' ;X/.(.`._.]././.].~.).).).).).).).).).).).).).).).).).).).).).).).).).).).).).).).).).).).).).).).).).).).).).).).).).).).).).).).).).).).).).).).).).).).).).).).).).).).).).).).).).).).).).).).).).).).).).).).).).).).).).).).).).).).).).).).).).).).).).).).).).).).).).).).).).).).).).).).).).).).).).).).).).).).).).).).).).).).).).).).).).).).).).).).).).).).).).).).).).).).).).).).).).).).).).).).).).).).).).).).).).).).).).).).).).).).).).).).).).).).).).).).).).).).).).).).).).).).).).).).).).).).).).).).).).).).).).).).).).).).).).).).).).).).).).).).).).).).).).).).).).).).).).).).).).).).).).).).).).).).).).).).).).).).).).).).).).).).).).).).).).).).).).).).).).).).).).).).).).).).).).).).).).).).).).).).).).).).).).).).).).).).).).).).).).).).).).).).).).).).).).).).).).).).).).).).).).).).).).).).).).).).).).).).).).).).).).).).).).).).).).).).).).).).).).).).).).).).).).).).).).).).).).).).).).).).).).).).).).).).).).).).).).",
").).).).).).).).).).).).).).).).).).).).).).).).).).).).).).).).).).).).).).).).).).).).).).).).).).).).).).).).).).).).).).).).).).).).).).).).).).).).).).).).).).).).).).).).).).).).).).).).).).).).).).).).).).).).).).).).~.~.~.~.).).).)._._.~.|.!.].aXV @ = X N N N k % , 4 b J q K $.%.@.@.( =.( =.! &.&.=.#.*.%.@.Q 6.jXq.e.9.q.jX5.Q >.>.-.-.-.-.*.*.>.>.X.Q =.' >.I NXVXBXmXd.lXd.BXVXBXVXBXVXZXa.i.e.a.BXCXJX..0 K G ,.,.P 5.lXe.w.BXVXVXbXi.q.y.r.r.e.u.a.r.lXt r t L X.-.%.=.2.P +.CXCXZXs.d.a.r.y.y.9.nXCXBXCXd.e.e.r.r.r.e.e.e.r.y.y.9.d.nXZXBXmXw.d.a.q.p.r.0.w J + vXZXSXBXBXBXBXBXBXVXJXI / -.W @.-.-./ 2.U 0.CXCXAXBXAXBXBXBXBXCXs.e.w.s.ZXBXBXBXSXVXmXd.r.y.y.w.s.d.CXmXVXs.w.e.y.u.e.y.w.r.y.xXt r w { xXe.e.e.e.e.e.r.r.y.y.r.e.y.e.e.r.y.r.lXkXQ *.:.;XdX.X).}..X!.~._._.).).).).).).).).).).).).).).).).).).).).).).).).).).).).).).).).).).).).).).).).).).).).).).).).).).).).).).).).).).).).).).).).).).).).).).).).).).).).).).).).).).).).).).).).).).).).).).).).).).).).).).).).).).).).).).).).).).).).).).).).).).).).).).).).).).).).).).).).).).).).).).).).).).).).).).).).).).).).).).).).).).).).).).).).).).).).).).).).).).).).).).).).).).).).).).).).).).).).).).).).).).).).).).).).).).).).).).).).).).).).).).).).).).).).).).).).).).).).).).).).).).).).).).).).).).).).).).).).).).).).).).).).).).).).).).).).).).).).).).).).).).).).).).).).).).).).).).).).).).).).).).).).).).).).).).).).).).).).).).).).).).).).).).).).).).).).).).).).).).).).).).).).).).).).).).).).).).).).).).).).).).).).).).).).).).).).).).).).).).).).).).).).).).).).).).).).).).).).).).).).).).).).).).).).).).).).).).).).).).).).).).).).).).).).).).).).).).).).).).).).).).).).).).).).).).).).).).).).).).).).).).).).).",
").).).).).).).).).).).).).).).).).).).).).).).).).).).).).).).).).).).).).).).).).).).).).).).).).).).).).).).).).).).).).).).).).).).).).).).).).).).).).).).).).).).).).).).).).).).).).).).).).).).).).).).).).).).).).).).~.~.|.].).}.`.`.`.].'.`.sX XsXpXC.. o 7 k J N k X = 4 b J J I 3.] 2.2.>.=.1.1./ _ *.>._ / -.8.o.5.a.p.p.a.a.lX6.Q >._ _ ~ ^ / ' >.&.%.%.*.*.( ! X.JXJXCXnXp.+.9.nXBXBXVXSXZXCXlX9.d.s.CXJXJXgXu r G | #.P 5.jX6.d.CXZXVXMXw.q.y.q.r.y.9.a.9.lXD r c L >.2.` 2.2.Q } JXSXZXzX9.a.e.w.a.6.zXVXBXCXw.u.e.e.p.w.w.r.r.e.r.y.w.w.BXZXBXnXy.+.r.q.u.jXhXu u e vXJXZXZXZXZXZXZXVXJXNX+.Q &.) %.*.*.*./ U xXCXJXZXZXZXVXZXVXJXCXbXd.d.zXCXZXZXJXJXJXnXs.9.9.q.q.q.s.nXBXVXa.9.9.r.w.lXzXa.a.zXxXH r r { xXi.e.y.y.r.9.p.9.9.y.6.q.e.9.y.r.y.q.a.t.Q ' 4X&XdX!.).!.|.~.|.).).).).).).).).).).).).).).).).).).).).).).).).).).).).).).).).).).).).).).).).).).).).).).).).).).).).).).).).).).).).).).).).).).).).).).).).).).).).).).).).).).).).).).).).).).).).).).).).).).).).).).).).).).).).).).).).).).).).).).).).).).).).).).).).).).).).).).).).).).).).).).).).).).).).).).).).).).).).).).).).).).).).).).).).).).).).).).).).).).).).).).).).).).).).).).).).).).).).).).).).).).).).).).).).).).).).).).).).).).).).).).).).).).).).).).).).).).).).).).).).).).).).).).).).).).).).).).).).).).).).).).).).).).).).).).).).).).).).).).).).).).).).).).).).).).).).).).).).).).).).).).).).).).).).).).).).).).).).).).).).).).).).).).).).).).).).).).).).).).).).).).).).).).).).).).).).).).).).).).).).).).).).).).).).).).).).).).).).).).).).).).).).).).).).).).).).).).).).).).).).).).).).).).).).).).).).).).).).).).).).).).).).).).).).).).).).).).).).).).).).).).).).).).).).).).).).).).).).).).).).).).).).).).).",
").).).).).).).).).).).).).).).).).).).).).).).).).).).).).).).).).).).).).).).).).).).).).).).).).).).).).).).).).).).).).).).).).).).).).).).).).).).).).).).).).).).).).).).).).).).).).).).).).).).).).).).).).).).).).).).).).|.`.).|.|.~.~.E./.dXR.i 2 s 8 B b k 7 7 4 9 @ 1 % 4 7 O 7 J G v G G D K $.$.#.X.o.*.%.kXt.t.6.@.*.o.X.X.-.-./ W Q jXu.u.6.} o.%.&.*.*.*.*.( W <.<.} 0.NXBXmXBXBXBXBXSXAXVXBXmXBXzX;.@.,.Q Y 2.Q >.>.U kXCXmXmXs.p.a.p.9.e.a.e.u.y.w.a.e.lXD q z z K L G | $.P } JXBXVXzXq.y.r.e.a.i.nXVXBXBXw.e.e.r.y.e.e.e.r.y.u.y.e.i.u.a.s.zXBXBXBXs.w.y.e.t.t.6.;.;.;.o.-.@.$.<.| ,.,.Q ` ` _ %.@.%.%.! W Q ,.,.@.;.;.O.;.;.;.;.6.jXu.0.D { H m z M ..NXCXBXBXBXmXSXBXVXVXBXNXCXNXM y t y y D { l c z { lXu.a.u.w.w.s.CXBXmXBXmXBXnXw.p.y.r.i.u.t.U / :.;XdX). X~.|.~.|._.).).).).).).).).).).).).).).).).).).).).).).).).).).).).).).).).).).).).).).).).).).).).).).).).).).).).).).).).).).).).).).).).).).).).).).).).).).).).).).).).).).).).).).).).).).).).).).).).).).).).).).).).).).).).).).).).).).).).).).).).).).).).).).).).).).).).).).).).).).).).).).).).).).).).).).).).).).).).).).).).).).).).).).).).).).).).).).).).).).).).).).).).).).).).).).).).).).).).).).).).).).).).).).).).).).).).).).).).).).).).).).).).).).).).).).).).).).).).).).).).).).).).).).).).).).).).).).).).).).).).).).).).).).).).).).).).).).).).).).).).).).).).).).).).).).).).).).).).).).).).).).).).).).).).).).).).).).).).).).).).).).).).).).).).).).).).).).).).).).).).).).).).).).).).).).).).).).).).).).).).).).).).).).).).).).).).).).).).).).).).).).).).).).).).).).).).).).).).).).).).).).).).).).).).).).).).).).).).).).).).).).).).).).).).).).).).).).).).).).).).).).).).).).).).).).).).).).).).).).).).).).).).).).",
").).).).).).).).).).).).).).).).).).).).).).).).).).).).).).).).).).).).).).).).).).).).).).).).).).).).).).).).).).).).).).).).).).).).).).).).).).).).).).).).).).).).).).).).).).).).).).).).).).).).).).).).).).).).).).).)._.|.`.).].].~.|./.~.|.E.$ . X 7 { J B 4 X $ 2 2 2 % = % # 6 A b n N N q L $.:.@.o.W @.O.lXzXa.+.Q ' =.( %._ ` ' 2.X.lXp.y.6.Y >.*.*.%.*.-.=.` ` ` ~ F ;.HXJXBXSXMXSXCXZXBXVXSXAXZXNXY ' 2.` =.&.^ =.) Y hXJXBXZXd.9.q.e.e.y.y.e.y.u.d.w.w.lXD q N x B r q  .-.X.} JXCXCXzX9.y.y.e.e.d.nXBXBXBXd.e.r.y.y.y.u.u.e.u.e.e.r.y.e.q.d.s.BXVXZXs.w.p.r.p.a.xX;.Y ' ' ' ` ! ` ~ ! ` / >._ _ %.@.%.%.&.) ' ` ! ~ ' ' ~ ! / ~ Y 6.jXlX0.+ q q l l u M JXCXVXVXVXBXBXBXBXmXBXBXJXJX0 q B c j t c x m w { lXi.q.r.9.w.s.CXBXAXAXBXZXmXw.e.r.y.r.a.u.X.#.4X&XE.!.}.(.]./.^./._.).).)._.|.).).).).).).).).).).).).).).).).).).).).).).).).).).).).).).).).).).).).).).).).).).).).).).).).).).).).).).).).).).).).).).).).).).).).).).).).).).).).).).).).).).).).).).).).).).).).).).).).).).).).).).).).).).).).).).).).).).).).).).).).).).).).).).).).).).).).).).).).).).).).).).).).).).).).).).).).).).).).).).).).).).).).).).).).).).).).).).).).).).).).).).).).).).).).).).).).).).).).).).).).).).).).).).).).).).).).).).).).).).).).).).).).).).).).).).).).).).).).).).).).).).).).).).).).).).).).).).).).).).).).).).).).).).).).).).).).).).).).).).).).).).).).).).).).).).).).).).).).).).).).).).).).).).).).).).).).).).).).).).).).).).).).).).).).).).).).).).).).).).).).).).).).).).).).).).).).).).).).).).).).).).).).).).).).).).).).).).).).).).).).).).).).).).).).).).).).).).).).).).).).).).).).).).).).).).).).).).).).).).).).).).).).).).).).).).).).).).).).).).).).).).).).).).).).).).).).).).).).).).).).",
").).).).).).).).).).).).).).).).).).).).).).).).).).).).).).).).).).).).).).).).).).).).).).).).).).).).).).).).).).).).).).).).).).).).).).).).).).).).).).).).).).).).).).).).).).).).).).).).).).).).).).).).).).).).).).).).~._._._.|.~.). X}.XXsXsXi $ : k N m B 7 % = 1 > = , , * : 4 n 0 r r l q L :.>._ &.! &.X.u.y.y.O.P / ` ( 2.' ' / ~ P jXlXlXt.P _ %.( %.&.&.=.*.#.>.-.~ 6.JXJXVXZXZXZXVXVXSXVXVXJXZXCXF W ( ( ,.X.@.=.) Y 0.JXBXBXw.e.y.y.y.u.q.q.7.q.y.r.zXxX{ r n l n r q  .>.Q ..CXJXBXs.d.d.9.r.e.d.nXZXZXCXw.9.q.q.q.y.u.u.y.y.r.q.9.a.r.a.a.bXZXSXBXs.i.y.r.9.e.u.O.Y / ' ' -.@.-.-.%.-.%.@.%.%.%.%.%.&.%.*.#.:.@.@.>.>.*.-.@.@.X.jXlXlXhXu N n n z u M JXJXVXVXVXVXVXVXVXVXVXVXZXJXe e l l N b b x r u { xXa.p.a.9.w.s.ZXZXZXVXVXZXmXw.9.q.q.9.t.6.~ /  .@XdXoXXX[.XX[.XX`.`.).).).|.).).).).).).).).).).).).).).).).).).).).).).).).).).).).).).).).).).).).).).).).).).).).).).).).).).).).).).).).).).).).).).).).).).).).).).).).).).).).).).).).).).).).).).).).).).).).).).).).).).).).).).).).).).).).).).).).).).).).).).).).).).).).).).).).).).).).).).).).).).).).).).).).).).).).).).).).).).).).).).).).).).).).).).).).).).).).).).).).).).).).).).).).).).).).).).).).).).).).).).).).).).).).).).).).).).).).).).).).).).).).).).).).).).).).).).).).).).).).).).).).).).).).).).).).).).).).).).).).).).).).).).).).).).).).).).).).).).).).).).).).).).).).).).).).).).).).).).).).).).).).).).).).).).).).).).).).).).).).).).).).).).).).).).).).).).).).).).).).).).).).).).).).).).).).).).).).).).).).).).).).).).).).).).).).).).).).).).).).).).).).).).).).).).).).).).).).).).).).).).).).).).).).).).).).).).).).).).).).).).).).).).).).).).).).).).).).).).).).).).).).).).).).).).).).).).).).).).).).).).).).).",
").).).).).).).).).).).).).).).).).).).).).).).).).).).).).).).).).).).).).).).).).).).).).).).).).).).).).).).).).).).).).).).).).).).).).).).).).).).).).).).).).).).).).).).).).).).).).).).).).).).).).).).).).).).).).).).).~.|.`.`.).~._.pX.XD.D.C.7 7 7 e N N B 7 % = = * % = - % % 7 ..{ { H H L I :.#._ &.( *.X.u.r.u.6.O.;.;.~ *./ ;.5.;.5.6.6.t.5.o.=.) ( @.@.&.&.%.@.| X.~ 5.cXNXnXNXNXxXzXZXBXZXMXhXxXxX} -.W ( &.) ( 2.` P hXJXBXBXw.e.y.r.y.e.w.s.s.zXlX} 0.4.D r z c { L L | *.Q 4.cXNXxXzXzXs.a.r.e.w.zXmXNXnXzXs.lXy.q.e.u.e.r.9.w.s.s.nX4.4.4.0.ZXAXZXlXi.t.u.a.y.q.t.4.5.qXQ @./ ^ ^ W &.%.@.*.&.&.&.( &.%.*./ ! ! &.=.=./ @.^ %.Q 6.t.6.4.D D H G G t { NXNXNXnXnXnXnXNXNXNXNXNXcXNXD H H G r l z J L G } kXi.4.a.e.w.a.mXmXmXmXmXnXzXzXs.s.s.zXzXlXO.;.qX%X,X>X>XZ.R.R.^._.|.).).).).).).).).).).).).).).).).).).).).).).).).).).).).).).).).).).).).).).).).).).).).).).).).).).).).).).).).).).).).).).).).).).).).).).).).).).).).).).).).).).).).).).).).).).).).).).).).).).).).).).).).).).).).).).).).).).).).).).).).).).).).).).).).).).).).).).).).).).).).).).).).).).).).).).).).).).).).).).).).).).).).).).).).).).).).).).).).).).).).).).).).).).).).).).).).).).).).).).).).).).).).).).).).).).).).).).).).).).).).).).).).).).).).).).).).).).).).).).).).).).).).).).).).).).).).).).).).).).).).).).).).).).).).).).).).).).).).).).).).).).).).).).).).).).).).).).).).).).).).).).).).).).).).).).).).).).).).).).).).).).).).).).).).).).).).).).).).).).).).).).).).).).).).).).).).).).).).).).).).).).).).).).).).).).).).).).).).).).).).).).).).).).).).).).).).).).).).).).).).).).).).).).).).).).).).).).).).).).).).).).).).).).).).).).).).).).).).).).).).).).).).).).).).).).).).).).).).).).).).).).).).).",
").).).).).).).).).).).).).).).).).).).).).).).).).).).).).).).).).).).).).).).).).).).).).).).).).).).).).).).).).).).).).).).).).).).).).).).).).).).).).).).).).).).).).).).).).).).).).).).).).).).).).).).).).).).).).).).).).}.).).}.~.^.aXg @ . 4 r { J m z n B 7 % = = < - < - 4 4 b cXlXlX5.-.>.=.=.%.%.%.^ ^ $.jXw.a.e.a.lXjXO.;.X.6.lXu.jXW ~ Q Q ' _ _ %.@.@.*.` ) ) %.=.[ [ ! Y Y Y Y Y } CXBXBX{ u u w U =.-.-.W ( ! =.( Y 0.ZXBXBXd.w.y.e.y.w.w.mXZXZXvXu y M r n c K -.1.! 1.1.) ~ W ~ F xXCXCXCXd.e.r.w.w.d.s.mXZXZXnXw.w.y.e.u.w.zXZXZXJXy u u { CXAXCXs.w.y.y.w.s.w.NXJXJXNX} $.=.=.=.&.&.-.-.%.&.&.&.) ) ) ` =.=.1.1.=.` _ ` ) 1.~ ! ! Q >._ &.3.3.2.2.~ ) ~ Y ~ ~ ~ ~ ~ ~ Y Y ~ Y ] ~ 3.2.#.E G G :.,.` ( ) Q ~ 6.u.q.q.u.i.9.9.w.d.s.BXCXZXVXVXVXBXw.y.a.6.P #.$.E t j A.dX].).).).).).).).).).).).).).).).).).).).).).).).).).).).).).).).).).).).).).).).).).).).).).).).).).).).).).).).).).).).).).).).).).).).).).).).).).).).).).).).).).).).).).).).).).).).).).).).).).).).).).).).).).).).).).).).).).).).).).).).).).).).).).).).).).).).).).).).).).).).).).).).).).).).).).).).).).).).).).).).).).).).).).).).).).).).).).).).).).).).).).).).).).).).).).).).).).).).).).).).).).).).).).).).).).).).).).).).).).).).).).).).).).).).).).).).).).).).).).).).).).).).).).).).).).).).).).).).).).).).).).).).).).).).).).).).).).).).).).).).).).).).).).).).).).).).).).).).).).).).).).).).).).).).).).).).).).).).).).).).).).).).).).).).).).).).).).).).).).).).).).).).).).).).).).).).).).).).).).).).).).).).).).).).).).).).).).).).).).).).).).).).).).).).).).).).).).).).).).).).).).).).).).).).).).).).).).).).).).).).).).).).).).).).).).).).).).).).).).).).).).).).).).).).).).).).).).).).).).).).).).).).).).",
").).).).).).).).).).).).).).).).).).).).).).).).).).).).).).).).).).).).).).).).).).).).).).).).).).).).).).).).).).).).).).).).).).).).).).).).).).).).).).).).).).).).).).).).).).).).).).).).).).).).).).).).).).).).).).).).).).~.^.|.)._.aXf . 6 O J G v v z n N 7 % * * * < 4 : = o e xXw.lXO.Q &.) ( @.*.&.( ! o.lXr.r.r.e.lXkXQ W P 7.a.w.u.X.-.>.#.*./ *.&.&.%.@.@.&.&.@.>.] ] _ ' 6X6X_ U ..JXBXJX..0 G L 6X` =.W %.>.%.>.) Y hXJXBXCXw.e.y.e.u.w.w.BXCXJXcXu r x l N v L -.1.) =.@.^ 3.2.` E xXJXBXBXd.u.y.q.e.9.w.CXVXVXzXd.e.y.q.y.9.s.CXCXJXr q l { JXCXZXs.9.r.e.r.y.d.nXBXZXNXF X.%.o.%.%.o.^ ( ^ ( &.&.&.) ) *.#.#.@.^ ^ #.@.@.( =.2.>.( W ^ >.#._ ^ Q =._ =.2.` ` ` >.-.#.$.#.>.>./ #.-.>.#.K t z t | ,.1.) Q >.Q kXu.r.r.y.y.y.y.y.9.s.BXBXBXBXBXBXBXd.y.y.+.~ =.@.F t l A.aX].).).).).).).).).).).).).).).).).).).).).).).).).).).).).).).).).).).).).).).).).).).).).).).).).).).).).).).).).).).).).).).).).).).).).).).).).).).).).).).).).).).).).).).).).).).).).).).).).).).).).).).).).).).).).).).).).).).).).).).).).).).).).).).).).).).).).).).).).).).).).).).).).).).).).).).).).).).).).).).).).).).).).).).).).).).).).).).).).).).).).).).).).).).).).).).).).).).).).).).).).).).).).).).).).).).).).).).).).).).).).).).).).).).).).).).).).).).).).).).).).).).).).).).).).).).).).).).).).).).).).).).).).).).).).).).).).).).).).).).).).).).).).).).).).).).).).).).).).).).).).).).).).).).).).).).).).).).).).).).).).).).).).).).).).).).).).).).).).).).).).).).).).).).).).).).).).).).).).).).).).).).).).).).).).).).).).).).).).).).).).).).).).).).).).).).).).).).).).).).).).).).).).).).).).).).).).).).).).).).).).).).).).).).).).).).).).).).).).).).).).).).).).).).).).).).).).).).).).).).).).).).).).).",
").).).).).).).).).).).).).).).).).).).).).).).).).).).).).).).).).).).).).).).).).).).).).).).).).).).).).).).).).).).).).).).).).).).).).).).).).).).).).).).).).).).).).).).).).).).).).).).).).).).).).).).).).).).).).).).)._._./.^.`.(.`.aXd . &   { H J H c n B O % 6 = , = # @ $ . e nXw.lXO.Q =.` ) @.@.@.%.^ O.zXs.s.s.p.zXjXP / Y 6.lXlXlXX.( &.=.2.3.=.=.] ) @.@.%.%.%.@.^ ( / ` ` ~ ( Y } JXCXJX..0 r r ,.Q 2.! =._ ( =.` Y hXJXBXBX9.6.q.6.e.w.d.BXVXJXNXu b l e e l H $.=.( ( ^ @.U X.2.Y nXJXVXZXd.q.q.q.lXe.d.BXBXCXzXw.e.e.q.q.9.zXZXZXJXS e 0 { JXCXJXa.9.9.q.q.q.d.bXBXCXNXP *.>./ / =._ / / / / _ *.%.@.*.*./ / ! ! ' >.#.@.&.! _ _ ( 1.o.! =.^ =.W >.o.W &.&._ / _ ( ( ) &.! =.>.^ / Y / I q l r  .@.W *.>._ ~ u.s.p.p.r.y.e.q.y.i.zXZXZXVXVXVXZXZXs.lXlX+.U #.$.L L C >XpX^.).).).).).).).).).).).).).).).).).).).).).).).).).).).).).).).).).).).).).).).).).).).).).).).).).).).).).).).).).).).).).).).).).).).).).).).).).).).).).).).).).).).).).).).).).).).).).).).).).).).).).).).).).).).).).).).).).).).).).).).).).).).).).).).).).).).).).).).).).).).).).).).).).).).).).).).).).).).).).).).).).).).).).).).).).).).).).).).).).).).).).).).).).).).).).).).).).).).).).).).).).).).).).).).).).).).).).).).).).).).).).).).).).).).).).).).).).).).).).).).).).).).).).).).).).).).).).).).).).).).).).).).).).).).).).).).).).).).).).).).).).).).).).).).).).).).).).).).).).).).).).).).).).).).).).).).).).).).).).).).).).).).).).).).).).).).).).).).).).).).).).).).).).).).).).).).).).).).).).).).).).).).).).).).).).).).).).).).).).).).).).).).).).).).).).).).).).).).).).).).).).).).).).).).).).).).).).).).).).).).).).).).).).).).).).).).).).).).).).).).).).).).).).).).).).).).).).).).).).).).).).).).).).",
"_._._._.^.^.^._._.).).).^.^.^._._._._._.^.^.^._._.).).).^.^.^._._._._.).).)._.).^.^.^.).)._._._.).).).).^.^._._._._._.).).)._.).^.^.^._._._._._._._._._._._._._.~.).~.^.).).(.).).).).`.`.).^.^.^._._._._._._._._._._._._._._._._._.]._._._.].].!.I.I.R., 4 4 k N B N 7 % 4 * > 2 o 0.d.0.4.X.,.3.W *.^ =.) *.W %.&.( X.H { m { J H D xX9.u.5.@.;.;.Q ( 2.Y G H L :.#.W ( ) -.@.*.*.@.;.u.i.e.q.q.u.6.X.5.5.X.Q W @.@.@.#.@.%.%.^ -.>.Y hXJXSXVXmXmXSXBXMXmXJX{ N {  .$.^ / W W @.@.%.%.*.*.*._ *.%.%.-.-.,.;.+.NXBXmXzXw.p.d.VXBXZXzXd.p.d.BXmXZXvXy  .{ } $.U $.,.3.} NXCXmXBXmXBXmXVXBXCXNXK @.%.%.*._ X.u.i.u.6.Q >.( =.=.Q 5.t.i.jXo.=.` >.=.*.^ @.@.W _ >.-.*.*.) ( ( ) *._ _ =.=.=.&.! ( ^ ( =.Q jXi.u.5.P #.#._ %.%.o.o.o.W -.;.X.5.jXr.w.r.r.e.u.a.a.lX4.;.;.,.-.-.;.=.! >. .7 6 4 k N N B dX`.`.).].~.).).~.~.).).).)._._.).)._.^.^.^._._._._._._._._._._._._._._.).)._._.).)._.^.^.^._._._._._._._._._._._._._._.).)._._._._._._._._._.)._._._._._._._._._._._._._._._.)._._._._._._._._._._._._._._._._._._._._.).)._._.).)._.^.^.^._._._._._._._._._._._._._._.).)._._.).)._.^.^.^._._._._._._._._._._._._._._.).)._._._._._._._._._.)._._._._._._._._._._._._._._._.)._._._._._._._._._._._._._._._._._._._._.).)._._.).)._.^.^.^._._._._._._._._._._._._._._.).)._._.).)._.^.^.^._._._._._._._._._._._._._._.).)._._.).)._.^.^.^._._._._._._._._._._._._._._.).)._._.).)._.^.^.^._._.).)._.^.^.^._._._._._._._._._._._._._._.).)._._.).)._.^._._._._.).)._.^.^.^._._._._._._._._._._._._._._.).)._._.).)._.^.^.^._._.).)._.^.^.^._._._._._._._._._._._._._._.).)._._.).)._.^._._._._._._._._._._._.)._._._._._._._._._._._._._._._.)._._._._._._._._._._._._._._._._._._._._.).)._._.).)._.^.^.^._._._._._._._._._._._._._._.).)._._.).)._.^.^.^._._.",
"~.~.~.~.~.~.~.~.~.~.~.~.~.~.~.~.~.~.~.~.~.~.~.~.~.~.~.~.~.~.~.~.~.~.~.~.~.~.~.~.~.~.~.~.~.~.~.~.~.~.~.~.~.~.~.~.~.~.~.~.~.~.~.~.~.~.~.~.~.~.~.~.~.~.~.~.~.~.~.~.).|.].|.|.|.).).~.).).`.`.`.~.~.~.~.~.~.~.~.~.~.~.~.~.~.~.~.~.~.)._._._.`.`.).).sXXXsX].i % : k N M N 7 - 4 - 9 < o xXlXlXt.~ ! ! Q -.%.=.( -.%.&.=.>.R w l l l z r y xXr.lX6.U ^ #._ #.:.I j x t | ;.o.&.&.=.( ` ) Q ;.lXp.r.r.r.lXkXU W ( ` ) ( &.-.=.=.=.=.) ( ` 2.Y hXJXmXSXCXCXBXBXBXJXJXr 0 q L #.>.=.=.=.%.%.&.&.*.*.*._ =.` ( ^ W Q ~ P CXZXZXbXw.e.d.CXBXZXzX0.y.w.CXCXJXhX+ q w } 2.2.` / ~ F NXJXBXVXZXZXBXVXmXJXNX8.@.&.%.&.%.o.jXu.u.5.Q 2.( ) _ Q +.lXy.lXX.Q >.' Q o.&.=.=.( &.! W ! ( &.&.&.&.%.-.*.@.^ #.#.@.@.@.%.=.Q jXa.a.6.P o.%.( %.&.( _ _ / >.*.P ;.jXy.q.y.y.t.t.q.q.jXW ~ / / / Q / Q ` ,. .+ O X q J z l >X).(.~.~.~.)._.^.^.).`.`.`.~.~.~.~.~.].].~.~.~.~.~.~.~.~.~.].].~.~.~.~.~.~.~.~.~.~.~.].].~.~.~.~.~.~.~.~.~.].].~.~.~.~.~.~.~.~.~.~.~.~.~.~.~.~.~.~.~.~.~.~.~.~.~.~.~.~.~.~.~.~.~.~.~.~.~.~.~.~.~.~.~.~.~.~.].].~.~.~.~.~.~.~.~.~.~.~.].].~.~.~.~.~.~.~.~.~.].].~.~.~.~.~.~.~.~.~.~.~.].].~.~.~.~.~.~.~.~.~.].].~.~.~.~.~.~.~.~.~.~.~.~.~.~.~.~.~.~.~.~.~.~.~.~.~.~.~.~.~.~.~.~.~.~.~.~.~.~.~.~.~.~.~.~.~.~.].].~.~.~.~.~.~.~.~.~.~.~.].].~.~.~.~.~.~.~.~.~.].].~.~.~.~.~.~.~.~.~.~.~.].].~.~.~.~.~.~.~.~.~.].].~.~.~.~.~.~.~.~.~.~.~.].].~.~.~.~.~.~.~.~.~.].].~.~.~.~.~.~.~.~.~.~.~.].].~.~.~.~.~.~.].].~.~.~.~.~.~.~.~.~.].].~.~.~.~.~.~.~.~.~.~.~.~.~.~.~.~.~.~.~.].].~.~.~.~.~.~.~.~.~.].].~.~.~.~.~.~.~.~.~.~.~.].].~.~.~.~.~.~.].].~.~.~.~.~.~.~.~.~.].].~.~.~.~.~.~.~.~.~.~.~.~.~.~.~.~.~.~.~.~.~.~.~.~.~.~.~.~.~.~.~.~.~.~.~.~.~.~.~.~.~.~.~.~.~.~.~.~.~.~.~.~.~.~.].].~.~.~.~.~.~.~.~.~.~.~.].].~.~.~.~.~.~.~.~.~.].].~.~.~.~.~.~.~.~.~.~.~.].].~.~.~.",
"^.^.^.^.^.^.^.^.^.^.^.^.^.^.^.^.^.^.^.^.^.^.^.^.^.^.^.^.^.^.^.^.^.^.^.^.^.^.^.^.^.^.^.^.^.^.^.^.^.^.^.^.^.^.^.^.^.^.^.^.^.^.^.^.^.^.^.^.^.^.^.^.^.^.^.^.^.^.^.^.|.).^._.|.|.}.).)._.).).).).^.^.^.^.^.^.^.^.^.^.^.^.^.^.^.^.^.^.^.^.^.~.^.^.].].!./.].E.$   o 7 N B B % % # $ $ # o 0.a.u.6.Q ' ' / ' / ` ` >.^ @.^ -.| w l l l j q y xXlXlX;.Y ~ ! 1.1.-.} w v t | ,._ / / / / ' ' Y ;.lXa.r.a.a.lXkXP Y W ` 2.) ( &.( ! ( / Q =.( =.P xXJXVXVXVXVXVXVXVXJXJXe r w K $.-./ Q W %.&._ *.*.*.%.%.%.@.@.#.*.*.o.} JXZXVXf.d.9.w.CXBXCXzX9.q.9.BXCXJXvXu x t | >._ 2.&.! P NXJXVXVXAXVXAXVXVXJXNX8.@._ ( ( W X.jXe.lX+.~ 1.&.=.Q Y +.zXp.a.O.U 6X_ &.=.! ! Q / =.=.#.#.#._ ^ ( ) _ ( _ / ! / ` ` ` >._ =.Q jXy.a.+.P o.-.( &.&.( *.-.%.@.X.P O.u.a.p.p.p.p.p.p.p.a.;.&.&.-.%.%.=.&.o.<...O . . 8 N M B >X|.].].].~._._.^.^._._._._._.^.^.^.^.^.^.^.^.^.^.^.^.^.^.^.^.^.^.^.^.^.^.^.^.^.^.^.^.^.^.^.^.^.^.^.^.^.^.^.^.^.^.^.^.^.^.^.^.^.^.^.^.^.^.^.^.^.^.^.^.^.^.^.^.^.^.^.^.^.^.^.^.^.^.^.^.^.^.^.^.^.^.^.^.^.^.^.^.^.^.^.^.^.^.^.^.^.^.^.^.^.^.^.^.^.^.^.^.^.^.^.^.^.^.^.^.^.^.^.^.^.^.^.^.^.^.^.^.^.^.^.^.^.^.^.^.^.^.^.^.^.^.^.^.^.^.^.^.^.^.^.^.^.^.^.^.^.^.^.^.^.^.^.^.^.^.^.^.^.^.^.^.^.^.^.^.^.^.^.^.^.^.^.^.^.^.^.^.^.^.^.^.^.^.^.^.^.^.^.^.^.^.^.^.^.^.^.^.^.^.^.^.^.^.^.^.^.^.^.^.^.^.^.^.^.^.^.^.^.^.^.^.^.^.^.^.^.^.^.^.^.^.^.^.^.^.^.^.^.^.^.^.^.^.^.^.^.^.^.^.^.^.^.^.^.^.^.^.^.^.^.^.^.^.^.^.^.^.^.^.^.^.^.^.^.^.^.^.^.^.^.^.^.^.^.^.^.^.^.^.^.^.^.^.^.^.^.^.^.^.^.^.^.^.^.^.^.^.^.^.^.^.^.^.^.^.^.^.^.^.^.^.^.^.^.^.^.^.^.^.^.^.^.^.^.^.^.^.^.^.^.^.^.^.^.^.^.^.^.^.^.^.^.^.^.^.^.^.^.^.^.^.^.^.^.^.^.^.^.^.^.^.^.^.^.^.^.^.^.^.^.^.^.^.^.^.^.^.^.^.^.^.^.^.^.^.^.^.^.^.^.^.^.^.^.^.^.^.^.^.^.^.^.^.^.^.^.^.^.^.^.^.^.^.^.^.^.^.^.^.^.^.^.^.^.^.^.^.^.",
"{.}.}.}.}.}.}.{.}.{.{.{.}.}.}.{.{.}.}.}.}.}.}.{.}.{.{.{.}.}.}.{.}.}.}.}.}.{.{.{.}.}.}.}.{.{.{.{.{.{.}.}.}.}.{.{.}.}.}.}.}.{.{.{.}.}.}.}.`.`.}.}.`.`.}.}.}.}.`.}. X(.!.!.!.`.}.`.}.}._._.}._._._.}.}.}.}.}.}.}.}.}.}.}.}.}.}.}.}.`.`.`.`.`.`.}.}.}.}.}.E.h i p a N n n 7 7 7 6 6 4 + 0.a.u.6.O.;.;.O.O.;.-.~ *.( *.@.#.$.G H v H H D D kXe.jX6.o.5.3.U R | I L L L $.-.Q X.;.;.;.;.;.O.+.t.t.t.u.q.t.6.+.;.5.@.W #.@.-.@.^ >.3.-.;.U @.} kXNXmXmXNXNXBXNXmXNXNX{ H G I $.*.%.*.-.%.&.*.*.*.*.&.&.&.&.( _ *.=.) X.HXNXnXbXs.s.d.mXBXVXnXw.s.w.mXBXCXhXu K L | #.#.Q X.o.} xXNXNXNXNXNXBXBXmXNXcX} $._ *.=._ X.jXu.lX4.P / Q -.;.O.6.i.0.i.;.W >._ ! %.W -.-.-.;.Q %.%.&.&.&.&.=.=.W >.,.-.*.#.#.-.*./ ( Q jXe.jX5.Q _ =._ *.*.) &.=.=.=.=.o.;.kXt.t.q.i.t.t.t.e.jX@.^ ^ #.@.^ ( ( ! #.| 0 0 0 e b z B dX`.(.(.(.!. X`.}.|.}.}.}.}.}.}.}.}.}.}.}.}.}.}.}.}.}.}.}.}.}.}.}.}.}.}.}.}.}.}.}.}.}.}.}.}.}.}.}.}.}.}.}.}.}.}.}.}.}.}.}.}.}.}.}.}.}.}.}.}.}.}.}.}.}.}.}.}.}.}.}.}.}.}.}.}.}.}.}.}.}.}.}.}.}.}.}.}.}.}.}.}.}.}.}.}.}.}.}.}.}.}.}.}.}.}.}.}.}.}.}.}.}.}.}.}.}.}.}.}.}.}.}.}.}.}.}.}.}.}.}.}.}.}.}.}.}.}.}.}.}.}.}.}.}.}.}.}.}.}.}.}.}.}.}.}.}.}.}.}.}.}.}.}.}.}.}.}.}.}.}.}.}.}.}.}.}.}.}.}.}.}.}.}.}.}.}.}.}.}.}.}.}.}.}.}.}.}.}.}.}.}.}.}.}.}.}.}.}.}.}.}.}.}.}.}.}.}.}.}.}.}.}.}.}.}.}.}.}.}.}.}.}.}.}.}.}.}.}.}.}.}.}.}.}.}.}.}.}.}.}.}.}.}.}.}.}.}.}.}.}.}.}.}.}.}.}.}.}.}.}.}.}.}.}.}.}.}.}.}.}.}.}.}.}.}.}.}.}.}.}.}.}.}.}.}.}.}.}.}.}.}.}.}.}.}.}.}.}.}.}.}.}.}.}.}.}.}.}.}.}.}.}.}.}.}.}.}.}.}.}.}.}.}.}.}.}.}.}.}.}.}.}.}.}.}.}.}.}.}.}.}.}.}.}.}.}.}.}.}.}.}.}.}.}.}.}.}.}.}.}.}.}.}.}.}.}.}.}.}.}.}.}.}.}.}.}.}.}.}.}.}.}.}.}.}.}.}.}.}.}.}.}.}.}.}.}.}.}.}.}.}.}.}.}.}.}.}.}.}.}.}.}.}.}.}.}.}.}.}.}.}.}.}.}.}.}.}.}.}.}.}.}.}.}.}.}.}.}.}.}.}.}.}.",
"~.~.^.^.^.^.~.~.~.~.^.^.^.^.~.~.~.~.^.^.^.^.~.~.~.~.^.^.^.^.~.~.^.^.^.^.^.^.^.^.~.~.~.^.^.^.^.~.~.^.~.^.~.~.~.^.^.^.^.^.^.^.^.^.^.^.^.^.^.^.^.^.^.^.^.^.^.^.^.^.dXR.Z.Z.Z.>XdX/.dXdXdXdX^.^.^.^.^.^.^.^.^.^.^.^.^.^.^.^.^.^.^.^.^.^.^.^.^.^.^.^._._.`.sX^.aXaX>Xx t H r M n m N x q jXa.a.y.u.lXy.a.a.lXt.Q %.=.&.&.( 1.-.;.@.6.zXa.w.a.r.p.y.y.a.u.y t t L $.X.Q %.&.Q 5.jXu.u.lXlXjX6.X.P U Y ~ ~ O.kXjXlX;.W -.^ @.X.X.6.jXu.kX1.] ~ ~ Q Y Y Y Y ~ ~ ~ ~ ] ~ =.*.=.) ( ) &.( &.&._ _ %.%.&.%.%.%.) ) &.) ( ( Y Y 8.kXCXCXBXJXBXZXCXCXCXBXZXCXJXxXY ,.( &.) =.' ] ] ~ ^ Q ~ ~ Y ~ Y ~ ~ ~ ] Y ` *.*.*./ Q u.e.a.5.@.>.;.kXjXlX..q w G U _ W &.*.-.O.6.lXjXkXX.^ _ _ =.-.*.^ Q X.6.lXa.a.p.p.zX5.o.o.X.lXr.a.6.Q *.=._ _ _ ) %.%.%.^ ) Q ! &.~ ! W / / Q Q Q ~ @.^ ^ @.$.#.*.-.=.2.3./ =.#.U L D B >X_.^.^.^./._._.^.^.^.^.^.^.^.^.^.^.^.^.^.^.^.^.^.^.^.^.^.^.^.^.^.^.^.^.^.^.^.^.^.^.^.^.^.^.^.^.^.^.^.^.^.^.^.^.^.^.^.^.^.^.^.^.^.^.^.^.].].^.^.^.^.^.^.].].^.^.^.^.^.^.].].^.^.^.^.^.^.].].^.^.^.^.^.^.^.^.^.^.^.^.^.^.^.^.^.^.^.^.^.^.^.^.^.^.^.^.^.^.^.^.^.^.^.^.^.^.^.^.^.^.^.^.^.^.^.^.^.^.^.^.^.^.^.^.^.^.^.^.^.^.^.^.^.^.^.^.^.^.].].^.^.^.^.^.^.].].^.^.^.^.^.^.].].^.^.^.^.^.^.].].^.^.^.^.^.^.^.^.^.^.^.^.^.^.^.^.^.^.^.^.^.^.^.^.^.^.^.^.^.^.^.^.^.^.^.^.^.^.^.^.^.^.^.^.^.^.^.^.^.^.^.^.^.^.^.^.^.^.^.^.^.^.^.^.^.^.^.^.^.^.^.^.^.^.^.^.^.^.^.^.^.^.^.^.^.^.^.^.^.^.^.^.^.^.^.^.^.^.^.^.^.^.^.^.^.^.^.^.^.^.^.^.^.^.^.^.^.^.^.^.^.^.^.^.^.^.^.^.^.^.^.^.^.^.^.^.^.^.^.^.^.^.^.^.^.^.^.^.^.^.^.^.^.^.^.^.^.^.^.^.^.^.^.^.^.^.^.^.^.^.^.^.^.^.^.^.^.^.^.^.^.^.^.^.^.^.^.^.^.^.^.^.^.^.^.^.^.^.].].^.^.^.^.^.^.].].^.^.^.^.^.^.].].^.^.^.^.^.^.].].^.^.^.^.^.^.^.^.^.^.^.^.^.^.^.^.^.^.^.^.^.^.^.^.^.^.^.^.^.^.^.^.^.^.^.^.^.^.^.^.^.^.^.^.^.^.^.^.^.^.",
"`.`.).`.).).`.`.`.`.).`.).).`.`.`.`.).`.).).`.`.`.`.).`.).).`.`.`.`.).).`.`.`.`.).).`.`.`.`.).).`.`.`.`.).).`.`.`.`.).).`.`.`.`._._.`.`.`.`.`.`.`.`.`.`.`.`.`.^.dXR.c.c.c.R.dX~.).`.`.`.(.`.[.`.`._._._._._._._._._._._._._._._.~.~.~.].].].~.~.pX}.!.}.(.|.~.c.k z J v N c H G J t t.r.e.w.w.p.w.p.w.u.t.Q =.>._ >.( ) ! ! Q 6.u.y.i.u.i.r.y.u.lXxXq j v K 5X1.] ` ` Q 4.lXa.p.w.e.lXt.P ! 2._ ` ! O.lXa.lX;.~ =.` =.^ Q 6.a.a.u.} X.@.*._ #.>.2.' ' _ *.Q >.>._ =.=.) ( =.-.^ *.*.*.*.%.%.&.%.@.@.) &.*.*.-.=.=.! P jXJXZXSXSXSXSXBXBXVXAXAXSXCXxXF 2.=.&.^ ^ / #.*.^ @.#._ _ >.#._ =.^ Q >.-.%.%.@.^ W X.u.y.zX5.P U X.u.a.s.0.0 q j | ,.Q o.@.U P 6.lXlXt.8.-.&.o.o.-.-.-.-.8.6.lXp.w.d.d.u.5./ Q Q jXe.u.5.~ &.-.( &.&.( @.X.@.@.-.-.=.>.W Q ( =.>.^ _ *.@.%.( ) &.@.%.#.*./ / >.=.6X6XI w z B ].`.}.}. X|.`.`.`.`.`.`.`.`.`.`.`.`.`.`.`.`.`.`.`.`.`.`.`.`.`.`.`.`.`.`.`.`.`.`.`.`.`.`.`.`.`.`.`.`.`.`.`.`.`.`.`.`.`.`.`.`.`.`.`.`.`.`.`.`.`.`.`.`.`.`.`.`.`.`.`.`.`.`.`.`.`.`.`.`.`.`.`.`.`.`.`.`.`.`.`.`.`.`.`.`.`.`.`.`.`.`.`.`.`.`.`.`.`.`.`.`.`.`.`.`.`.`.`.`.`.`.`.`.`.`.`.`.`.`.`.`.`.`.`.`.`.`.`.`.`.`.`.`.`.`.`.`.`.`.`.`.`.`.`.`.`.`.`.`.`.`.`.`.`.`.`.`.`.`.`.`.`.`.`.`.`.`.`.`.`.`.`.`.`.`.`.`.`.`.`.`.`.`.`.`.`.`.`.`.`.`.`.`.`.`.`.`.`.`.`.`.`.`.`.`.`.`.`.`.`.`.`.`.`.`.`.`.`.`.`.`.`.`.`.`.`.`.`.`.`.`.`.`.`.`.`.`.`.`.`.`.`.`.`.`.`.`.`.`.`.`.`.`.`.`.`.`.`.`.`.`.`.`.`.`.`.`.`.`.`.`.`.`.`.`.`.`.`.`.`.`.`.`.`.`.`.`.`.`.`.`.`.`.`.`.`.`.`.`.`.`.`.`.`.`.`.`.`.`.`.`.`.`.`.`.`.`.`.`.`.`.`.`.`.`.`.`.`.`.`.`.`.`.`.`.`.`.`.`.`.`.`.`.`.`.`.`.`.`.`.`.`.`.`.`.`.`.`.`.`.`.`.`.`.`.`.`.`.`.`.`.`.`.`.`.`.`.`.`.`.`.`.`.`.`.`.`.`.`.`.`.`.`.`.`.`.`.`.`.`.`.`.`.`.`.`.`.`.`.`.`.`.`.`.`.`.`.`.`.`.`.`.`.`.`.`.`.`.`.`.`.`.`.`.`.`.`.`.`.`.`.`.`.",
"[.[.[.[.[.[.[.[.[.[.[.[.[.[.[.[.[.[.[.[.[.[.[.[.[.[.[.[.[.[.[.[.[.[.[.[.[.[.[.[.[.[.[.[.[.[.[.[.[.[.[.[.[.[.[.[.[.[.[.[.[.[.[.[.{.{.[.[.[.[.{.[.{.{.{.{.{.{.[.{. XI.c.c.D.~.XX(.[.[.[.[.[.[.oXoX[.[.[.[.[.[.[.[.[.[.[.[.[.[.[.[.oXoXoXoX[.[.[.[.(.(.{.[.{. XsXR.B n m z N r t t r y u.lXzXs.s.p.e.lXr.y.t.~ =./ Y / U Q U / U 5.a.p.p.p.p.p.p.p.w.a.y m t L -.~ =.( ` P +.y.9.9.a.a.lXt.~ o.o.! =.Q O.a.q.lX;.X.*.*.2.=.Q 6.a.e.jXP X.&.) ` =.&.) ! =.%.-.X.X.X.@.@.%.%.@.@.@.W *.*.*.*.%.%.%.&.&.) ` ) ) %.W ^ -.-.P jXCXZXZXZXZXZXZXZXZXZXZXZXCXcXY >.Q %.#.=.=.! ! &.o.&.1.) ^ @.! 1.-.X.%.%.%.%.%.&.=.-.jXu.lX+.P P O.kXlXxX..q v D $.*.W o.*.@.X.kXxXu.6.Q / ' / Q / ' ' ^ X.6.lXa.p.p.p.lX;.U @.X.jXe.lX5.P %.-.( %.&.%.%.=.>.` ` / Q ( Q ^ Q ^ ( ( &.-.*./ ' ' ' Q ~ ~ ~ / W ^ Q W $.H q B V ~.(.(.(.(.(.[.[.}.}.[.[.[.[.[.[.[.[.[.[.[.[.[.[.[.[.[.[.[.[.[.[.[.[.[.[.[.[.[.[.[.[.[.[.[.[.[.[.[.[.[.[.[.[.[.[.[.[.[.[.[.[.[.[.[.[.[.[.[.[.[.[.[.[.[.[.[.[.[.[.[.[.[.[.[.[.[.[.[.[.[.[.[.[.[.[.[.[.[.[.[.[.[.[.[.[.[.[.[.[.[.[.[.[.[.[.[.[.[.[.[.[.[.[.[.[.[.[.[.[.[.[.[.[.[.[.[.[.[.[.[.[.[.[.[.[.[.[.[.[.[.[.[.[.[.[.[.[.[.[.[.[.[.[.[.[.[.[.[.[.[.[.[.[.[.[.[.[.[.[.[.[.[.[.[.[.[.[.[.[.[.[.[.[.[.[.[.[.[.[.[.[.[.[.[.[.[.[.[.[.[.[.[.[.[.[.[.[.[.[.[.[.[.[.[.[.[.[.[.[.[.[.[.[.[.[.[.[.[.[.[.[.[.[.[.[.[.[.[.[.[.[.[.[.[.[.[.[.[.[.[.[.[.[.[.[.[.[.[.[.[.[.[.[.[.[.[.[.[.[.[.[.[.[.[.[.[.[.[.[.[.[.[.[.[.[.[.[.[.[.[.[.[.[.[.[.[.[.[.[.[.[.[.[.[.[.[.[.[.[.[.[.[.[.[.[.[.[.[.[.[.[.[.[.[.[.[.[.[.[.[.[.[.[.[.[.[.[.[.[.[.[.[.[.[.[.[.[.[.[.[.[.[.[.[.[.[.[.[.[.[.[.[.[.[.[.[.[.[.[.[.[.[.[.[.[.[.[.[.[.[.[.[.[.[.[.[.[.[.[.[.[.[.[.[.[.[.[.[.[.[.[.[.[.[.[.[.[.[.[.[.[.[.[.[.[.[.[.[.[.[.[.[.[.[.[.[.[.[.[.[.[.[.[.[.[.[.[.[.[.[.[.[.[.[.[.[.[.[.[.[.[.[.[.",
",X,X,X,X,X,X,X,X,X,X,X,X,X,X,X,X,X,X,X,X,X,X,X,X,X,X,X,X,X,X,X,X,X,X,X,X,X,X,X,X,X,X,X,X,X,X,X,X,X,X,X,X,X,X,X,X,X,X,X,X,X,X,X,X,X,X,X,X,X,X,X,X,X,X,X,X,X,X,X,X1X#XT T +X&X1X>X,X,X,X&X&X&X,X,X,X,X,X,X,X,X,X,X,X,X,X,X,X,X,X,X,X,X,X,X&X,X,X,X,X1X,X&XC C T B l t G v N x N c N 0 ..} { { } } { i.jXlXt.8.o.X.6.6.t.6.6.kX6.6.;.,.,.;.;.;.;.7.7.6.t c l { <.@.%.^ >.Q +.lXu.jX+.;.;.,./ >.^ #.*.X.O.lXt.lX} D L I @.o.~ 6.lXe.jXP X.-.%.( -.W %.*.>.Q *.*.=.) =.( ( =.&.&.&.) ` ` _ _ %.@.%.%.@.@.#.*.*.-.=.=.^ >.Y 3.tX4.4.4.4.4.4.4.5.6.4.4.4.6.F 2.! &.=._ >.^ ^ -.^ _ ` / #.#.( ) =.) ) ( _ &.&.&.! ~ 6.+.+.5.tXkX;.} { {  .L | I #._ 2._ -.@.Q ;.+.O.6.5.q.q.q.t.6.5.;.W P 3.5.;.;.,.-.;.6.5.t.7.a.w.a.5.P *.>._ *.*.@.%.o.%.X.o.o.;.6.tXtX;.X.%.%.*.( Q 6.i.i.q.q.6.6.6.t.6.6.;.! 1.$.U P I 1X<X,X,X,X,X,X,X&X&X&X,X,X,X,X,X,X,X,X,X,X,X,X,X,X,X,X,X,X,X,X,X,X,X,X,X,X,X,X,X,X,X,X,X,X,X,X,X,X,X,X,X,X,X,X,X,X,X,X,X,X,X,X,X,X,X,X,X,X,X,X,X,X,X,X,X,X,X,X,X,X,X,X,X,X,X,X,X,X,X,X,X,X,X,X,X,X,X,X,X,X,X,X,X,X,X,X,X,X,X,X,X,X,X,X,X,X,X,X,X,X,X,X,X,X,X,X,X,X,X,X,X,X,X,X,X,X,X,X,X,X,X,X,X,X,X,X,X,X,X,X,X,X,X,X,X,X,X,X,X,X,X,X,X,X,X,X,X,X,X,X,X,X,X,X,X,X,X,X,X,X,X,X,X,X,X,X,X,X,X,X,X,X,X,X,X,X,X,X,X,X,X,X,X,X,X,X,X,X,X,X,X,X,X,X,X,X,X,X,X,X,X,X,X,X,X,X,X,X,X,X,X,X,X,X,X,X,X,X,X,X,X,X,X,X,X,X,X,X,X,X,X,X,X,X,X,X,X,X,X,X,X,X,X,X,X,X,X,X,X,X,X,X,X,X,X,X,X,X,X,X,X,X,X,X,X,X,X,X,X,X,X,X,X,X,X,X,X,X,X,X,X,X,X,X,X,X,X,X,X,X,X,X,X,X,X,X,X,X,X,X,X,X,X,X,X,X,X,X,X,X,X,X,X,X,X,X,X,X,X,X,X,X,X,X,X,X,X,X,X,X,X,X,X,X,X,X,X,X,X,X,X,X,X,X,X,X,X,X,X,X,X,X,X,X,X,X,X,X,X,X,X,X,X,X,X,X,X,X,X,X,X,X,X,X,X,X,X,X,X,X,X,X,X,X,X,X,X,X,X,X,X,X,X,X,X,X,X,X,X,X,X,X,X,X,X,X,X,X,X,X,X,X,X,X,X,X,X,X,X,X,X,X,X,X,X,X,X,X,X,X,X,X,X,X,X,X,X,X,X,X,X,X,X",
"$X$X$X$X$X$X$X$X$X$X$X$X$X$X$X$X$X$X$X$X$X$X$X$X$X$X$X$X$X$X$X$X$X$X$X$X$X$X$X$X$X$X$X$X$X$X$X$X$X$X$X$X$X$X$X$X$X$X$X$X$X$X$X$X$X$X$X$X$X$X$X$X$X$X$X$X$X$X$X$X9X;Xx.z.x.<X3X4X4X4X$X4X4X4X4X$X$X$X4X4X3X$X$X$X3X3X3X$X3X4X4X4X%X3X9X .3X4X4X%X .$X;X9Xw D y M z c c x x x x x z l r q q q q q u hXkXlX6.X.-.P t.a.p.a.r.y.lX+.Y ( Q Q / / ` ' ' / G N z K -.&.( Q 2.Q +.lX9.jXX.U ' / / >.( =.&.Q O.lX9.xX{ 0 r w ,.1.Q 6.lXw.jXP X.;.Q _ =.( W -.o.W =.=.&.( &.*.%.%.o.%.%.W o.-.%.*.=._ ` ) %.%.W @.%.^ %.%.*._ ( ' / / / ~ ~ ~ ~ ~ ~ ~ ~ ~ ~ ^ ( *.^ -.W =._ =.@.@.=._ / *.#.%.&.=.%.%.=.&.&.W &.=.( ^ ' ' P 5.lXs.xXu 0 q Y >.>.=.-.%.&.*.@.@.^ =.` ~ O.jXjXa.a.9.zXu.P >.' ' ( Q ~ / ' Y 6.lXy.r.w.e.lX5.~ ) *.>.@.-.! ( &.%.#.-.Q ;.lXu.xXO.%.2._ =.^ P e.a.p.r.a.a.p.p.w.a.jXP &.=.1.! ] =.4XiX4X4X$X%X4X4X4X4X4X4X%X$X$X$X$X$X$X$X$X$X$X$X$X$X$X$X$X$X$X$X$X$X$X$X$X$X$X$X$X$X$X$X$X$X$X$X$X$X$X$X$X$X$X$X$X$X$X$X$X$X$X$X$X$X$X$X$X$X$X$X$X$X$X$X$X$X$X$X$X$X$X$X$X$X$X$X$X$X$X$X$X$X$X$X$X$X$X$X$X$X$X$X$X$X$X$X$X$X$X$X$X$X$X$X$X$X$X$X$X$X$X$X$X$X$X$X$X$X$X$X$X$X$X$X$X$X$X$X$X$X$X$X$X$X$X$X$X$X$X$X$X$X$X$X$X$X$X$X$X$X$X$X$X$X$X$X$X$X$X$X$X$X$X$X$X$X$X$X$X$X$X$X$X$X$X$X$X$X$X$X$X$X$X$X$X$X$X$X$X$X$X$X$X$X$X$X$X$X$X$X$X$X$X$X$X$X$X$X$X$X$X$X$X$X$X$X$X$X$X$X$X$X$X$X$X$X$X$X$X$X$X$X$X$X$X$X$X$X$X$X$X$X$X$X$X$X$X$X$X$X$X$X$X$X$X$X$X$X$X$X$X$X$X$X$X$X$X$X$X$X$X$X$X$X$X$X$X$X$X$X$X$X$X$X$X$X$X$X$X$X$X$X$X$X$X$X$X$X$X$X$X$X$X$X$X$X$X$X$X$X$X$X$X$X$X$X$X$X$X$X$X$X$X$X$X$X$X$X$X$X$X$X$X$X$X$X$X$X$X$X$X$X$X$X$X$X$X$X$X$X$X$X$X$X$X$X$X$X$X$X$X$X$X$X$X$X$X$X$X$X$X$X3X3X$X$X$X$X$X$X3X$X$X$X$X4X3X3X3X$X%X%X4X4X3X3X3X3X$X3X$X3X3X3X$X$X$X3X$X$X$X$X4X4X4X4X4X4X$X4X4X4X4X4X4X4X4X3X$X$X3X3X3X%X3X3X4X4X$X$X$X%X4X4X3X3X4X4X4X4X4X$X",
"$X$X$X$X$X$X$X$X$X$X$X$X$X$X$X$X$X$X$X$X$X$X$X$X$X$X$X$X$X$X$X$X$X$X$X$X$X$X$X$X$X$X$X$X$X$X$X$X$X$X$X$X$X$X$X$X$X$X$X$X$X$X$X$X$X$X$X$X$X$X$X$X$X$X$X$X$X$X$X=X1X#Xx.z.x.1X=X$X=X=X=X=X4X3X3X$X$X$X3X3X4X$X3X3X3X3X$X=X=X=X$X=X-X-X=X;X1X-X-X3XiXyXiXiXv v l n x c c x x x x x N m m c c m N m u kXa.lX6.~ W P t.a.a.y.y.q.lX+.W >.*.-.>.#.=._ >.$.v l q J :.-.-.( &.Y +.lXa.xXO.^ >._ W ^ / / Q Q O.lXa.zX{ 0 m v :.Q U 6.lXa.jXX.Q &.! ` ( ( _ =._ _ ) ( ( ) ^ ( %.%.%.%.%.( *.*.*.*.*.( ^ ( ( ^ =.=.) &.-.-.@.@.%.( %.&.&.*.=.=.>.>.>.=.=.=.( _ *.>./ *.Q ( / / / ^ _ =.>.*.@.^ ( ) -.*./ / Q / _ _ >.-.*.&.~ 6.lXlXlXy r v L >._ ' _ / ' ` ` / _ _ _ W +.lXi.w.p.r.lXt.P Q _ / / %.%.=.>.~ 5.a.y.y.r.r.lX6.~ &.( =.@.-.W &.( _ _ *.Q ;.lXy.lXO.P ~ Q _ ` Q t.y.p.r.y.y.y.r.a.lXkXP Y ^ _ >.=.#.3X*X%X=X*X:X3X3X-X-X3X3X3X3X=X$X$X$X$X$X$X$X$X$X$X$X$X$X$X$X$X$X$X$X$X$X$X$X$X$X$X$X$X$X$X$X$X$X$X$X$X$X$X$X$X$X$X$X$X$X$X$X$X$X$X$X$X$X$X$X$X$X$X$X$X$X$X$X$X$X$X$X$X$X$X$X$X$X$X$X$X$X$X$X$X$X$X$X$X$X$X$X$X$X$X$X$X$X$X$X$X$X$X$X$X$X$X$X$X$X$X$X$X$X$X$X$X$X$X$X$X$X$X$X$X$X$X$X$X$X$X$X$X$X$X$X$X$X$X$X$X$X$X$X$X$X$X$X$X$X$X$X$X$X$X$X$X$X$X$X$X$X$X$X$X$X$X$X$X$X$X$X$X$X$X$X$X$X$X$X$X$X$X$X$X$X$X$X$X$X$X$X$X$X$X$X$X$X$X$X$X$X$X$X$X$X$X$X$X$X$X$X$X$X$X$X$X$X$X$X$X$X$X$X$X$X$X$X$X$X$X$X$X$X$X$X$X$X$X$X$X$X$X$X$X$X$X$X$X$X$X$X$X$X$X$X$X$X$X$X$X$X$X$X$X$X$X$X$X$X$X$X$X$X$X$X$X$X$X$X$X$X$X$X$X$X$X$X$X$X$X$X$X$X$X$X$X$X$X$X$X$X$X$X$X$X$X$X$X$X$X$X$X$X$X$X$X$X$X$X$X$X$X$X$X$X$X$X$X$X$X$X$X$X$X$X$X$X$X$X$X$X$X$X$X$X$X$X$X$X$X$X$X$X$X$X$X$X$X$X$X$X$X$X$X$X$X$X$X$X$X$X$X=X3X3X=X=X=X=X=X=X3X=X=X=X=X$X$X4X4X3X$X$X3X$X$X$X$X$X$X$X$X$X3X3X$X$X$X$X$X%X=X=X=X3X3X3X3X3X=X=X=X3X3X3X3X3X=X3X=X$X3X3X3X$X3X3X=X$X$X$X%X%X=X=X3X3X3X3X3X3X$X$X",
"*X*X*X*X*X*X*X*X*X*X*X*X*X*X*X*X*X*X*X*X*X*X*X*X*X*X*X*X*X*X*X*X*X*X*X*X*X*X*X*X*X*X*X*X*X*X*X*X*X*X*X*X*X*X*X*X*X*X*X*X*X*X*X*X*X*X*X*X*X*X*X*X*X*X*X*X*X*X*X*X1X#XC T T -X=X*X&X&X*X*X%X=X*X*X*X*X&X*X&X*X=X=X*X*X&X&X*X*X*X*X1X&X$X4XyX;X;X=X=X&X&X .K G G v x x c x x x x x x x z x x c m m u kXy.r.6.X.O.O.t.kXi.4.lXq.jX+.Q *.) =.=.^ %.%.X.X.D G G I :.*.Y @.O.O.5.t.u.jXO.%._ *.O.X.X.X.@.;.4.4.u.u.} G G G <.X.;.6.t.t.t.;.o.! o.-.X.-.=.' _ >.@.W ^ =.&.%.%.%.*.@.@.%.=.( ( ^ Q X.;.X.-.Q &.&.W ( ^ %.o.o.o.%.%.%.%.%.%.%.#.#.@.@.@.%.-.^ *.*.~ -.o.o.o.X.@.-.W ) >.^ %.%.! ! %.Q U ,.X.1.! ~ ) =.( &.W 6.jXi.kXD r z I >.^ Q -.-.X.&.o.W -.@.@.-.+.jXjXu.jXt.t.6.;.O.;.W W _ %.*.&.P 6.u.i.u.u.i.jX6.U @./ *._ >._ =.W ! %.-.o.5.jXu.t.5.@.%.@.%./ P t.e.r.r.q.y.y.q.t.u.t.5.O.;.^ Q ^ R 3X$X4X3X;X,X&X&X&X&X*X=X=X*X*X*X*X*X*X*X*X*X*X*X*X*X*X*X*X*X*X*X*X*X*X*X*X*X*X*X*X*X*X*X*X*X*X*X*X*X*X*X*X*X*X*X*X*X*X*X*X*X*X*X*X*X*X*X*X*X*X*X*X*X*X*X*X*X*X*X*X*X*X*X*X*X*X*X*X*X*X*X*X*X*X*X*X*X*X*X*X*X*X*X*X*X*X*X*X*X*X*X*X*X*X*X*X*X*X*X*X*X*X*X*X*X*X*X*X*X*X*X*X*X*X*X*X*X*X*X*X*X*X*X*X*X*X*X*X*X*X*X*X*X*X*X*X*X*X*X*X*X*X*X*X*X*X*X*X*X*X*X*X*X*X*X*X*X*X*X*X*X*X*X*X*X*X*X*X*X*X*X*X*X*X*X*X*X*X*X*X*X*X*X*X*X*X*X*X*X*X*X*X*X*X*X*X*X*X*X*X*X*X*X*X*X*X*X*X*X*X*X*X*X*X*X*X*X*X*X*X*X*X*X*X*X*X*X*X*X*X*X*X*X*X*X*X*X*X*X*X*X*X*X*X*X*X*X*X*X*X*X*X*X*X*X*X*X*X*X*X*X*X*X*X*X*X*X*X*X*X*X*X*X*X*X*X*X*X*X*X*X*X*X*X*X*X*X*X*X*X*X*X*X*X*X*X*X*X*X*X*X*X*X*X*X*X*X*X*X*X*X*X*X*X*X*X*X*X*X*X*X*X*X*X*X*X*X*X*X*X*X*X*X*X*X*X*X*X*X*X*X*X*X*X*X*X*X*X*X*X*X*X*X*X*X*X*X*X*X*X*X*X*X*X*X*X*X*X*X*X*X*X*X*X*X*X*X&X&X&X&X*X&X*X*X*X*X*X*X-X-X*X*X*X*X-X*X*X*X*X-X*X*X*X*X*X*X*X*X*X*X*X*X*X*X*X*X*X*X*X*X*X*X*X*X*X-X-X-X*X*X*X*X*X*X*X*X*X*X*X*X*X&X",
"[.[.[.[.[.[.[.[.[.[.[.[.[.[.[.[.[.[.[.[.[.[.[.[.[.[.[.[.[.[.[.[.[.[.[.[.[.[.[.[.[.[.[.[.[.[.[.[.[.[.[.[.[.[.[.[.[.[.[.[.[.[.[.[.[.[.[.[.[.[.[.[.[.[.[.[.[.[.[.}. XI.M.D.D.dX].).[.[.[.[.}.[.[.oX[.[.[.[.[.[.oXoX[.[.[.{.}.}.}.].>X&X:.@.| w t n O   % 7 | @.,.| v x c x x x c x c x x x x x c M u hXa.y.lXu.lXxX+ o o + hXw.jX5.Q =.) =.=.` 1.1.( 2.W >.#.*.1.! ;.kXjXjX6.X.X.~ W =.Q 3.jXy.lXlXlXjX4.u w D I :.>.;.jXu.u.5.Q W W W ! W 6.jXu.lXX./ >.>.X.@.%.=.-.=.*.*.-.@.W &.&.^ %.%.O.6.lXjXkXX.@.-.W -.%.%.%.%.%.%.( ^ ( ( ( ( ( ( ^ ^ ^ ( ( ( %.-.O.kXjXu.lXy.lXjX;.W =.( &.&.&.&.-.X.4.HXCXJXkX| $.-.W ^ Q ( W ~ 2.! 2.3.( ,.o.O.t.jXy.u.lXjXjX;.Q &.Y X.Y P P Q Q ;.jXu.jX5.o.=.` _ *.( / ` / ` ! ! ) Q W -.%.=.! &.( ( _ >.' / / Q @.P O.6.jXlXa.a.a.lX@.R / / / Q W Q Q Q O.jXq.lX6.-.-.;.u.s.xXhXA.}.].}.[.[.(.oXoXoX[.[.[.[.[.[.[.[.[.[.[.[.[.[.[.[.[.[.[.[.[.[.[.[.[.[.[.[.[.[.[.[.[.[.[.[.[.[.[.[.[.[.[.[.[.[.[.[.[.[.[.[.[.[.[.[.[.[.[.[.[.[.[.[.[.[.[.[.[.[.[.[.[.[.[.[.[.[.[.[.[.[.[.[.[.[.[.[.[.[.[.[.[.[.[.[.[.[.[.[.[.[.[.[.[.[.[.[.[.[.[.[.[.[.[.[.[.[.[.[.[.[.[.[.[.[.[.[.[.[.[.[.[.[.[.[.[.[.[.[.[.[.[.[.[.[.[.[.[.[.[.[.[.[.[.[.[.[.[.[.[.[.[.[.[.[.[.[.[.[.[.[.[.[.[.[.[.[.[.[.[.[.[.[.[.[.[.[.[.[.[.[.[.[.[.[.[.[.[.[.[.[.[.[.[.[.[.[.[.[.[.[.[.[.[.[.[.[.[.[.[.[.[.[.[.[.[.[.[.[.[.[.[.[.[.[.[.[.[.[.[.[.[.[.[.[.[.[.[.[.[.[.[.[.[.[.[.[.[.[.[.[.[.[.[.[.[.[.[.[.[.[.[.[.[.[.[.[.[.[.[.[.[.[.[.[.[.[.[.[.[.[.[.[.[.[.[.[.[.[.[.[.[.[.[.[.[.[.[.[.[.[.[.[.[.[.[.[.[.[.[.[.[.[.[.[.[.[.[.[.[.[.[.[.[.[.[.[.[.[.[.[.[.[.[.[.[.[.[.[.[.[.[.[.[.[.[.[.[.[.[.[.[.[.[.[.[.[.{.[.{.{.{.{.{.{.{.[.{.{.{.{.{.[.{.{.[.[.[.[.[.{.(.(.(.(.(.(.(.(.(.{.{.{.(.(.{.{.{.{.[.{.{.{.{.[.[.{.[.[.[.[.{.{.[.[.{.{.{.(.{.{.(.{.{.[.(.(.{.[.[.[.{.{.{.{.{.[.[.[.",
"~.~.~.~.~.~.~.~.~.~.~.~.~.~.~.~.~.~.~.~.~.~.~.~.~.~.~.~.~.~.~.~.~.~.~.~.~.~.~.~.~.~.~.~.~.~.~.~.~.~.~.~.~.~.~.~.~.~.~.~.~.~.~.~.~.~.~.~.~.~.~.~.~.~.~.~.~.~.~.~.dXR.c.v.l.>X^.~.`.`.`.).`.`.`.`.~.~./.~.).`.`.`.).~.^.^._.).{.~.E.>X' ` $.D t N 8 & & O <.2.2.Y G x c x x c c x m m m c c x x v u hXlXw.w.d.w.xXS * @ 4 xXs.u.O.Q *.%._ / ' _ / / 2.( 2.=.=.&.o.8.t.y.lXtXU _ >.] >.Y ;.a.p.9.9.9.a.hXy r j R >.P O.r.p.a.+.Q ' ' 2._ Q 5.a.p.y.O.Q =._ o.-.( _ ( _ _ ( =.&.W %.%.( %.Q P 6.lXy.jXX.Q o.@.-.%.*.*.*.*.*.*.*.*.*.*.&.*.*.=.*.*.=.=.=.%.Q 8.t.a.w.9.d.a.lXO.P =.2.2.` ` ( %.P } JXBXJX6.Y ! ) ( =.-.*.W Q >._ =.=.>.>.Q O.e.a.w.p.9.y.jXO.~ 2.>.6X6X8X_ 2.Q o.jXy.lX+.X._ _ ` =.-.-.*./ ` ` ) &.%.W -.^ -.Q %.>.>.&.1.&.&.1.=.=.&.P kXjXr.w.d.w.u.5.o.! 1.&.) ) ) 2.( X.lXy.lX;.Y / ~ q.p.a.hXR.oX(.!.).]./.R././.~.~.~.~.~.~.~.~.~.~.~.~.~.~.~.~.~.~.~.~.~.~.).~.~.~.~.~.~.~.~.~.~.~.~.~.~.~.~.~.~.~.~.~.~.~.~.~.~.~.~.~.~.~.~.~.~.~.~.~.~.~.).~.~.~.~.~.~.~.~.~.~.~.~.~.~.~.).~.~.~.~.~.~.~.~.~.~.~.~.~.~.).~.~.~.~.~.~.~.~.~.~.~.~.~.~.~.~.~.~.~.~.~.~.~.~.~.~.~.~.~.~.~.~.~.~.~.~.~.~.~.~.~.~.~.~.~.~.~.).~.~.~.~.~.~.~.~.~.~.~.~.~.~.~.~.).~.~.~.~.~.~.~.~.~.~.~.~.~.~.~.).~.~.~.~.~.~.~.~.~.~.~.~.~.~.~.~.~.~.~.~.~.~.~.~.~.~.~.~.~.~.~.~.~.~.~.~.~.~.~.).~.~.~.~.~.~.~.~.~.~.~.~.~.~.~.~.~.~.~.~.~.~.~.~.~.~.~.~.~.~.~.~.~.~.~.~.~.~.).~.~.~.~.~.~.~.~.~.~.~.~.~.~.~.~.~.~.~.~.~.~.~.~.~.~.~.~.~.~.~.~.~.~.~.~.~.~.~.~.~.~.~.~.~.~.~.).~.~.~.~.~.~.~.~.~.~.~.~.~.~.~.~.~.~.~.~.~.~.~.~.~.~.~.~.~.~.~.~.~.~.~.~.~.~.~.~.~.~.~.~.~.~.~.~.~.~.~.~.~.~.~.~.~.~.~.~.~.~.~.~.~.).).).).).).).).).).).).).).).).).~.~.~.~.~._.~.~.~.~.~.~.^.^.^._._._._._.~.(.(.(._._._._.).).)._._._._._._._._._.).)._.`.).~.).|._.).).).~.~.~._._._._._._.).).).~.~.",
"~.~.~.~.~.~.~.~.~.~.~.~.~.~.~.~.~.~.~.~.~.~.~.~.~.~.~.~.~.~.~.~.~.~.~.~.~.~.~.~.~.~.~.~.~.~.~.~.~.~.~.~.~.~.~.~.~.~.~.~.~.~.~.~.~.~.~.~.~.~.~.~.~.~.~.~.~.~.~.~.pXR.c.v.c.dX^.).).)._._.).).).).~.~..X~.^._._._.^.^.^.`.`.`.).^.>X,X| / | w w n 4 . $ O <.=.-.I v x c x x c c x x x x x x x x z y hXxXlXa.p.s.nX7     7 xXlXlX6.Q ^ W &.W Q ^ Q ~ *.Q _ _ _ %.X.O.jXy.u.6.Y Q ' ~ ~ P ;.jXa.a.zXa.zXhXy r w | ,.-.5.lXlXu.+.~ ` ~ Q ~ P 5.lXa.lXX.W =.` ( %.W -.Q @._ / =.=.%.%.%.%.>.^ X.t.xXlX6.X.P o.^ W ( ( ( _ %.*.%.%.%.%.@.@.@.#.#._ *._ ( -.%.X.O.jXlXa.a.a.lXjX;.Y Y Q W Q _ / =.P } JXBXJXtXY *.-.@.-.W &.&.2.>.=.^ W _ _ W ;.t.zXa.a.a.lXlX+.P Q Y Y Q Q ~ W Y X.u.e.a.+.P / ) ( ! ! &.o.=.1.=.-.&.1.] ] ~ ] ~ ~ ~ ~ Y / Y ~ ^ / / =.P t.r.r.p.p.zXxX@./ ~ / / / Q / ' Q P jXu.lX6.o.,.<.u.zXvXgXI.(.XX(.(.XX`.).`. X_.~.~.~.~.~.~.~.~.~.~.~.~.~.~.~.~.~.~.~.~.~.~.~.~.~.~.~.~.~.~.~.~.~.~.~.~.~.~.~.~.~.~.~.~.~.~.~.~.~.~.~.~.~.~.~.~.~.~.~.~.~.~.~.~.~.~.~.~.~.~.~.~.~.~.~.~.~.~.~.~.~.~.~.~.~.~.~.~.~.~.~.~.~.~.~.~.~.~.~.~.~.~.~.~.~.~.~.~.~.~.~.~.~.~.~.~.~.~.~.~.~.~.~.~.~.~.~.~.~.~.~.~.~.~.~.~.~.~.~.~.~.~.~.~.~.~.~.~.~.~.~.~.~.~.~.~.~.~.~.~.~.~.~.~.~.~.~.~.~.~.~.~.~.~.~.~.~.~.~.~.~.~.~.~.~.~.~.~.~.~.~.~.~.~.~.~.~.~.~.~.~.~.~.~.~.~.~.~.~.~.~.~.~.~.~.~.~.~.~.~.~.~.~.~.~.~.~.~.~.~.~.~.~.~.~.~.~.~.~.~.~.~.~.~.~.~.~.~.~.~.~.~.~.~.~.~.~.~.~.~.~.~.~.~.~.~.~.~.~.~.~.~.~.~.~.~.~.~.~.~.~.~.~.~.~.~.~.~.~.~.~.~.~.~.~.~.~.~.~.~.~.~.~.~.~.~.~.~.~.~.~.~.~.~.~.~.~.~.~.~.~.~.~.~.~.~.~.~.~.~.~.~.~.~.~.~.~.~.~.~.~.~.~.~.~.~.~.~.~.~.~.~.~.~.~.~.~.~.~.~.~.~.~.~.~.~.~.~.~.).~.).).).).).~.).~.).).)._.^.~.~.~.|.|.|.^.|.|.|.|.|.|.|.|.|.|.|.|.|.|._._._._._._._._.)._.~.^._._._._._._.~.~.).|.|.~.).|.|.|.|.|.|.|.|._.~.^._._._._.).).~.~.",
").).).).).).).).).).).).).).).).).).).).).).).).).).).).).).).).).).).).).).).).).).).).).).).).).).).).).).).).).).).).).).).).).).).).).).).).).).).).).).).^.pXR.c.v.c.dX].}.^.^.^.^._.).^.^.).`.~.~.~.~.~.~.^.^.`.`.}.dX,X;X;X9X6.6.6.I I  .l 0 e q :.%.$.I t x c c x m x x x c c c m m m m y ....} } } } } ........6.5.6.;.&.( o.6.6.5.5.5.6.6.o.>.>.=.%.W P kXu.y.t.5.6.6.6.5.i.4.} ....} ..} | I I I X.@.Q Q 6.5.5.5.6.5.6.6.6.6.5.5.5.6.@.^ =.( &.o.Q 6.5.6.;.X.%.=.*.*.%.( *.( W ;.5.+.5.6.6.6.;.W -.=.) ) ( ( ( ( ^ W @.@.%.*.*.*.*.*.^ %.W W Q 5.5.5.5.5.5.5.6.6.6.6.5.6.tX-.&.Q } JXNXJXtXU *.-.@.@.=.&.W &.Q ( %.>.%.%.-.$.} } } ..} } } 4.6.6.t.t.6.6.5.6.5.6.u.u.lX+.W >.=.&.&.( / ' >./ I K L I >.@.X.kXxXxXxXxXxXxXt.5.6.5.W -.Q kXe.y.i.} { { 4.q.6.6.6.6.6.6.5.6.7.y.e.u.5.Y ~ ~ 7.6.5.4.9XgXgX2XR.|..X.X].].~.).).).).).).).).).).).).).).).).).).).).).).).).).).).).).).).).).).).).).).).).).).).).).).).).).).).).).).).).).).).).).).).).).).).).).).).).).).).).).).).).).).).).).).).).).).).).).).).).).).).).).).).).).).).).).).).).).).).).).).).).).).).).).).).).).).).).).).).).).).).).).).).).).).).).).).).).).).).).).).).).).).).).).).).).).).).).).).).).).).).).).).).).).).).).).).).).).).).).).).).).).).).).).).).).).).).).).).).).).).).).).).).).).).).).).).).).).).).).).).).).).).).).).).).).).).).).).).).).).).).).).).).).).).).).).).).).).).).).).).).).).).).).).).).).).).).).).).).).).).).).).).).).).).).).).).).).).).).).).).).).).).).).).).).).).).).).).).).).).).).).).).).).).).).).).).).).).).).).).).).).).).).).).).).~.~.~.~.~.~.~.~.~.~.~.~.~.~.~.~.).).~.|.}.].!.'.'.'.'.'.!.!.Q.Q.Y.Y.I.I./.].~.~.~.~.^.^.~.~.~.~.~.^.~.~.~.~.~.~..X~.].}.~.I.Y.!.!.Y.Y.!.~.].~.~.~.~.~.^.~.~.~.~.~.).",
"~.~.~.~.~.~.~.~.~.~.~.~.~.~.~.~.~.~.~.~.~.~.~.~.~.~.~.~.~.~.~.~.~.~.~.~.~.~.~.~.~.~.~.~.~.~.~.~.~.~.~.~.~.~.~.~.~.~.~.~.~.~.~.~.~.~.~.~.~.~.~.~.~.~.~.~.~.~.~.~.pXR.c.n.c.dX|.`.~.^.~.~.(.(.).).`._.~.~..X.X.X~.^._.(.~.E.&X*.[ 8.6.a.lXjXX.=.3.I H H L -.=.-.R t x c c c m c x x x x x c x x x l l 0 0 l j 0 u 0.zXbXe.^ / ' / %.X.O.u.lXp.p.a.lXu.O.X.^ =.-.@.Q jXu.w.r.r.a.p.p.w.zX4.0 0 l 0 q q E -.3.&.=.=.1./ 2.Y P 6.lXa.p.p.a.lX5.Y ~ ' >./ @.@.-.X.X.jXlXa.6.O.Q @.@.-.%.W &.=.) / Q P O.lXlXjX5.P -.o.( ) ) _ ` =.=.=.( ( ) ) ) ) %.%.-.-.@.=./ _ Y / / ' Y P t.lXa.p.p.a.lX+.~ Q } JXBXZX6.P ) ` _ =.*.( W ,.@.>.^ o.! &.,.R v q 0 j j 0 u 0.xXy.p.r.p.p.p.a.a.u.r.r.u.+.Q *.=.&.*.( ( &.,.U v r r J <.Q } NXJXZXZXZXZXVXs.w.a.q.X.X.P kXjXlX4.q 0 u 0.a.a.r.r.a.a.p.a.a.r.r.y.jXtXP -./ ' / 8.7.p.p.xX&XR.`.}.~.~.~.~.~.~.~.~.~.~.~.~.~.~.~.~.~.~.~.~.~.~.~.~.~.~.~.~.~.~.~.~.~.~.~.~.~.~.~.~.~.~.~.~.~.~.~.~.~.~.~.~.~.~.~.~.~.~.~.~.~.~.~.~.~.~.~.~.~.~.~.~.~.~.~.~.~.~.~.~.~.~.~.~.~.~.~.~.~.~.~.~.~.~.~.~.~.~.~.~.~.~.~.~.~.~.~.~.~.~.~.~.~.~.~.~.~.~.~.~.~.~.~.~.~.~.~.~.~.~.~.~.~.~.~.~.~.~.~.~.~.~.~.~.~.~.~.~.~.~.~.~.~.~.~.~.~.~.~.~.~.~.~.~.~.~.~.~.~.~.~.~.~.~.~.~.~.~.~.~.~.~.~.~.~.~.~.~.~.~.~.~.~.~.~.~.~.~.~.~.~.~.~.~.~.~.~.~.~.~.~.~.~.~.~.~.~.~.~.~.~.~.~.~.~.~.~.~.~.~.~.~.~.~.~.~.~.~.~.~.~.~.~.~.~.~.~.~.~.~.~.~.~.~.~.~.~.~.~.~.~.~.~.~.~.~.~.~.~.~.~.~.~.~.~.~.~.~.~.~.~.~.~.~.~.~.~.~.~.~.~.~.~.~.~.~.~.~.~.~.~.~.~.~.~.~.~.~.~.~.~.~.~.~.~.~.~.~.~.~.~.~.~.~.~.~.~.~.~.~.~.~.~.~.~.~.~.~.~.~.~.~.~.~.~.~.~.~.~.~.~.~.~.~.~.~.~.~.~.~.~.~.~.~.~.~.~.~.~.~.~.).).).).).).).).).).).).).).).).~.~.~.}.~.!.L.M.G.G.G.G.G.G.G.G.F.M.M.I.!.}.}.).).).).).)._.).).).).).).).).).).}.~.(.(.'.G.M.G.G.G.G.I.!.}.}.).).).).).).).).).~.~.",
"(.(.(.).).(.).(.~.~.).~.(.(.(.(.(.(.(.).).(.).(.~.~.).~.(.(.(.(.(.(.(.(.).).).~.(.(.(.(.).).).~.(.(.(.(.~.).).).(.(.(.).).(.).(.~.~.).~.(.(.(.(.(.(.(.(.).).(.~.dXR.c.c.c.dX/.~.(.(.(.(.(.(.(.).`.`.).(.(.`.~.~.!.{.!.}. X>X:.` Y 6.lXy.t.8.) >.K l r G :.>.-.I r l M l c m v c c c x x z z M M z m m M x N M w 0.u.y.6.Q Q _ ` _ ~ X.jXlXw.p.w.y.jXU / =.( =.%.P jXa.e.r.r.a.r.r.r.zX4.y r N N x r K $.*.%.%.*.>._ >.Q P 6.a.e.e.e.p.zX6.Y / >.%.-.) ! ! Q P kXr.a.6.~ ! ( >.>.-.*.W W ' _ >.X.O.u.a.lX6.U _ _ >.=.^ o.%.&.%.%.-.o._ _ ! &.=.=.>./ W ! / ` ^ >./ >.@.P u.a.e.y.y.y.lX+.P P } JXCXJXkXY %.%.W %.) =.W %.-.&.&.! &.) ` :.G z m m H t w i.zXr.r.r.r.p.r.e.e.w.w.y.lX5.Y / _ =.%.( &.( W $.l b r } 7X] P NXZXAXBXBXZXZXs.9.lXt.Y #.P tXy.a.0.u m u 0.y.y.e.p.p.r.r.r.r.e.y.a.jX5.P -.=._ / @.;.lXu.vX2XR.`.).}.`.XX`.).).(.(.(.).).).(.(.(.).).).).).).).(.).).).).).).).).).).).).).).).(.(.(.).).).(.(.(.).).).).).).).).).).).).).).).(.(.(.).).).).).).).).).).).).).(.(.(.).).).).).).).).).).(.).).).).).).).).).).(.).).).).).).).).).).).).).).).(.(.(.).).).(.(.(.).).).).).).).).).).).).(.).).).).).).).).).).).).).).).).).).(.(.(.).).).).).).).).).).).).).(.(.(.).).).).).(.).).).).).).).).).).).).).).).(.(.(.).).).(.(.(.).).).).).).).(.).).).).).).).).).).).).).).).(.(.(.).).).(.(.(.).).).).).).).).).).).).(.).).).).).).).).).).(.).).).).).).).).).).).).).).).(.(.(.).).).(.(.(.).).).).).).).).).).).).(.).).).).).).).).).(.(.(.(.(.(.}.}.).~.).).~.(.!.{.}.`.`.`.(.(.~.~.).).(.(.(.!.~.~.).~.(.(.(.(.(.(.(.(.~.).(.(.(.(.(.(.).).).~.(.(.(.(.).).).).).(.!.!././.!.!.{.(.}.).^.|.~.|.).|.|.|.|.!.I.M.U.U.L.L.H.H.H.H.G.Y.S.U._.pX).}.}.).(.`.{.{.(.`.(.(.(. X^.~.}.!.~.^.dX|.!.Q.F.J.J.J.H.I.~.|.~..X].].^.|.`.!.}.!.(.(.",
"}.}.}.}.}.}.}.}.}.}.}.}.}.}.}.}.}.}.}.}.}.}.}.}.}.}.}.}.}.}.}.}.}.}.}.}.}.}.}.}.}.}.}.}.}.}.}.}.}.}.}.}.}.}.}.}.}.}.}.}.}.}.}.}.}.}.}.}.}.}.}.}.}.}.}.}.}.}.}.}.pXR.N.D.N.dX|.).|.}.}.}.}.|.|.}.}.}.}.}.}.}.}.}.{. X/.^.!.R.*X$.O.6.jXjXjXX.#.:.L G D L #.^ #.I t G H z z m z x c c x x z z M z z M M z c N x w 0.lXu.t.X.X.%.o.Q X.O.t.jXjXa.r.u.jXX.%.%.@.#.@.O.kXu.u.lXu.lXlXa.y.lX4.D D t w G D Y $.@.( -.*.^ ~ ;.O.X.6.jXjXlXu.q.q.5.O.X.o.Q *./ ( %.P @.tXjXjX6.O.Q @.^ _ Q ! 3.&.>.Q ! ~ 5.jXt.6.5.X.X.Q W _ =.=.*./ ( _ ^ / _ >.%.%.! ! ^ W -.-.%.%.Q Q 2.! ( o.t.u.y.a.u.u.t.5.X.X.} HXNXCX6.P %.%.W @.) =.( %.( / =.) ! ( / $.E t t r r y y 0.xXlXlXlXp.p.y.u.y.r.y.y.q.7.O.o.-./ ` ' Q #.@.:.G L G L <. .} HXJXVXZXVXVXCXzXu.u.5.X.X.X.t.u.lXkXw J w kXlXa.u.a.a.u.a.a.y.r.r.y.u.6.O.W Q @.X.X.;.lXkXcX2XE.].E.E./.}.}.}.}.}.}.}.}.}.}.}.}.}.}.}.}.}.}.}.}.}.}.}.}.}.}.}.}.}.}.}.}.}.}.}.}.}.}.}.}.}.}.}.}.}.}.}.}.}.}.}.}.}.}.}.}.}.}.}.}.}.}.}.}.}.}.}.}.}.}.}.}.}.}.}.}.}.}.}.}.}.}.}.}.}.}.}.}.}.}.}.}.}.}.}.}.}.}.}.}.}.}.}.}.}.}.}.}.}.}.}.}.}.}.}.}.}.}.}.}.}.}.}.}.}.}.}.}.}.}.}.}.}.}.}.}.}.}.}.}.}.}.}.}.}.}.}.}.}.}.}.}.}.}.}.}.}.}.}.}.}.}.}.}.}.}.}.}.}.}.}.}.}.}.}.}.}.}.}.}.}.}.}.}.}.}.}.}.}.}.}.}.}.}.}.}.}.}.}.}.}.}.}.}.}.}.}.}.}.}.}.}.}.}.}.}.}.}.}.}.}.}.}.}.}.}.}.}.}.}.}.}.}.}.}.}.}.}.}.}.}.}.}.}.}.}.}.}.}.}.}.}.}.}.}.}.}.}.}.}.}.}.}.}.}.}.}.}.}.}.}.}.}.}.}.}.}.}.}.}.}.}.}.}.}.}.}.}.}.}.}.}.}.}.}.}.}.}.}.}.}.}.}.}.}.}.}.}.}.[.}. X}.(.(.(.(.}.}.}. X(.`.}.`.(.(.(.(.}.}.}.}.}.}.}.}.}.}.}.}.}.}.}.}.}.}.}.}.}.}.}.}.}.}.}.}.}.}.}.}.}.}.}.}.}.}.}.}.XXXX`.`.[. X}.`._.`. X(.(.`.`._.).~.~.}.{.!.Y.U.L.L.H.H.H.H.H.J.H.Q.L.P.}.}.(. X^.dXdXdX].~./.E.dXdX!.~..X~.}.}.|.~.^._.!.Q.U.I.D.I.U.I.~.|.}.{.{.(.(.pX|.^.pX).}.}.",
"%X%X%X%X%X%X%X%X%X%X%X%X%X%X%X%X%X%X%X%X%X%X%X%X%X%X%X%X%X%X%X%X%X%X%X%X%X%X%X%X%X%X%X%X%X%X%X%X%X%X%X%X%X%X%X%X%X%X%X%X%X%X%X%X%X%X%X%X%X%X%X%X%X%X%X%X%X%X%X%X:X#XT T T -X*X*X$X=X=X*X=X=X=X$X%X4X%X4X4X4X%X%X%X4X#.=.@.;.y.q.t.+.X.X.| w D D } | X.X.=.) >.*./ #.| L v c z z c c x x x x z z z z M z c N z u 0.a.r.y.q.y.y.y.lXlXkXO.P Q Q Q o.&.~ ( ! =.>.2./ _ ! X.I w q q w w t L R 4X>.,.:.@.*.>.*._ =.%.%.O.jXjXt.5.P Q U U @.X.5.jXu.lXX.#.^ 6.lXu.jX+.P X.4.jXu.jX;.*.%.;.jXe.jX4.%.-.U @.O.O.6.jXu.jXQ ^ >.*.W @.-.=.2.2.=.*.-.o.-.-.X.5.u.y.r.a.a.lXt.P -.$.H r r q j t w 4.lXa.d.a.w.xX5.~ =.=.^ #.=.=.-.-.*.) &.{ gXUXUXUX..-.=.=.2.2.Q L w t q q q w E / / / / $.} 5.t.u.kXX.-.Q i.lXa.jXX.-.<.K O O + K U Y G q 0 q 0 j t } jXjXq.y.e.lX0.u t z q l q q q q w L $.W Q W W ( ' / %.O.jXjXu.r.a.q.jX .;X1X<X-X-X3X%X4X4X4X%X%X%X%X%X4X%X%X4X%X%X%X4X%X%X%X%X%X4X4X%X%X%X%X%X%X%X%X4X4X4X4X%X%X%X%X%X4X%X%X4X%X%X%X%X%X%X%X%X%X%X%X4X4X4X4X%X%X%X%X%X%X%X%X%X%X%X%X4X4X4X4X%X%X%X%X%X%X%X%X%X%X4X4X%X%X%X%X%X%X4X4X4X%X%X%X%X%X4X4X%X%X%X%X%X%X%X%X4X4X4X4X%X%X%X%X%X4X%X%X4X%X%X%X%X%X%X%X%X%X4X4X%X%X%X%X%X%X4X4X%X%X%X%X%X%X%X%X4X4X4X4X%X%X%X%X%X%X%X%X%X%X%X%X4X4X4X4X%X%X%X%X4X%X%X%X%X%X4X4X%X%X%X%X%X%X%X%X4X4X4X4X%X%X%X%X%X4X%X%X4X%X%X%X4X%X%X%X%X%X4X4X%X%X%X%X%X%X%X%X4X4X4X4X%X%X%X%X%X4X%X%X4X%X$X$X%X%X%X%X%X%X4X4X%X%X%X%X%X%X4X4X4X%X%X%X%X%X4X4X%X%X%X%X%X%X%X%X4X4X4X4X%X%X%X%X%X4X%X%X4X%X%X%X%X%X%X%X%X%X4X4X%X%X%X%X%X%X4X4X%X%X$X$X$X$X$X$X3X$X4X3X4X$X$X3X%X4X4X3X3X3X3X3X%X%X4X4X4X4X%X%X%X%X%X%X%X%X%X%X%X%X%X%X%X%X%X%X%X%X%X%X%X%X%X%X%X%X%X%X%X%X%X%X4X4X4X%X%X$X%X%X%X=X,XZ.c.D.D.D.U.L.G.G.L.L.G.G.L.L.H.H.H.H.H.J.K.J.F.F.P.L.D.R.1X=X=X3X-X*X$X=X*X,XA.S.S.F.G.G.J.J.P.P.J.F.S.G.S.S.F.F.L.U.G.H.H.D.A.,X1X&X1X*X$X4X",
"=X=X=X=X=X=X=X=X=X=X=X=X=X=X=X=X=X=X=X=X=X=X=X=X=X=X=X=X=X=X=X=X=X=X=X=X=X=X=X=X=X=X=X=X=X=X=X=X=X=X=X=X=X=X=X=X=X=X=X=X=X=X=X=X=X=X=X=X=X=X=X=X=X=X=X=X=X=X=X=X:X#XC x.+X<X=X4X4X4X4X3X$X3X4X3X=X=X$X$X=X-X=X*X*X3X*.&.Q ;.lXp.xX+.P / 4Xj c w | >.=.=.&.! =.` 2.2.:.L w M m m c c x x x x z z v z z z c m v u 0.lXw.e.w.e.q.e.d.u.u.} Q >.' >./ _ ' >.^ %.Q / =.` ` >. .v B B N n r J >.2.! ) 1.=.=.=.( _ >.( ~ O.u.lXlX5.Q -.>._ =.P +.lX9.y.Q / Q ;.lXw.lXX._ Q O.a.p.lXO.Q / ;.lXp.a.+.Q ' _ >./ P 6.lXr.y.X.^ &.( o.-.%.( ! ( ^ W -.@.*.*.U 6.lXa.w.9.r.u.kXY >.4XG l b b l x u 4.xXe.q.9.9.u.5.~ %.-.#.*.>.( ^ W ` ` 1.L h.UXUXUX| ! _ >.! -.<.L l B b N B v R >.] ` ` =.P 6.xXlXjX} %.W 7.a.p.jX~ ) ,.t % % O  .8X] I w G c j B 0 y xXw.p.r.e.lX0.w l B B N c B N x G R :._ ( ( ( ( >.>.^ X.jXa.9.w.r.e.lX|  .3X3X3X3X%X=X=X=X=X=X=X=X=X=X=X=X=X=X=X=X=X=X=X=X=X=X=X=X=X=X=X=X=X=X=X=X=X=X=X=X=X=X=X=X=X=X=X=X=X=X=X=X=X=X=X=X=X=X=X=X=X=X=X=X=X=X=X=X=X=X=X=X=X=X=X=X=X=X=X=X=X=X=X=X=X=X=X=X=X=X=X=X=X=X=X=X=X=X=X=X=X=X=X=X=X=X=X=X=X=X=X=X=X=X=X=X=X=X=X=X=X=X=X=X=X=X=X=X=X=X=X=X=X=X=X=X=X=X=X=X=X=X=X=X=X=X=X=X=X=X=X=X=X=X=X=X=X=X=X=X=X=X=X=X=X=X=X=X=X=X=X=X=X=X=X=X=X=X=X=X=X=X=X=X=X=X=X=X=X=X=X=X=X=X=X=X=X=X=X=X=X=X=X=X=X=X=X=X=X=X=X=X=X=X=X=X=X=X=X=X=X=X=X=X=X=X=X=X=X=X=X=X=X=X=X=X=X=X=X=X=X=X=X=X=X=X=X=X=X=X=X=X=X=X=X=X=X=X=X=X=X=X=X=X=X=X=X=X=X=X=X=X=X=X=X=X=X=X=X=X=X=X=X=X=X=X=X=X=X=X=X=X=X=X=X=X=X=X=X=X=X=X=X=X=X=X=X=X=X=X=X=X=X=X=X=X=X=X=X=X=X*X*X*X*X:X=X=X3X=X=X-X-X-X-X=X=X=X=X=X=X=X=X=X=X=X=X=X=X=X=X=X=X=X=X=X=X=X=X=X=X=X=X=X=X=X=X=X=X=X=X=X=X-X-X*X-X:X-X=X$X3X:X,XR.M.Q.W.B.J.G.F.F.G.H.H.H.H.H.H.H.H.H.H.L.U.I.G.S.H.S.k.Z.1X3X4X4X=X=X3X3X3X:XA.M.G.F.S.L.K.F.F.F.F.J.H.P.U.U.J.J.G.G.F.F.S.M.Z.1X3X%X$X%X=X=X",
"=X=X=X=X=X=X=X=X=X=X=X=X=X=X=X=X=X=X=X=X=X=X=X=X=X=X=X=X=X=X=X=X=X=X=X=X=X=X=X=X=X=X=X=X=X=X=X=X=X=X=X=X=X=X=X=X=X=X=X=X=X=X=X=X=X=X=X=X=X=X=X=X=X=X=X=X=X=X=X*X1X#Xl.c.v.1X1X-X=X=X*X-X-X-X-X-X-X=X$X=X*X=X=X=X*X3X*.) ~ o.lXe.u.O.~ / :.w m w I >._ ) @.X.%.%.@.$.| D q z z r z z x x x c z z c z z z c c t w kXzXa.zXa.zXa.a.a.a.jXO.;.2.! ! Q ( / >.^ -.@.*.@.@.%.#.K r r l r r 0 D $.&.Q -.W ^ W W W *.>._ &.;.jXu.u.+.~ =.! Q Q P 6.xXa.xX-.` ! 5.zXa.lXO./ ~ O.u.y.jXO.W Y -.xXlXu.O.~ ! / / / ~ 5.lXe.u.Q ` ] ) =.&.~ ( Y ! ` ! 2./ _ Q Y 5.jXlXp.p.a.lX6.~ Q R D v M r r M u 4.zXp.zXzXa.lX5.X.X.X.^ =.( Q W Q ` ` 2.U gXUXUXUX..Q $.$.@.@.<.L t z q l l q I %.o.) o.;.O.t.xXjXkXQ Q Y 5.jXu.jXQ _ 6XG o X 0 ..qXqX| L H m x J y { zXs.a.a.a.lXi.D q l r r r r r q w L ,.-.&.&.o.! &.&.%.X.jXa.p.a.a.xXxX9X .*X&X&X*X*X=X=X=X=X=X=X=X=X=X=X=X=X=X=X=X=X=X=X=X=X=X=X=X=X=X=X=X=X=X=X=X=X=X=X=X=X=X=X=X=X=X=X=X=X=X=X=X=X=X=X=X=X=X=X=X=X=X=X=X=X=X=X=X=X=X=X=X=X=X=X=X=X=X=X=X=X=X=X=X=X=X=X=X=X=X=X=X=X=X=X=X=X=X=X=X=X=X=X=X=X=X=X=X=X=X=X=X=X=X=X=X=X=X=X=X=X=X=X=X=X=X=X=X=X=X=X=X=X=X=X=X=X=X=X=X=X=X=X=X=X=X=X=X=X=X=X=X=X=X=X=X=X=X=X=X=X=X=X=X=X=X=X=X=X=X=X=X=X=X=X=X=X=X=X=X=X=X=X=X=X=X=X=X=X=X=X=X=X=X=X=X=X=X=X=X=X=X=X=X=X=X=X=X=X=X=X=X=X=X=X=X=X=X=X=X=X=X=X=X=X=X=X=X=X=X=X=X=X=X=X=X=X=X=X=X=X=X=X=X=X=X=X=X=X=X=X=X=X=X=X=X=X=X=X=X=X=X=X=X=X=X=X=X=X=X=X=X=X=X=X=X=X=X=X=X=X=X=X=X=X=X=X=X=X=X=X=X=X=X=X=X=X=X=X=X=X=X=X=X=X=X=X=X=X=X=X=X=X=X=X=X=X%X%X$X=X=X-X:X&X:X*X=X3X$X%X%X%X=X=X=X=X$X$X=X=X=X=X=X=X=X=X=X=X=X=X=X=X=X=X=X=X=X=X=X=X=X=X=X=X=X=X=X=X=X=X=X=X-X*X=X=X-X3X3X4X4X3X1XZ.c.Y.D.D.L.H.H.H.L.P.P.P.L.L.L.L.L.L.L.L.G.U.D.U.Y.S.D.R.1X:X=X=X=X-X-X*X3X1XR.U.Q.I.U.I.I.I.L.L.L.L.U.U.U.L.J.J.L.U.P.P.P.D.Z.1X1X*X=X3X=X=X",
"*X*X*X*X*X*X*X*X*X*X*X*X*X*X*X*X*X*X*X*X*X*X*X*X*X*X*X*X*X*X*X*X*X*X*X*X*X*X*X*X*X*X*X*X*X*X*X*X*X*X*X*X*X*X*X*X*X*X*X*X*X*X*X*X*X*X*X*X*X*X*X*X*X*X*X*X*X*X*X=XiX;XC x.T 1X=X3X$X$X$X$X$X$X$X=X=X=X*X*X*X-X=X=X&X3X:.=.W ;.lXr.a.6.5.6.4.w m t U >.%.&.@.-.%.%.&.*.:.Y L I H t z z x c x x n x c c c c c c v y ..4................. .L K L O.6.6.6.o.) ! ( ! ( ^ @.=.>./ I I I R R I R >.*.@.>.#.*.-.%.%.*.=.` W X.jXu.lX5.P W o.6.6.6.4.} } <.@.( / X.+...O.4.5.5.5.6.6.5.4.7.5.4.<.....4.5.5.5.5.6.5.i.a.e.u.Q _ =.! %.W X.kXkXkXqX~ =.W 5.5.5.5.5.5.5.+.5.5.+.5.6.6.I K K K I R D 4.i.+.7.+.5.6.;.^ @.*._ =.W ;.6.5.6.Q =.| ..gXgXgX$.) ) ) 1.) =.Y L K J {  .I #.>.*.#.I I K  ...} +.4.5.+.q.a.w.lXP / ,.L 0 0 e l l l e 0 e e J I L I <.........4.} F L I I I K I I K I R #.' ' _ _ _ _ _ W Q 6.5.6.+.} ..<.9X3X3X=X%X$X3X=X*X*X*X*X*X*X*X*X*X*X*X*X*X*X*X*X*X*X*X*X*X*X*X*X*X*X*X*X*X*X*X*X*X*X*X*X*X*X*X*X*X*X*X*X*X*X*X*X*X*X*X*X*X*X*X*X*X*X*X*X*X*X*X*X*X*X*X*X*X*X*X*X*X*X*X*X*X*X*X*X*X*X*X*X*X*X*X*X*X*X*X*X*X*X*X*X*X*X*X*X*X*X*X*X*X*X*X*X*X*X*X*X*X*X*X*X*X*X*X*X*X*X*X*X*X*X*X*X*X*X*X*X*X*X*X*X*X*X*X*X*X*X*X*X*X*X*X*X*X*X*X*X*X*X*X*X*X*X*X*X*X*X*X*X*X*X*X*X*X*X*X*X*X*X*X*X*X*X*X*X*X*X*X*X*X*X*X*X*X*X*X*X*X*X*X*X*X*X*X*X*X*X*X*X*X*X*X*X*X*X*X*X*X*X*X*X*X*X*X*X*X*X*X*X*X*X*X*X*X*X*X*X*X*X*X*X*X*X*X*X*X*X*X*X*X*X*X*X*X*X*X*X*X*X*X*X*X*X*X*X*X*X*X*X*X*X*X*X*X*X*X*X*X*X*X*X*X*X*X*X*X*X*X*X*X*X*X*X*X*X*X*X*X*X*X*X*X*X*X*X*X*X*X*X*X*X*X*X*X=X=X=X=X-X-X-X1X1X#X#X#X&X:X=X=X=X-X*X-X=X=X=X=X*X*X*X*X*X*X*X*X*X*X*X*X*X*X*X*X*X*X*X*X*X*X*X*X*X*X*X*X*X*X*X*X*X=X%X%X*X*X-X&X&X,X#XE./.L.S.J.F.G.G.G.H.H.G.G.G.G.L.L.L.L.L.L.L.L.G.H.G.U.H.S.D.R.>X#X#X:X:X:X&X#X>XE.L.F.J.G.S.S.L.H.S.S.G.G.G.G.J.F.K.J.S.S.H.F.S.S.D.R.>X#X&X:X=X=X",
"*X*X*X*X*X*X*X*X*X*X*X*X*X*X*X*X*X*X*X*X*X*X*X*X*X*X*X*X*X*X*X*X*X*X*X*X*X*X*X*X*X*X*X*X*X*X*X*X*X*X*X*X*X*X*X*X*X*X*X*X*X*X*X*X*X*X*X*X*X*X*X*X*X*X*X*X*X*X*X*X1X#Xx.z.x.1X-X-X*X&X&X&X-X-X-X-X*X=X=X=X*X*X$X=X*X3XR *.W o.jXe.r.r.y.xXkXy z w I ,.W ! ! =.( ( ) ) 2.` =.,.| G c z x x x c n x m z M m x c N c 0 q 0 j 0 j j 0 0 0 B k b 0 ..lXa.jXO.@.*.*.-.=.! ) ) ) &.1.1.1.1.2.&.&.=.! ) ( ^ ^ ^ %.%.&.) *.^ X.jXe.u.+.Q %.O.lXlXlX..u 0 w | >.,.I u 0 0 kXzXlX6.Y Y P t.lXzX0.u u u 4.lXa.a.a.a.a.r.r.r.e.} @.%.Q @.U O.HXJXJXxXI | X.jXlXlX6.W / ' ' ' Y O.jXlXlX5.! 1.3.! 2.) 2.' ' ' ' U / ' ' =.>.=.=.W 6.lXlXjXO.X.! [ [ [ ` ! ` %.@.@.@.,.=.3.1.1.1.&.o.1.! *.| v x j q 0 u y xXzXzXe.y.r.jXQ ) ,.R G N b 4 . . & $ $ O | 3.>./ w 0 0 0 q w L | >.6X1.1.1.1.1.1.&.1.&.o.%.@.X.@.@.X.:./ _ U R L q j j ;X*X*X-X*X&X&X*X*X*X*X*X*X*X*X*X*X*X*X*X*X*X*X*X*X*X*X*X*X*X*X*X*X*X*X*X*X*X*X*X*X*X*X*X*X*X*X*X*X*X*X*X*X*X*X*X*X*X*X*X*X*X*X*X*X*X*X*X*X*X*X*X*X*X*X*X*X*X*X*X*X*X*X*X*X*X*X*X*X*X*X*X*X*X*X*X*X*X*X*X*X*X*X*X*X*X*X*X*X*X*X*X*X*X*X*X*X*X*X*X*X*X*X*X*X*X*X*X*X*X*X*X*X*X*X*X*X*X*X*X*X*X*X*X*X*X*X*X*X*X*X*X*X*X*X*X*X*X*X*X*X*X*X*X*X*X*X*X*X*X*X*X*X*X*X*X*X*X*X*X*X*X*X*X*X*X*X*X*X*X*X*X*X*X*X*X*X*X*X*X*X*X*X*X*X*X*X*X*X*X*X*X*X*X*X*X*X*X*X*X*X*X*X*X*X*X*X*X*X*X*X*X*X*X*X*X*X*X*X*X*X*X*X*X*X*X*X*X*X*X*X*X*X*X*X*X*X*X*X*X*X*X*X*X*X*X*X*X*X*X*X*X*X*X*X*X*X*X*X*X*X*X*X*X*X*X*X*X*X*X*X*X*X*X*X*X*X*X*X*X*X*X*X*X*X*X*X*X*X*X*X*X*X*X*X*X*X=X=X=X=X*X&X;X-X&XC x.m.#X&X*X*X=X-X*X*X=X=X=X=X*X*X*X*X*X*X*X*X*X*X*X*X*X*X*X*X*X*X*X*X*X*X*X*X*X*X*X*X*X*X*X*X*X*X*X*X-X-X-X-X,X>Xk.M.J.F.F.U.G.L.L.P.P.L.L.H.L.L.L.L.L.L.L.L.L.L.P.I.P.P.L.H.K.J.F.M.C.>X,X,XR.M.S.S.B.F.H.H.P.J.H.H.L.H.J.J.P.P.I.U.L.L.G.U.P.K.J.K.K.Q.B.M.R.,X*X=X",
"=X=X=X=X=X=X=X=X=X=X=X=X=X=X=X=X=X=X=X=X=X=X=X=X=X=X=X=X=X=X=X=X=X=X=X=X=X=X=X=X=X=X=X=X=X=X=X=X=X=X=X=X=X=X=X=X=X=X=X=X=X=X=X=X=X=X=X=X=X=X=X=X=X=X=X=X=X=X=X*X1X#XC x.T 1X=X=X*X-X*X=X$X$X=X=X=X=X3X3X=X=X$X$X$X3X/ _ ^ ;.lXp.p.r.9.a.hXu z v I ,.X.&.( >.#.:.#.^ =._ *.,.I w z z n c c c c c c x m m z x n n m M t H t H H t H v m c J u +.a.r.u.P ^ >.' *.^ =.=.^ / *.-.@.*.^ -.*.-.@.#.2.( *.*.( *.=.) ( -.Q X.lXu.lX+.U _ U jXw.lX4.0 J G $.&.*.| c { u kXw.lXkX~ 2.~ t.e.y.0.w H w hXlXw.w.e.w.y.e.r.a.jXP _ =.) 2.U } JXCXJXkXY / W t.y.a.5.P ^ 2.1.&.X.O.lXe.u.;.Q >.' %.%.W @.W ,.@.@.@.*.=.( o.%.( &.P 5.jXy.jXO.Q _ -.=.! 1.@.@.o.! _ _ _ / %.Q >._ -.&.` / >.| t t M m N t y xXe.q.y.y.r.u.Q ^ #.R w N b 4 X 2 < % > o | 1.=.:.w N N N N j L ,.=.W *.*._ _ *.*.( %.=.*.*.*._ >.1.) o.%.) ) 6XU t z r :X:X;X-X-X-X*X=X=X=X=X=X=X=X=X=X=X=X=X=X=X=X=X=X=X=X=X=X=X=X=X=X=X=X=X=X=X=X=X=X=X=X=X=X=X=X=X=X=X=X=X=X=X=X=X=X=X=X=X=X=X=X=X=X=X=X=X=X=X=X=X=X=X=X=X=X=X=X=X=X=X=X=X=X=X=X=X=X=X=X=X=X=X=X=X=X=X=X=X=X=X=X=X=X=X=X=X=X=X=X=X=X=X=X=X=X=X=X=X=X=X=X=X=X=X=X=X=X=X=X=X=X=X=X=X=X=X=X=X=X=X=X=X=X=X=X=X=X=X=X=X=X=X=X=X=X=X=X=X=X=X=X=X=X=X=X=X=X=X=X=X=X=X=X=X=X=X=X=X=X=X=X=X=X=X=X=X=X=X=X=X=X=X=X=X=X=X=X=X=X=X=X=X=X=X=X=X=X=X=X=X=X=X=X=X=X=X=X=X=X=X=X=X=X=X=X=X=X=X=X=X=X=X=X=X=X=X=X=X=X=X=X=X=X=X=X=X=X=X=X=X=X=X=X=X=X=X=X=X=X=X=X=X=X=X=X=X=X=X=X=X=X=X=X=X=X=X=X=X=X=X=X=X=X=X=X=X=X=X=X=X=X=X=X=X=X=X=X=X=X=X=X=X=X=X=X=X=X=X=X=X=X=X=X=X=X=X=X=X$X=X=X*X*X1X-XC b.x.#X1X:X=X=X=X=X=X=X=X=X=X-X-X=X=X=X=X=X=X=X=X=X=X=X=X=X=X=X=X=X=X=X=X=X=X=X=X=X=X=X=X=X=X=X=X*X=X*X=X4X3X=X,XC.F.Q.J.L.Y.H.J.H.H.H.H.G.G.H.L.L.L.L.L.L.L.H.L.G.I.J.G.L.L.S.G.Q.S.A.,X3X1X>Xk.L.P.G.U.U.D.I.G.L.L.U.L.K.J.H.S.J.F.S.S.S.H.P.G.L.L.J.Q.F.k.&XyX=X=X",
"=X=X=X=X=X=X=X=X=X=X=X=X=X=X=X=X=X=X=X=X=X=X=X=X=X=X=X=X=X=X=X=X=X=X=X=X=X=X=X=X=X=X=X=X=X=X=X=X=X=X=X=X=X=X=X=X=X=X=X=X=X=X=X=X=X=X=X=X=X=X=X=X=X=X=X=X=X=X=X-X1X#Xx.z.C 1X:X=X=X=X=X=X=X=X=X*X*X-X-X=X*X*X=X%X3X4X:.@.Q ;.jXy.a.a.a.zX0.y q w R :.>.^ ^ =.o.%.) =.=.( #.$.I t t r r r m z q n x c c c c x x c c c m c x x m z x x c c t t ..lXlXt.;.~ Q W ^ =.' >./ / _ U W %.>.' &.W @.>._ >.=.*.%.&.=.Y *.*.P O.jXu.jX7.P Q O.q.lXxX..w D D #.2.=.Y D w H hXxXjX6.O.P X.6.a.a.0.w t y 4.lXa.p.a.p.p.p.y.u.jX} X.=.` =.X.} JXCXJXkXY Q P t.u.u.5.Q U -./ 6X~ 4.u.lXt.;.X.X.X./ =.=.( #.*.*.%.*.=.2.( >.^ *.-.Q 5.lXlX6.;.P @.-.Q *.*.^ =.! &.W ~ -.Q *.*.*.#.=.` ( ( _ $.w m n m H t y xXi.w.a.w.p.u.X./ $.I D z B O . 3 # # % O I 0X6X#.L x l N v t K | *.` ( &.! 3.Y 6X) 3.1.) 2.] -.@.3.&.&.&.&.>.#.R G j B  .=X%X3X=X*X*X=X=X=X=X=X=X=X=X=X=X=X=X=X=X=X=X=X=X=X=X=X=X=X=X=X=X=X=X=X=X=X=X=X=X=X=X=X=X=X=X=X=X=X=X=X=X=X=X=X=X=X=X=X=X=X=X=X=X=X=X=X=X=X=X=X=X=X=X=X=X=X=X=X=X=X=X=X=X=X=X=X=X=X=X=X=X=X=X=X=X=X=X=X=X=X=X=X=X=X=X=X=X=X=X=X=X=X=X=X=X=X=X=X=X=X=X=X=X=X=X=X=X=X=X=X=X=X=X=X=X=X=X=X=X=X=X=X=X=X=X=X=X=X=X=X=X=X=X=X=X=X=X=X=X=X=X=X=X=X=X=X=X=X=X=X=X=X=X=X=X=X=X=X=X=X=X=X=X=X=X=X=X=X=X=X=X=X=X=X=X=X=X=X=X=X=X=X=X=X=X=X=X=X=X=X=X=X=X=X=X=X=X=X=X=X=X=X=X=X*X*X-X=X-X=X=X=X=X*X*X*X*X*X*X*X*X*X*X=X=X*X*X=X=X*X=X*X*X*X*X=X*X*X:X:X*X=X=X=X=X=X=X=X=X=X=X=X=X=X=X=X=X=X=X=X=X=X=X=X=X=X=X=X=X=X=X=X=X=X=X=X=X=X=X=X=X=X=X=X=X=X=X=X=X=X=X*X-X=X=X=X=X=X=X=X=X=X1X1XC z.l.#X1X=X=X=X*X*X=X=X=X*X=X=X=X=X=X=X=X=X=X=X=X=X=X=X=X=X=X=X=X=X=X=X=X=X=X=X=X=X=X=X=X=X=X=X*X-X%X<.9X;X1X1X,XD.G.J.J.H.G.U.U.P.P.H.H.H.G.G.U.S.S.S.G.H.H.L.L.U.U.L.H.L.L.H.H.G.D.A.>X1X1X>XA.D.H.H.H.H.H.H.H.H.H.H.H.H.H.H.H.H.H.H.J.J.H.L.L.L.P.P.G.D.A.>X1X:X3X",
"=X=X=X=X=X=X=X=X=X=X=X=X=X=X=X=X=X=X=X=X=X=X=X=X=X=X=X=X=X=X=X=X=X=X=X=X=X=X=X=X=X=X=X=X=X=X=X=X=X=X=X=X=X=X=X=X=X=X=X=X=X=X=X=X=X=X=X=X=X=X=X=X=X=X=X=X*X*X=X*X1X#Xx.b.C 1X:X=X=X-X=X=X=X-X=X=X$X=X-X-X-X-X*X*X*X-X3X3X;X;X:X;X$XJ j r { 0.a.lXO.O.o.! ( =./ #.#.-.*.( *.>.-.^ #.#.#.^ :.R G H x n n n z z z z n z n n l n n z M M M M z l l m u D kXjXlX6.X.O.O.t.u.y.a.y.y.jXO.X.o.! @.-.W ( *.*.( &.-.Q 6.t.u.t.O.Q O.5.jXlXkXD y M z x n l z c c z l r q N e q } kXkXkXu.y.a.t.U >./ =.-.Q o.@.X.X.X.X.X.o.W ` ` ` =.Q 8.JXSXVXnXi.lXe.a.w.p.p.e.jXjXO.o.%.Q X.X.O.6.jXjXt.Q =.&.! o.o.o.&.*.^ &.Q %.W %.( ^ W X.} O.kXt.jX5.Q X.o.&.*.Q ;.xXjXjXO.X.=.%.@.@.} t.jXlXkXw z n x z t y lXu.y.u.t.a.jX! ` >._ ^ $.:.G z M c n A k 8 O X X . 4 7 { <.$.#.>.>./ 2.2._ | + 4 X 7 b r x x N l c v v v t v c T %X:X;X:X3X=X-X-X*X*X*X=X=X=X=X=X=X=X=X=X=X=X=X=X=X=X=X=X=X=X=X=X=X=X=X=X=X=X=X=X=X=X=X=X=X=X=X=X=X=X=X=X=X=X=X=X=X=X=X=X=X=X=X=X=X=X=X=X=X=X=X=X=X=X=X=X=X=X=X=X=X=X=X=X=X=X=X=X=X=X=X=X=X=X=X=X=X=X=X=X=X=X=X=X=X=X=X=X=X=X=X=X=X=X=X=X=X=X=X=X=X=X=X=X=X=X=X=X=X=X=X=X=X=X=X=X=X=X=X=X=X=X=X=X=X=X=X=X=X=X=X=X=X=X=X=X=X=X=X=X=X=X=X=X=X=X=X=X=X=X=X=X=X=X=X=X=X=X=X=X=X=X=X=X=X=X=X=X=X=X=X=X=X=X=X=X=X=X=X=X=X=X=X=X=X=X=X=X=X=X=X=X=X=X=X=X=X=X=X=X=X=X=X=X=X=X=X=X=X*X*X-X=X=X=X=X=X=X=X=X=X=X=X=X=X=X:X:X=X=X:X=X=X=X=X=X=X=X*X=X=X=X=X*X=X*X=X=X=X=X=X=X=X=X=X=X=X=X=X=X=X=X=X=X=X=X=X=X=X=X=X=X=X=X=X=X=X=X=X=X=X=X=X=X=X=X=X=X=X=X=X=X=X=X$X=X*X*X=X=X=X=X=X=X*X=X*X:X<XC x.x.#X1X=X=X=X*X=X=X=X=X*X=X=X=X=X=X=X=X=X=X=X=X=X=X=X=X=X=X=X=X=X=X=X=X=X=X=X=X=X=X=X=X=X=X=X=X*X;X%X,XA.D.D.D.J.K.K.J.G.H.G.H.H.L.H.H.G.H.H.H.H.S.H.J.P.P.U.U.L.L.H.H.L.L.H.J.Q.K.S.D.R.I.K.M.H.H.H.H.H.H.H.H.H.H.H.H.H.H.H.H.L.H.H.H.H.L.L.L.H.J.Q.K.F.S.D.T.S.F.",
"=X=X=X=X=X=X=X=X=X=X=X=X=X=X=X=X=X=X=X=X=X=X=X=X=X=X=X=X=X=X=X=X=X=X=X=X=X=X=X=X=X=X=X=X=X=X=X=X=X=X=X=X=X=X=X=X=X=X=X=X=X=X=X=X=X=X=X=X=X=X=X=X=X=X=X=X=X=X=X=XiX#Xx.b.x.1X:X=X=X=X=X=X=X=X=X=X=X=X-X-X-X-X-X-X*X-X-X1X&X&X<X&X9XN x q y xXa.u.5._ ' _ &.o.W %.%.%.-.( ( ` =.1.] 1.1.1.,.| v z c c c c c G c c c x c m x c m x x x t t n N B q z y lXe.a.7.P >.P jXxXw.w.w.w.lXX.^ ` ` =.=.=.=.@.*._ _ %.} i.a.a.jXQ / U 6.zXw.kXu q c j H x N z l l l N N v j c 0 { lXlXw.9.9.r.6.~ 2.` ` / / ' ` ' ( / / / / *.=._ _ *.X.} JXBXVXbXd.a.e.u.w.9.r.e.a.lXO.U 6X2.] ~ Q t.lXa.u.P *.=.) %.*.*.*.*.( &.&.;.%.>._ 2._ ' U X.jXa.lX6.W X.%.>._ ^ ;.a.r.a.+.Q >._ _ 2.P q.r.p.u.u J N N x t y kXe.q.r.e.a.u.X.( >.>.>.>.,.L H H H H L J 7 . 3 3 3 6 O  .6X) ! ( -.@.U W >. .X $ - k N t z z b r l l r l l l l T yX3X3XiX=X*X*X-X*X-X=X=X=X=X=X=X=X=X=X=X=X=X=X=X=X=X=X=X=X=X=X=X=X=X=X=X=X=X=X=X=X=X=X=X=X=X=X=X=X=X=X=X=X=X=X=X=X=X=X=X=X=X=X=X=X=X=X=X=X=X=X=X=X=X=X=X=X=X=X=X=X=X=X=X=X=X=X=X=X=X=X=X=X=X=X=X=X=X=X=X=X=X=X=X=X=X=X=X=X=X=X=X=X=X=X=X=X=X=X=X=X=X=X=X=X=X=X=X=X=X=X=X=X=X=X=X=X=X=X=X=X=X=X=X=X=X=X=X=X=X=X=X=X=X=X=X=X=X=X=X=X=X=X=X=X=X=X=X=X=X=X=X=X=X=X=X=X=X=X=X=X=X=X=X=X=X=X=X=X=X=X=X=X=X=X=X=X=X=X=X=X=X=X=X=X=X=X=X=X=X=X=X=X=X=X=X=X=X=X=X=X=X=X=X=X=X=X-X=X=X*X-X-X*X*X*X*X*X*X*X*X*X*X*X*X*X*X*X*X*X*X*X=X=X*X*X*X*X*X*X*X=X=X*X*X=X=X=X=X=X=X=X=X=X=X=X=X=X=X=X=X=X=X=X=X=X=X=X=X=X=X=X=X=X=X=X=X=X=X=X=X=X=X=X=X=X=X=X=X=X=X=X=X=X=X=X=X=X=X=X=X=X=X=X=X=X*X:X&XC x.m.#X1X=X=X=X=X=X=X=X=X*X=X=X=X=X=X=X=X=X=X=X=X=X=X=X=X=X=X=X=X=X=X=X=X=X=X=X=X=X=X=X=X=X=X=X=X=X3X:X1XD.B.K.K.Q.Q.J.U.L.L.J.J.P.U.L.L.H.H.J.J.H.H.J.J.P.P.P.L.H.F.J.J.H.L.H.H.Q.Q.K.F.S.G.K.Q.H.H.L.H.H.H.H.H.H.H.H.H.H.H.H.H.L.H.H.H.H.L.L.L.S.K.K.Q.Q.Q.J.K.K.K.",
"=X=X=X=X=X=X=X=X=X=X=X=X=X=X=X=X=X=X=X=X=X=X=X=X=X=X=X=X=X=X=X=X=X=X=X=X=X=X=X=X=X=X=X=X=X=X=X=X=X=X=X=X=X=X=X=X=X=X=X=X=X=X=X=X=X=X=X=X=X=X=X=X=X=X=X=X=X=X=X*X1X#Xx.b.x.1X:X=X=X=X*X=X=X-X=X*X=X=X*X*X*X=X=X$X$X%X%X%X=X3X3X9XyXJ 0 0 y xXa.lX5.Q / >.! o.o.&.( ) &.&.@.^ ^ %.( ( &.@.$.I r e e l l r r r l l n x x n x c c c c N c z z m N N t w xXlXzX6.Q Q X.kXxXs.a.a.p.lXO.%.` / _ Q _ / ^ &.) ` ( P 6.a.r.t.Y ' U 6.zXs.xXy y M r m z M m z m z x N x n N 0 { zXs.w.p.a.zXu.} X.@.@.#.>.-.=.-.-.-.-.-.-.%.@.( *.-.X.} HXJXZXnXd.r.p.a.lXa.a.a.zXjXO.P ' ' ' Q Q 6.y.9.e.U _ =.) %.%.&.&.%.! -._ >./ *.Q ~ ` >.=.X.t.e.u.6.Q W ^ _ Q U O.lXa.jXO.Y / / _ _ P u.a.a.0.u 0 q l r r y xXzXa.a.a.a.u.O.o.@.#.$.$.| v l e e l r b % . & & $ X O I 6X2.2.3.3.3.2.3.7X:.7 . . 7 l w v w G J J J J c H v q J 9X;X%X%X*X*X-X*X*X*X=X=X=X=X=X=X=X=X=X=X=X=X=X=X=X=X=X=X=X=X=X=X=X=X=X=X=X=X=X=X=X=X=X=X=X=X=X=X=X=X=X=X=X=X=X=X=X=X=X=X=X=X=X=X=X=X=X=X=X=X=X=X=X=X=X=X=X=X=X=X=X=X=X=X=X=X=X=X=X=X=X=X=X=X=X=X=X=X=X=X=X=X=X=X=X=X=X=X=X=X=X=X=X=X=X=X=X=X=X=X=X=X=X=X=X=X=X=X=X=X=X=X=X=X=X=X=X=X=X=X=X=X=X=X=X=X=X=X=X=X=X=X=X=X=X=X=X=X=X=X=X=X=X=X=X=X=X=X=X=X=X=X=X=X=X=X=X=X=X=X=X=X=X=X=X=X=X=X=X=X=X=X=X=X=X=X=X=X=X=X=X=X=X=X=X=X=X=X=X=X=X=X=X=X=X=X=X=X=X=X=X=X=X=X=X=X=X-X=X=X*X=X-X;X3X3X3X3X3X3X3X3X3X3X3X3X3X3X3X3X3X3X3X3X3X3X3X3X9X3X3X3X3X3X4X9X=X=X=X=X=X=X=X=X=X=X=X=X=X=X=X=X=X=X=X=X=X=X=X=X=X=X=X=X=X=X=X=X=X=X=X=X=X=X=X=X=X=X=X=X=X=X=X=X=X=X=X-X=X=X=X=X*X=X=X=X=X1X1XC x.m.#X1X=X=X=X=X=X=X=X=X*X=X=X=X=X=X=X=X=X=X=X=X=X=X=X=X=X=X=X=X=X=X=X=X=X=X=X=X=X=X=X=X=X=X=X=X-X=X3X1Xc.G.U.U.L.J.P.U.L.H.H.J.J.J.J.H.J.K.K.J.F.K.K.K.K.K.F.F.K.K.K.J.H.L.L.D.S.G.G.G.D.G.L.P.H.H.H.H.H.H.H.H.H.H.H.H.H.H.H.H.H.H.J.J.H.H.L.G.D.G.S.G.P.P.P.L.U.U.",
"=X=X=X=X=X=X=X=X=X=X=X=X=X=X=X=X=X=X=X=X=X=X=X=X=X=X=X=X=X=X=X=X=X=X=X=X=X=X=X=X=X=X=X=X=X=X=X=X=X=X=X=X=X=X=X=X=X=X=X=X=X=X=X=X*X*X*X*X*X*X*X*X*X*X*X*X*X*X*X*X1X#Xx.z.C ,X:X*X*X*X=X=X=X=X=X=X$X$X*X*X$X$X$X%X=X*X-X-X:X*XT  .T  .} ..} 4.5.6.O.~ o.%.W %.>._ ( ( %.-.-.%.@.%.%.%.&.%.-.$.I I K K K K I I I K c l x n z z z z M M m c l l z c x r 4...4.+.5.;.4.{ ....+.t.6.6.o.%.( &.6.4.5.O.W &.&.=.=.Q 6.u.r.y.+.6.4.4.} 4.4.K H J m z z z z z N J x v z J H G } 6.6.5.6.6.6.6.Q &.=.=.( ( ( ^ ^ ^ _ _ ^ ( %.( ! &.%.X.} cXnXnXzXw.p.a.+.+.+.4...4.} 4.5.5.;.5.;.5.u.a.r.t.U _ _ _ %.%.*.( %.W %._ _ / 5.5.5.;.Q %.X.jXe.lX6.~ %.@.5.5.7.5.6.6.6.5.7.5.;.@.#.@.5.6.6.4.} { ..{ L K K tX6.6.6.6.6.6.o.) ( _ &.*.*.Y I K K K K { q q q q v l x n n m J L G G G L G z { S S { ......r t J r e k 0 T T T T yX*X=X=X=X=X3X=X*X=X=X=X=X=X=X=X=X=X=X=X=X=X=X=X=X=X=X=X=X=X=X=X=X=X=X=X=X=X=X=X=X=X=X=X=X=X=X=X=X=X=X=X=X=X=X=X=X=X=X=X=X=X=X=X=X=X=X=X=X=X=X=X=X=X=X=X=X=X=X=X=X=X=X=X=X=X=X=X=X=X=X=X=X=X=X=X=X=X=X=X=X=X=X=X=X=X=X=X=X=X=X=X=X=X=X=X=X=X=X=X=X=X=X=X=X=X=X=X=X=X=X=X=X=X=X=X=X=X=X=X=X=X=X=X=X=X=X=X=X=X=X=X=X=X=X=X=X=X=X=X=X=X=X=X=X=X=X=X=X=X=X=X=X=X=X=X=X=X=X=X=X=X=X=X=X=X=X=X=X=X=X=X=X=X=X=X=X=X=X=X=X=X=X=X=X=X=X=X=X=X=X=X=X=X=X=X=X=X=X=X=X=X=X=X=X=X=X-X*X-X*X=X:X;X#X#X;X#X&X#X#X#X;X&X&X&X&X&X&X&X&X&X&X&X&X&X&X&X#X#X#X#X;X;X#X1X-X=X=X=X*X*X=X=X=X=X=X=X=X=X=X=X=X=X=X=X=X=X=X=X=X=X=X=X=X=X=X=X=X=X=X=X=X=X=X=X=X=X=X=X=X=X=X=X=X=X*X-X*X*X=X*X*X*X=X=X*X:X<XC b.m.#X1X=X*X=X=X=X=X=X=X*X=X=X=X=X=X=X=X=X=X=X=X=X=X=X=X=X=X=X=X=X=X=X=X=X=X=X=X=X=X=X=X=X=X=X=X-X-X=X1XC.S.D.D.L.H.H.H.H.H.H.H.U.U.D.D.D.D.D.D.D.D.D.D.D.D.D.D.L.L.H.H.H.L.L.L.G.J.J.J.J.J.J.K.H.H.H.H.H.H.H.H.H.H.H.H.H.H.H.H.L.H.H.H.J.J.H.L.L.U.G.G.G.G.G.G.J.J.",
"=X=X=X=X=X=X=X=X=X=X=X=X=X=X=X=X=X=X=X=X=X=X=X=X=X=X=X=X=X=X=X=X=X=X=X=X=X=X=X=X=X=X=X=X=X=X=X=X=X=X=X=X=X=X=X=X=X=X=X=X=X=X=X=X*X*X*X*X*X*X*X*X*X*X*X*X*X*X*X*X1X#Xx.x.C 1X:X=X=X=X=X=X=X-X=X=X=X=X=X=X*X*X*X*X-X*X1X*X:X;Xj t u 0.zXzXkXX.Q / =.( =.*.W -.-.*.*.@.^ @.&.=.&.=.( ( &.) 1.2.=.2.1.1.2.1.1.2.2.,.L G z m M z n m t t x N N x z m J l r u u { xXxXvX+ o X 0 R U U >./ W ;.lXa.lX+.X.%.%.%.%.Q 6.jXr.p.p.lXxX..u w D #.>.6XR t G m m z m J H D G $.3.1.) ` ! ! ~ ~ ~ ( Q _ _ ( &.&.=.=.-.-.=.=.*.*.( &.( *.%.Q P jXi.w.q.e.u.t.w 0 q q 0 0 u 0.lXa.a.a.a.y.y.y.e.t.Q _ _ _ *.*._ _ -.%.=.&.( o.jXa.xX6.Q @.X.jXr.a.6.Q @.o.jXlXa.q.F Y Q 6.u.lXt.X.=.=.~ ~ ~ o.jXlXxX6.X.2.! ( ~ Q Q ! Q *./ =._ =.( =.2.( 1.&.1.] ] ] ] 3.3.3.3.,. .e X . $ @ . & . .   4 xXzXa.a.a.zXxXy t N 8 X $ % :XyX:X*X:X*X=X=X=X=X3X%X=X:X*X=X=X=X=X=X=X=X=X=X=X=X=X=X=X=X=X=X=X=X=X=X=X=X=X=X=X=X=X=X=X=X=X=X=X=X=X=X=X=X=X=X=X=X=X=X=X=X=X=X=X=X=X=X=X=X=X=X=X=X=X=X=X=X=X=X=X=X=X=X=X=X=X=X=X=X=X=X=X=X=X=X=X=X=X=X=X=X=X=X=X=X=X=X=X=X=X=X=X=X=X=X=X=X=X=X=X=X=X=X=X=X=X=X=X=X=X=X=X=X=X=X=X=X=X=X=X=X=X=X=X=X=X=X=X=X=X=X=X=X=X=X=X=X=X=X=X=X=X=X=X=X=X=X=X=X=X=X=X=X=X=X=X=X=X=X=X=X=X=X=X=X=X=X=X=X=X=X=X=X=X=X=X=X=X=X=X=X=X=X=X=X=X=X=X=X=X=X=X=X=X=X=X=X=X=X=X=X=X=X=X=X=X=X=X=X*X-X*X-X=X=XiX#Xm.l.l.l.c.c.c.c.l.l.c.c.c.c.c.c.c.c.c.c.c.c.c.c.c.l.c.l.c.c.l.>X-X=X=X=X*X*X=X=X=X=X=X=X=X=X=X=X=X=X=X=X=X=X=X=X=X=X=X=X=X=X=X=X=X=X=X=X=X=X=X=X=X=X=X=X=X=X=X=X*X=X*X*X*X*X=X=X*X=X=X=X*X:X,XC x.x.#X1X:X$X=X*X=X=X=X=X*X=X=X=X=X=X=X=X=X=X=X=X=X=X=X=X=X=X=X=X=X=X=X=X=X=X=X=X=X=X=X=X=X=X=X=X-X-X=X1XD.Q.Q.J.J.H.L.L.L.H.L.L.U.D.c.v.b.x.b.b.+X+X+X+Xb.b.+Xb.D.U.L.L.H.H.L.H.P.P.J.J.P.P.P.H.H.H.H.H.H.H.H.H.H.H.H.H.H.H.H.L.L.G.L.H.J.J.J.J.J.J.P.L.H.G.G.H.L.U.",
"=X=X=X=X=X=X=X=X=X=X=X=X=X=X=X=X=X=X=X=X=X=X=X=X=X=X=X=X=X=X=X=X=X=X=X=X=X=X=X=X=X=X=X=X=X=X=X=X=X=X=X=X=X=X=X=X=X=X=X=X=X=X=X=X=X=X=X=X=X=X=X=X=X=X=X=X=X=X=X=XyX#Xx.x.C 1X:X=X=X=X=X=X=X=X=X=X*X*X*X=X*X*X*X*X:X*X3X%X9X .q l 0 9XlXi.t.P ) ` ! ! &.! o.%.%.=.-.-.%.^ ( ( ) ) %.%.-.W ( _ ( *.@.@.@.X.( ( %.:.L v z m c v v c J c x x x z z z t z N N q ..lXw.nXo o O r qX#._ -.) ! ;.lXy.jXO.X.*.*.( @.P 6.a.r.9.w.d.zX} q J D :.-.#.I t z b n b l l M t D $.X.o.@.^ =.>.>.*.>.>.-.*.^ Q -.%.%.%.@.@.@.%.%.%.&.=.=.=.*.@.} kXy.q.q.y.a.xXt l B B N m u kXa.w.d.w.r.r.q.e.y.jXQ &.&.! &.&.! ! =.( *.) Q X.y.p.a.+.Y *.P jXr.lXtXU / Q t.a.r.6.W =.~ t.a.a.kXP W =.( =.*.O.lXq.a.+.P >.-.-.#.>.%.=.^ *.^ -.^ *.^ @.*.W -.( ` _ #.$.-.%.W %.W ^ 4X0 O 5 5 5 > : a p . + xXa.9.d.e.lXxXy q N a : * $ 1XiX=X=X%X3X=X*X=X*X=X-X*X-X*X=X=X=X=X=X=X=X=X=X=X=X=X=X=X=X=X=X=X=X=X=X=X=X=X=X=X=X=X=X=X=X=X=X=X=X=X=X=X=X=X=X=X=X=X=X=X=X=X=X=X=X=X=X=X=X=X=X=X=X=X=X=X=X=X=X=X=X=X=X=X=X=X=X=X=X=X=X=X=X=X=X=X=X=X=X=X=X=X=X=X=X=X=X=X=X=X=X=X=X=X=X=X=X=X=X=X=X=X=X=X=X=X=X=X=X=X=X=X=X=X=X=X=X=X=X=X=X=X=X=X=X=X=X=X=X=X=X=X=X=X=X=X=X=X=X=X=X=X=X=X=X=X=X=X=X=X=X=X=X=X=X=X=X=X=X=X=X=X=X=X=X=X=X=X=X=X=X=X=X=X=X=X=X=X=X=X=X=X=X=X=X=X=X=X=X=X=X=X=X=X=X=X=X=X=X=X=X=X=X=X=X=X=X=X=X*X-X*X:X=X*XiX#Xx.x.z.b.b.z.Z.Z.z.z.z.z.z.z.z.z.b.b.b.b.b.b.b.b.z.x.z.x.x.x.C ,X-X=X=X=X*X=X=X=X=X=X=X=X=X=X=X=X=X=X=X=X=X=X=X=X=X=X=X=X=X=X=X=X=X=X=X=X=X=X=X=X=X=X=X=X=X=X=X=X=X=X=X=X=X=X=X=X=X=X=X=X$X:X1XC x.x.#XiX:X=X:X=X=X=X=X=X*X=X=X=X=X=X=X=X=X=X=X=X=X=X=X=X=X=X=X=X=X=X=X=X=X=X=X=X*X=X=X=X=X=X=X=X%X%X3X1XD.Q.Q.K.J.L.G.G.L.U.G.L.F.D.C.c.z.x.l.z.l.l.l.z.z.z.x.v.D.L.L.L.H.H.J.H.G.G.G.S.G.G.G.G.L.H.H.H.H.H.H.H.H.H.H.H.H.H.H.L.L.L.L.L.L.H.H.J.J.J.J.P.J.J.J.J.J.J.",
"=X=X=X=X=X=X=X=X=X=X=X=X=X=X=X=X=X=X=X=X=X=X=X=X=X=X=X=X=X=X=X=X=X=X=X=X=X=X=X=X=X=X=X=X=X=X=X=X=X=X=X=X=X=X=X=X=X=X=X=X=X=X=X=X3X3X3X3X3X3X3X3X3X3X3X3X3X3X3X3XyX;Xx.+XT :X3X3X3X3X3X3X3X3X3X3X3X3X3X3X3X3X3X3X9X$X9X3XyX;X0 l u ..zXp.lX8.@.=._ / ' / _ =.( 2.` =.>.=._ _ *.%.@.@.-.@.( =.( =.&.&.%.) ) =.>.:.G q l l j q j l l l r r r l k k j r r n u ..zXs.xXo . X 0 ,.W &.1.1.1.3.jXi.jX;.Q &.=._ &.P q.lXp.p.zXe.zX{ r l v | #.:.K q e l l B l l B l w | -.&.=.&.! ! ( Q / Q ^ =.%.( =./ *.*.*.*.*.*.=.) =.2.2.1.1.1.o.jXu.u.y.a.p.zXy l k l r t u kXlXa.zXa.a.a.p.a.a.u.P &.=._ >._ _ ( Q ~ _ >.' @.lXa.lX6.~ ' P kXe.lX6.Y ! ~ t.y.a.t.! 3.X.jXa.a.kX~ ( / / / Q Q jXy.jX5.Q ` ! o.&.W o.-.W &.! &.! =.=.*.@.U ^ Q _ ` ` ` 2./ / *.~ / <.u   & . . & . . .   o xXa.p.a.y.lXkXu 0 b 4 . & . yXyXyXyX%X=X=X=X:X:X=X=X=X;X=X=X=X=X=X=X=X=X=X=X=X=X=X=X=X=X=X=X=X=X=X=X=X=X=X=X=X=X=X=X=X=X=X=X=X=X=X=X=X=X=X=X=X=X=X=X=X=X=X=X=X=X=X=X=X=X=X=X=X=X=X=X=X=X=X=X=X=X=X=X=X=X=X=X=X=X=X=X=X=X=X=X=X=X=X=X=X=X=X=X=X=X=X=X=X=X=X=X=X=X=X=X=X=X=X=X=X=X=X=X=X=X=X=X=X=X=X=X=X=X=X=X=X=X=X=X=X=X=X=X=X=X=X=X=X=X=X=X=X=X=X=X=X=X=X=X=X=X=X=X=X=X=X=X=X=X=X=X=X=X=X=X=X=X=X=X=X=X=X=X=X=X=X=X=X=X=X=X=X=X=X=X=X=X=X=X=X=X=X=X=X=X=X=X=X=X=X=X=X=X=X=X=X=X=X=X=X=X=X=X=X=X=X=X=X=X*X:X*X-X=X*XiX#Xx.z.z.v.v.v.v.v.v.v.v.v.v.v.v.v.v.v.n.n.v.v.v.v.Z.z.Z.z.b.b.m.<X*X=X=X=X=X=X=X=X=X=X=X=X=X=X=X=X=X=X=X=X=X=X=X=X=X=X=X=X=X=X=X=X=X=X=X=X=X=X=X=X:X:X:X:X:X:X:X:X3X3X3X3X3X3X3X3X3X3X3X3X3XyX1XT b.x.#XiX:X=X:X*X=X=X=X=X*X=X=X=X=X=X=X=X=X=X=X=X=X=X=X=X=X=X=X=X=X=X=X=X=X=X=X=X=X=X=X=X=X=X=X=X9X9X9X3XA.D.D.L.L.H.H.J.K.J.H.H.P.U.N.n.x.z.c.c.c.c.c.c.c.c.n.n.D.D.L.L.H.J.Q.Q.J.I.I.Y.H.K.F.K.H.H.H.H.H.H.H.H.H.H.H.H.H.H.H.H.J.J.L.L.L.L.L.L.P.H.S.S.S.H.L.H.L.L.",
"=X=X=X=X=X=X=X=X=X=X=X=X=X=X=X=X=X=X=X=X=X=X=X=X=X=X=X=X=X=X=X=X=X=X=X=X=X=X=X=X=X=X=X=X=X=X=X-X-X-X=X=X%X%X$X$X*X=X:X*X1X*X*X&Xx.z.v.z.z.z.z.z.v.v.v.v.z.z.v.v.z.z.v.v.v.v.v.v.v.v.v.z.z.z.v.v.z.z.b.b.n.n.v.z.x.x.z.z.C T xXr.u.;.o.=.( *.>.U 6.u.y.t.X._ ,.I v x D <.-.! ( W W -.%.W =.-.W -.^ *.! ( _ ^ *.@.W -.@.O.jXq.lX+.U #.*._ =.Q 6.a.y.jXX./ *.( &.&.=.! ) ) @.@.&.<.O s . e nXd.xXO.Q ` =.&.W &.( =.#.@.W &.W -.W &.( ( -.*.*.#.@.@.%.&.&.&.&.&.%.%.-.&.W -.*.Q t.r.y.t.Q _ =.=.=.( =.&._ ^ ! o.&.#.D z z x H t y lXu.lX6.W &.1.( &.( ) 2.( :.L v n z v x x n l r H $.=.&.Q *.W O.jXy.y.5.W ! ) ) ) o.5.jXr.e.y.q.r.r.r.u.y.w.r.a.4.w z N l J q { xXu.r.e.y.y.u.p.w.lX+.P -.=.=.=._ _ _ #.^ -.! -.o.@.%.Q jXy.u.6.X.%.%.( *.Q ;.lXe.lXO.%.` =.( ) ) &.&.=._ ` ( o.o._ #.O.jXy.lX..q M b X < X k yX%X3X*X-X-X*X=X*X=X=X=X=X=X=X=X=X=X=X=X=X=X=X=X=X=X=X=X=X=X=X=X=X=X=X=X=X=X=X=X=X=X=X=X=X=X=X=X=X=X=X=X=X=X=X=X=X=X=X=X=X=X=X=X=X=X=X=X=X=X=X=X=X=X=X=X=X=X=X=X=X=X=X=X=X=X=X=X=X=X=X=X=X=X=X=X=X=X=X=X=X=X=X=X=X=X=X=X=X=X=X=X=X=X=X=X=X=X=X=X=X=X=X=X=X=X=X=X=X=X=X=X=X=X=X=X=X=X=X=X=X=X=X=X=X=X=X=X=X=X=X=X=X=X=X=X=X=X=X=X=X=X=X=X=X=X=X=X=X=X=X=X=X=X=X=X=X=X=X=X=X=X=X=X=X=X=X=X=X=X=X=X=X=X=X=X=X=X=X=X=X=X=X=X=X=X=X=X=X=X=X=X=X=X=X=X=X=X=X=X=X=X*X*X=X=X=X=X=X-X*X-X:X#Xx.b.z.x.x.x.z.z.v.b.b.b.Z.b.v.v.c.v.b.b.Z.n.n.v.z.x.b.v.n.n.x.,X-X=X=X=X=X=X=X=X=X=X=X=X=X=X=X=X=X=X=X=X=X=X=X=X=X=X=X=X=X=X=X=X=X-X=X=X=X$X$X$X:X&XC Z.c.v.z.b.b.v.z.z.v.v.v.v.v.b.b.b.b.b.b.b.b.v.n.v.b.C 1X:X=X=X=X=X=X=X=X=X=X=X=X=X=X=X=X=X=X=X=X=X=X=X=X*X:X*X-X*X3X3X*X*X-X*X=X:X2XA.M.P.H.H.H.H.H.H.H.H.L.L.L.H.H.H.H.L.G.D.c.Z.x.#XuX6X7X7X6XeXyXT +XZ.D.L.U.U.U.U.H.H.H.H.H.H.H.H.H.H.H.H.H.H.H.H.H.H.H.H.H.H.H.H.H.H.H.H.H.H.H.H.H.H.H.H.H.H.H.H.H.H.H.H.",
"=X=X=X=X=X=X=X=X=X=X=X=X=X=X=X=X=X=X=X=X=X=X=X=X=X=X=X=X=X=X=X=X=X=X=X=X=X=X=X=X=X=X=X=X=X=X=X=X=X=X=X*X-X-X-X-X-X*X=X;X3X=X3X;Xx.z.v.z.z.z.v.z.v.v.v.v.v.z.v.v.z.z.v.v.v.v.v.v.v.v.z.z.v.z.v.v.n.n.n.n.n.n.v.v.v.z.n.n.l.#XxXe.lX+.P ( *.>.*.U 6.y.p.u.} / ,.I q l t | / _ >.-.W ^ ^ ) =.=.^ *.-.=.( &.=.=.&.o.&.=.X.;.jXu.xX+.! 1.1.=.2.Q 5.a.r.u.O.=.>._ _ / %.@.-.=.%.&.) ,.7 %   0 xXd.lXO.@.@.@.@.@.%.` ' / ' / =.) =.( =.%.%.&.( ( ) 2.3.) ) ) ) ) ) ) ` _ >.( =.( P t.a.a.t.X.=.%.&.*.*.Q X.@.-.%.^ _ :.w l b b B q w kXu.u.5.P W _ ( -.=.&.*.^ $.G q l l l l l z x j v >.` =._ *.| } lXp.lX5.U &.=.=.*.Y 5.lXp.w.p.r.y.r.r.y.a.w.p.lX4.u r N b M u D xXu.y.r.y.y.y.y.e.jX;.Q *.W Q %.%.%.%.=._ =.Q =.*.*.@.O.jXa.lX6.P &.) &.1.Q +.a.w.lXO.o.=.3.2.1.1.&.=.*._ ) ) ( ( Q Q X.jXr.lX..q { N = 2 . k yX%XiX-X-X-X=X=X=X=X=X=X=X=X=X=X=X=X=X=X=X=X=X=X=X=X=X=X=X=X=X=X=X=X=X=X=X=X=X=X=X=X=X=X=X=X=X=X=X=X=X=X=X=X=X=X=X=X=X=X=X=X=X=X=X=X=X=X=X=X=X=X=X=X=X=X=X=X=X=X=X=X=X=X=X=X=X=X=X=X=X=X=X=X=X=X=X=X=X=X=X=X=X=X=X=X=X=X=X=X=X=X=X=X=X=X=X=X=X=X=X=X=X=X=X=X=X=X=X=X=X=X=X=X=X=X=X=X=X=X=X=X=X=X=X=X=X=X=X=X=X=X=X=X=X=X=X=X=X=X=X=X=X=X=X=X=X=X=X=X=X=X=X=X=X=X=X=X=X=X=X=X=X=X=X=X=X=X=X=X=X=X=X=X=X=X=X=X=X=X=X=X=X=X=X=X=X=X=X=X=X=X=X=X=X=X=X=X=X=X=X=X*X*X=X=X=X=X=X-X*X-X1X#Xx.c.Z.Z.Z.n.n.v.v.n.v.c.v.v.v.v.v.v.z.z.l.l.v.Z.z.x.A.l.A.c.C &X:X=X=X=X=X=X=X=X=X=X=X=X=X=X=X=X=X=X=X=X=X=X=X=X=X=X=X=X=X=X=X=X=X=X*X*X=X=X=X=X1X,Xm.n.c.c.l.m.c.c.c.c.m.m.c.c.v.n.n.n.c.c.N.n.v.v.n.n.b.C 1X:X=X=X=X=X=X=X=X=X=X=X=X=X=X=X=X=X=X=X=X=X=X=X=X=X$X%X-X*X=X-X*X-X-X=X=X1X>XD.M.J.H.H.H.H.H.H.H.H.G.H.H.H.G.G.H.P.P.U.c.n.m.#XuX0XwX7X6XeXyXC x.c.D.L.U.L.U.U.H.H.H.H.H.H.H.H.H.H.H.H.H.H.H.H.H.H.H.H.H.H.H.H.H.H.H.H.H.H.H.H.H.H.H.H.H.H.H.H.H.H.H.H.",
"=X=X=X=X=X=X=X=X=X=X=X=X=X=X=X=X=X=X=X=X=X=X=X=X=X=X=X=X=X=X=X=X=X=X=X=X=X=X=X=X=X=X=X=X=X=X=X=X*X*X-X-X-X=X=X=X3X$X9X$X3X$X9X-Xx.v.v.v.z.v.v.v.v.v.z.v.v.z.v.v.v.z.v.v.v.v.v.v.v.v.v.v.v.v.v.v.n.n.v.v.v.v.z.v.v.n.b.v.m.T xXe.jX;.Y / ' ' ' ~ jXlXzXjX1.1.3./ t M G <.$.*.-.=.-.*.*.>._ _ _ / / / Q / ' ' >._ =.( Q O.jXa.y.O.F ~ ` ' 2.Q 5.a.y.u.Q W =.) %.( ( ( =._ =.=.) ,.7 . o S NXzXlX+.~ ~ 1.3.7X=.] ~ / _ / ` ( -.( =.o.o.o.&.=.=._ / *.*.#.#.#.*.*.*.^ *.&.=.) ~ t.u.y.i.~ ! W ( #.#.>.=._ _ ) ( ' / G H m c c t D lXlXlX6.X.( =.&.-.W Q %.>.,.L j l x l n l n J x G #.~ ) ( ( Q O.lXr.lX;.Y ! ( ( ( P 5.lXa.w.a.i.q.r.y.u.u.e.u.jX4.u 0 B l m q { cXa.a.p.p.p.e.r.e.lX+.W -.-.-.%.@.W ! _ / ` ~ ( ^ @.Q O.jXjXlX6.Y ^ ' / ( Q ;.lXu.lXO.~ Y / / ` ` =.=.&.&.&._ _ _ 6XX.O.jXlXxX4.u r l X @ . k gX:X:X3X:X*X=X=X=X%X=X=X=X=X=X=X=X=X=X=X=X=X=X=X=X=X=X=X=X=X=X=X=X=X=X=X=X=X=X=X=X=X=X=X=X=X=X=X=X=X=X=X=X=X=X=X=X=X=X=X=X=X=X=X=X=X=X=X=X=X=X=X=X=X=X=X=X=X=X=X=X=X=X=X=X=X=X=X=X=X=X=X=X=X=X=X=X=X=X=X=X=X=X=X=X=X=X=X=X=X=X=X=X=X=X=X=X=X=X=X=X=X=X=X=X=X=X=X=X=X=X=X=X=X=X=X=X=X=X=X=X=X=X=X=X=X=X=X=X=X=X=X=X=X=X=X=X=X=X=X=X=X=X=X=X=X=X=X=X=X=X=X=X=X=X=X=X=X=X=X=X=X=X=X=X=X=X=X=X=X=X=X=X=X=X=X=X=X=X=X=X=X=X=X=X=X=X=X=X=X=X=X=X=X=X=X=X=X=X=X=X=X*X*X=X=X=X=X=X-X*X-X:X#XC x.Z.Z.v.z.x.x.x.b.Z.Z.n.n.b.b.x.z.b.b.v.n.n.Z.b.x.+Xb.b.b.C &X:X=X=X=X=X=X=X=X=X=X=X=X=X=X=X=X=X=X=X=X=X=X=X=X=X=X=X=X=X=X=X=X=X=X*X*X*X*X=X=X1X&Xx.Z.v.Z.v.v.Z.#X#XZ.z.b.x.b.x.x.x.x.z.z.z.z.x.v.n.n.b.C 1X:X=X=X=X=X=X=X*X*X=X=X=X=X=X=X=X=X=X=X=X=X=X=X=X=X-X-X1X-X-X3X$X3X4X4X4XyX1XZ.D.I.L.H.H.H.H.H.H.H.G.G.H.H.H.H.L.L.J.D.A.b.m.;XuXrXrXwXwXrXyXT x.c.D.L.L.L.H.H.H.H.H.H.H.H.H.H.H.H.H.H.H.H.H.H.H.H.H.H.H.H.H.H.H.H.H.H.H.H.H.H.H.H.H.H.H.H.H.H.H.H.H.H.",
"=X=X=X=X=X=X=X=X=X=X=X=X=X=X=X=X=X=X=X=X=X=X=X=X=X=X=X=X=X=X=X=X=X=X=X=X=X=X=X=X=X=X=X=X=X=X=X=X-X-X-X=X=X=X=X-X-X#X,X,X,X#X<X,Xx.v.b.v.z.v.v.v.v.v.v.v.v.v.v.v.v.v.v.v.v.v.v.v.v.v.v.v.v.v.v.v.v.v.z.z.z.z.z.A.v.z.C C C J xXw.y.5.O.+.5.;.O.+.+.....4.U U U K q z D | #._ ) ) &.( ) ( ~ o.5.O.+.;.O.5.,.Q / *._ #.#.;.kXt.6.t.4.6.tXU -.U 5.jXu.jXW / =.*.#.@.=.) ^ W -.=.! ,.7 $ % 7 ..4...4.5.3.,.E K G ;.5.+.5.Q =.%.*.%.-.=.=.) &.%.@.#.*.*.*.&.&.%.%.*.&.&.o.! ( ( W t.lXa.t.Q ` _ *.#._ _ ` ` ! O.;.;.4.t z z t z y y 0.6.6.5.X.%.&.W W =.-.=./ @.E L K H z m z x m r H 6.;.5.o.Q ! o.6.6.t.6.;.5.;.Q &.X.5.t.6.4.lXy.r.r.r.y.e.9.p.a.i.{ { ..l M t { 0.4.+.6.t.6.6.a.y.lX+.~ W ) %.*.#._ _ ^ W 5.7.;.O.@.%.X.tX6.6.6.;.5.5.%.W W ;.6.6.6.+.5.5.5.W %.( =.*.%.&.&.) _ _ Q Q o.kX6.6.+.D { { 0 e k N ;XT  .*X=X=X=X=X*X*X=X=X=X=X=X=X=X=X=X=X=X=X=X=X=X=X=X=X=X=X=X=X=X=X=X=X=X=X=X=X=X=X=X=X=X=X=X=X=X=X=X=X=X=X=X=X=X=X=X=X=X=X=X=X=X=X=X=X=X=X=X=X=X=X=X=X=X=X=X=X=X=X=X=X=X=X=X=X=X=X=X=X=X=X=X=X=X=X=X=X=X=X=X=X=X=X=X=X=X=X=X=X=X=X=X=X=X=X=X=X=X=X=X=X=X=X=X=X=X=X=X=X=X=X=X=X=X=X=X=X=X=X=X=X=X=X=X=X=X=X=X=X=X=X=X=X=X=X=X=X=X=X=X=X=X=X=X=X=X=X=X=X=X=X=X=X=X=X=X=X=X=X=X=X=X=X=X=X=X=X=X=X=X=X=X=X=X=X=X=X=X=X=X=X=X=X=X=X=X=X=X=X=X=X=X=X=X=X=X=X=X=X*X*X=X=X=X=X=X-X*X-X:X#Xx.v.v.v.z.z.v.v.v.n.v.n.v.z.v.v.b.z.z.z.A.v.c.l.n.n.n.n.n.b.m.,X:X=X=X=X=X=X=X=X=X=X=X=X=X=X=X=X=X=X=X=X=X=X=X=X=X=X=X=X=X=X=X=X-X-X-X-X*X=X=X=X1X&XC b.x.v.x.x.x.x.z.z.v.n.n.n.n.n.v.v.z.z.z.x.x.z.n.v.b.C <X-X=X=X=X=X=X=X*X*X=X=X=X=X=X=X=X=X=X=X=X=X=X=X=X=X=X=X=X%X$X=X#X,X>X>X#X>XE.D.S.J.H.H.H.H.H.H.H.H.G.H.L.L.L.L.L.L.S.D.c.b.x.+X3X4X3X3X3X3X-X+X+XZ.D.L.L.L.H.H.H.H.H.H.H.H.H.H.H.H.H.H.H.H.H.H.H.H.H.H.H.H.H.H.H.H.H.H.H.H.H.H.H.H.H.H.H.H.H.H.H.H.H.H.",
"=X=X=X=X=X=X=X=X=X=X=X=X=X=X=X=X=X=X=X=X=X=X=X=X=X=X=X=X=X=X=X=X=X=X=X=X=X=X=X=X=X=X=X=X=X=X=X=X=X=X=X=X*X=X-X1X,Xm.l.l.b.l.x.m.z.v.b.v.v.b.b.v.v.v.v.v.v.v.v.v.v.v.v.v.v.v.v.v.v.v.v.v.v.v.v.v.z.z.z.z.z.b.z.z.z.x.N N l H lXr.p.p.a.a.a.a.a.nXe o   7 k l l r J c G $.-.&.! &.! &.=.-.X.5.xXlXlXa.a.lXt.O.X.-.W =.*.Q X.P Y jXJXCXNX} $.P 6.lXe.u.X.@.%.%.o.W -.-.@.o.&.&.! 6X7 * 2 @ 4 o o ..zXzX0.+ 4 o ..zXs.u.X.=.=._ &.( W #.*.>.@.W @.%.%.&.&.&.%.&.&.) ! ( =.>.=.W t.y.a.q.Q ` _ =.@.@.X.-.>.-.6.a.lXlXq x c J H G w <.Q %./ / ( *.@.^ ^ *.=.! 1.o.-.,. .v c c H c r D xXlXlX+.Q =.Q W U Y i.a.lXjXX.*./ / Q P P kXe.e.e.e.y.u.w.r.p.e.a.xXxX{ t q q q q w E ' Y o.jXe.u.+.o.=.=._ @.@.` _ @.O.y.zXlX6.Q ( ~ ` Q P +.u.a.lX5.W >./ Q P } 6.jXlXkXX.o.*.*.*.%.&.&.&.%.) &.=.! =.U P 5.xXlXxX;.,.,.R G j B ;X*X=X=X=X:X-X*X=X=X=X=X=X=X=X=X=X=X=X=X=X=X=X=X=X=X=X=X=X=X=X=X=X=X=X=X=X=X=X=X=X=X=X=X=X=X=X=X=X=X=X=X=X=X=X=X=X=X=X=X=X=X=X=X=X=X=X=X=X=X=X=X=X=X=X=X=X=X=X=X=X=X=X=X=X=X=X=X=X=X=X=X=X=X=X=X=X=X=X=X=X=X=X=X=X=X=X=X=X=X=X=X=X=X=X=X=X=X=X=X=X=X=X=X=X=X=X=X=X=X=X=X=X=X=X=X=X=X=X=X=X=X=X=X=X=X=X=X=X=X=X=X=X=X=X=X=X=X=X=X=X=X=X=X=X=X=X=X=X=X=X=X=X=X=X=X=X=X=X=X=X=X=X=X=X=X=X=X=X=X=X=X=X=X=X=X=X=X=X=X=X=X=X=X=X=X=X=X=X=X=X=X=X=X=X=X=X=X=X*X*X=X=X=X=X=X-X*X-X:X#Xc.c.v.b.Z.Z.Z.v.Z.Z.z.x.x.x.b.+X+X+Xb.z.v.v.b.v.v.z.Z.v.b.x.C &X:X=X=X*X=X=X=X=X=X=X=X=X=X=X=X=X=X=X=X=X=X=X=X=X=X=X=X=X*X*X*X=X*X-X*X*X*X=X$X$X:X&XC b.z.b.b.b.b.b.b.b.b.b.v.z.v.v.v.v.n.v.v.v.z.z.n.n.b.C 1X=X=X=X=X=X=X=X*X*X=X=X=X=X=X=X=X=X=X=X=X=X=X=X=X=X*X$X$X;X*X>XM.B.W.W.B.G.H.F.F.J.H.H.H.H.H.H.H.H.H.L.L.L.H.H.G.G.P.D.A.Z.c.c.A.l.l.k.c.c.A.m.n.c.D.L.L.L.H.L.H.H.H.H.H.H.H.H.H.H.H.H.H.H.H.H.H.H.H.H.H.H.H.H.H.H.H.H.H.H.H.H.H.H.H.H.H.H.H.H.H.H.H.H.",
"=X=X=X=X=X=X=X=X=X=X=X=X=X=X=X=X=X=X=X=X=X=X=X=X=X=X=X=X=X=X=X=X=X=X=X=X=X=X=X=X=X=X=X=X=X=X=X=X=X=X-X=X=X=X*X:X&XC z.z.Z.c.n.Z.v.v.b.v.v.b.b.v.v.v.v.v.v.v.v.v.v.v.v.v.v.v.v.v.v.v.v.v.v.v.v.v.b.b.v.v.b.b.v.v.Z.Z.B z r D lXr.e.r.y.y.r.9.w.xXS X . , A J M m x j D $.#.-.^ &.%.-.-.^ P +.lXe.9.9.e.lX6.X.Q ` _ ] ` _ =.%.F cXJXJXJXK X.Q 6.u.y.jXX.^ ) ( ` >./ ^ -.=.&.! W 4X7 & 2 1 9 . o hXs.s.0.o X   ..nXs.jXQ _ >._ &.! *.-.W ) 1.` =.Q &.&.&.%.@.@.&.=._ ' >._ / P 6.y.a.q.Q ( ( %.%.@.-.&.~ ~ 7.a.a.u.u x x x l v G :./ ( _ _ *.=.-.=._ >._ Q 2.) ) #. .l l x N N r D a.e.a.+.Q 6X_ ' 8XY 6.p.p.e.U / ' ] ` &.X.jXu.y.r.9.y.y.r.r.e.r.9.a.xXD e N N N B z R ,.~ o.lXy.lX+.U ' >.2.&.o.) *.Q O.e.a.y.+.Q 6X2.] _ P O.zXw.a.O.Y >._ _ >.P t.lXlXt.P X.-.%.%.*.%.%.%.&.&.! =.` 2.*.U 5.lXe.y.8.~ 1.U w J j &X:X=X=X=X=X=X*X=X=X=X=X=X=X=X=X=X=X=X=X=X=X=X=X=X=X=X=X=X=X=X=X=X=X=X=X=X=X=X=X=X=X=X=X=X=X=X=X=X=X=X=X=X=X=X=X=X=X=X=X=X=X=X=X=X=X=X=X=X=X=X=X=X=X=X=X=X=X=X=X=X=X=X=X=X=X=X=X=X=X=X=X=X=X=X=X=X=X=X=X=X=X=X=X=X=X=X=X=X=X=X=X=X=X=X=X=X=X=X=X=X=X=X=X=X=X=X=X=X=X=X=X=X=X=X=X=X=X=X=X=X=X=X=X=X=X=X=X=X=X=X=X=X=X=X=X=X=X=X=X=X=X=X=X=X=X=X=X=X=X=X=X=X=X=X=X=X=X=X=X=X=X=X=X=X=X=X=X=X=X=X=X=X=X=X=X=X=X=X=X=X=X=X=X=X=X=X=X=X=X=X=X=X=X=X=X=X=X=X*X*X=X=X=X=X=X-X*X-X:X#Xx.v.x.b.x.x.x.l.l.l.z.b.b.v.c.m.m.n.n.n.v.z.x.z.v.c.Z.z.+X+XC &X-X=X=X*X=X=X=X=X=X=X=X=X=X=X=X=X=X=X=X=X=X=X=X=X=X=X=X=X*X*X*X=X=X*X*X*X=X=X$X$X-X&Xm.n.c.Z.c.c.c.c.c.v.Z.Z.x.x.x.x.x.x.z.b.v.z.z.z.n.n.b.C 1X=X=X=X=X=X=X=X*X*X=X=X=X=X=X=X=X=X=X=X=X=X=X=X=X*X*X-X:X-XyX,Xc.M.W.W.F.S.L.G.G.I.L.H.H.H.H.H.H.H.H.H.H.H.G.G.G.H.P.U.c.z.v.z.x.C A.c.A.l.Z.x.+XZ.D.L.L.L.H.L.H.H.H.H.H.H.H.H.H.H.H.H.H.H.H.H.H.H.H.H.H.H.H.H.H.H.H.H.H.H.H.H.H.H.H.H.H.H.H.H.H.H.H.H.",
"=X=X=X=X=X=X=X=X=X=X=X=X=X=X=X=X=X=X=X=X=X=X=X=X=X=X=X=X=X=X=X=X=X=X=X=X=X=X=X=X=X=X=X=X=X=X=X=X=X=X-X-X=X=X=X1X,Xx.n.m.l.m.m.m.z.v.v.v.v.v.v.v.v.v.v.v.v.b.v.b.v.v.v.v.v.v.v.v.v.v.v.v.v.v.v.b.b.b.v.v.b.b.v.n.v.x.B z r D lXw.a.r.e.lXzXs.zXNXS O X O b r q v q w G R / >.=.-.W %.^ -.O.5.lXy.a.a.y.u.6.o.W / / U / *._ ,.Y xXCXBXCX8.%.~ 6.y.i.t.Q Q Q Q / / >./ _ _ _ ^ @.,.+ o X % . 4 + hXcXxXhX+ 8 o 4.lXe.t.P / =./ -.&.~ ! ~ ! -.>.0X6X` ` ) ) *.*.=.` >./ Q Q Q X.t.lXjXkX%.>.-.%.( ( Q ! ~ ! 6.lXxXcXq l r r e r t | -.&.&.*.( ^ ( ( ^ ^ W P W Q _ >. .w c c c z q t xXy.lX+.~ ` ~ &.~ ~ 6.lXxXu.O.P ) ^ ! &.X.jXu.e.zXp.a.zXs.s.s.zXzXlXlXD q r r r r t I -.X.;.jXu.lX+.P U Q W &.=.&.=.&.-.kXjXjXkXF Q X.W -.@.5.lXu.jX;.! &.W &.%.Q kXjXjXkXX.o.%.%.%.%.%.%.%.%.*.*.=.! W Q P 5.lXlXjXo.o.-.I q N l :XiX=X=X*X=X*X=X=X=X=X=X=X=X=X=X=X=X=X=X=X=X=X=X=X=X=X=X=X=X=X=X=X=X=X=X=X=X=X=X=X=X=X=X=X=X=X=X=X=X=X=X=X=X=X=X=X=X=X=X=X=X=X=X=X=X=X=X=X=X=X=X=X=X=X=X=X=X=X=X=X=X=X=X=X=X=X=X=X=X=X=X=X=X=X=X=X=X=X=X=X=X=X=X=X=X=X=X=X=X=X=X=X=X=X=X=X=X=X=X=X=X=X=X=X=X=X=X=X=X=X=X=X=X=X=X=X=X=X=X=X=X=X=X=X=X=X=X=X=X=X=X=X=X=X=X=X=X=X=X=X=X=X=X=X=X=X=X=X=X=X=X=X=X=X=X=X=X=X=X=X=X=X=X=X=X=X=X=X=X=X=X=X=X=X=X=X=X=X=X=X=X=X=X=X=X=X=X=X=X=X=X=X=X=X=X=X=X=X*X*X=X=X=X=X=X-X*X-X1X#Xx.c.A.c.c.n.b.#Xz.c.c.c.N.N.c.c.A.C.c.c.c.z.x.C A.c.A.c.Z.b.m.,X1X=X=X*X=X=X=X=X=X=X=X=X=X=X=X=X=X=X=X=X=X=X=X=X=X=X=X=X*X*X*X=X$X$X=X=X=X-X=X=X1X,Xm.z.l.z.x.x.m.l.l.c.c.l.c.n.c.c.c.c.v.v.A.v.z.z.n.n.b.C 1X:X=X=X=X=X=X=X*X*X=X=X=X=X=X=X=X=X=X=X=X=X=X=X=X=X=X3X=X*X:X,XA.R.T.I.D.D.H.J.K.J.H.H.H.H.H.H.H.H.H.H.H.G.G.H.P.P.F.D.c.z.n.n.+X+Xb.x.x.C x.C m.l.D.U.L.L.L.L.H.H.H.H.H.H.H.H.H.H.H.H.H.H.H.H.H.H.H.H.H.H.H.H.H.H.H.H.H.H.H.H.H.H.H.H.H.H.H.H.H.H.H.H.",
"=X=X=X=X=X=X=X=X=X=X=X=X=X=X=X=X=X=X=X=X=X=X=X=X=X=X=X=X=X=X=X=X=X=X=X=X=X=X=X=X=X=X=X=X=X=X=X=X*X=X=X=X$X$X=X1X,Xx.x.C hXcXxXhXC v.v.z.v.v.v.v.v.v.v.v.v.v.v.v.v.v.v.v.v.v.v.v.v.b.v.b.b.v.v.v.n.v.v.A.x.x.Z.v.n.b.B m t D lXw.lX} M N b 7 7 7 k e B l m v c  .kXu.6.5.Q &.%.&.-.=./ _ ' / 3.@.-.-.X.O.5.6.t.t.u.q.jX6.P @.Y cXJXCXJXL #.~ 6.lXw.lX6.t.u.e.e.i.t.;.X.o.@.*.] 2.U |  .J 4 8   k 8 4 f . 1   0.lXw.u.Q *.-.W =.! O.kXjXhX{ + + +  .:.>._ *.#.@.@.W X.5.t.kX6.5.O.O.;.U >.%.( ) %.;.kXjXi...y y K } @./ _ :.:.Q %.o.! %.=._ *.=.%.o.5.kXkXkXO.Q @.>.U <.} G G r H xXe.u.+.Q -.O.jXt.jX..z t { i.u.kX5.@.X.P jXy.a...D t H H H G I ,.X.3.Q U $.X.@.U / _ 2./ / ,.;.O.7.t.jXt.;.W ^ W %.' ' 3.O.;.;.kXjX6.O.X.^ X.;.@.;.( ` *.^ -.( ~ 3.;.X.,.Y =.=.*.%.%.%.@.@.#.#.*.^ o.6.kXkX6.} O.;.! =.:.} t z j =X=X*X:X*X-X-X=X=X=X=X=X=X=X=X=X=X=X=X=X=X=X=X=X=X=X=X=X=X=X=X=X=X=X=X=X=X=X=X=X=X=X=X=X=X=X=X=X=X=X=X=X=X=X=X=X=X=X=X=X=X=X=X=X=X=X=X=X=X=X=X=X=X=X=X=X=X=X=X=X=X=X=X=X=X=X=X=X=X=X=X=X=X=X=X=X=X=X=X=X=X=X=X=X=X=X=X=X=X=X=X=X=X=X=X=X=X=X=X=X=X=X=X=X=X=X=X=X=X=X=X=X=X=X=X=X=X=X=X=X=X=X=X=X=X=X=X=X=X=X=X=X=X=X=X=X=X=X=X=X=X=X=X=X=X=X=X=X=X=X=X=X=X=X=X=X=X=X=X=X=X=X=X=X=X=X=X=X=X=X=X=X=X=X=X=X=X=X=X=X=X=X=X=X=X=X=X=X=X=X=X=X=X=X=X=X=X=X=X*X*X=X=X=X=X=X-X*X-X1X#XC z.Z.n.z.+X;XiXyX-X@XT +X;X3X9X-X#XT T ;XiXyXyX+Xx.b.x.b.x.m.,X1X=X=X*X=X=X=X=X=X=X=X=X=X=X=X=X=X=X=X=X=X=X=X=X=X=X=X=X*X*X*X=X=X=X*X*X-X-X*X*X1X&XC +X+X&XiX9XeXeX9X3X;X+X+Xb.n.n.n.v.v.b.z.x.z.z.n.n.b.C 1X:X=X=X=X=X=X=X*X*X=X=X=X=X=X=X=X=X=X=X=X=X=X=X=X*X=X&X>XA.R.T.B.J.F.J.J.G.J.J.D.L.L.H.H.H.H.H.H.H.L.L.H.H.L.P.Q.!.(.!.E.E.~.(./.^.~.!.^.R.^.~.|.).U.U.L.L.L.L.H.H.H.H.H.H.H.H.H.H.H.H.H.H.H.H.H.H.H.H.H.H.H.H.H.H.H.H.H.H.H.H.H.H.H.H.H.H.H.H.H.H.H.H.",
"=X=X=X=X=X=X=X=X=X=X=X=X=X=X=X=X=X=X=X=X=X=X=X=X=X=X=X=X=X=X=X=X=X=X=X=X=X=X=X=X=X=X=X=X=X=X=X=X=X=X=X=X=X=X=X:X,Xx.Z.B cXmXmXvXZ n.+Xx.+Xb.z.A.Z.#Xx.#Xb.b.x.x.v.z.b.z.n.b.Z.x.Z.Z.x.#Xx.x.b.n.n.+Xb.#Xz.Z.A.z.z.x.N J 0 H xXi.lXD u B k $ % o 0 J G H z M 0 ..zXr.lXX.^ =.*.^ o.o.&.( ! ) W Q ` ` =.F O.xXy.y.p.w.a.lXP 1.F xXCXCXHXY o.Q 6.jXe.r.r.p.p.r.w.u.xXX.U -.( _ >.=.2.) 3.R X 1 % % @ 3 @ > < o ..lXa.t.@./ -.&.=.o.8.lX9.zXN   & X :.1.o.@.@.*.&.=.=.Q +.lXa.lXO.Q _ _ %.@.o.o.o.X.O.xXi.xX{ 0 x j ,.) ) 1.! %.2.( =._ =.=.o.! =.=.W 5.a.w.lXO.Q 2.&.1.1.3.K B z H lX9.lX+.Q -.} jXa.lX..0 q w zXp.a.5.U @.~ jXe.lX..0 z q j x q G :.( ) ) ) &.&.( o.=./ >.>.^ ` / P 6.a.a.jXP W _ *.! ( *.! ( Y 5.lXe.lXO.&.` ! ( ! ( ! o.-.*.W %.! ( / / ( &.*.*.=.! =.Q 2.W -.-.*.@.O.lXe.lX5.Y ^ ^ W *.>.U G m v :X:X*X=X=X3X=X=X=X=X=X=X=X=X=X=X=X=X=X=X=X=X=X=X=X=X=X=X=X=X=X=X=X=X=X=X=X=X=X=X=X=X=X=X=X=X=X=X=X=X=X=X=X=X=X=X=X=X=X=X=X=X=X=X=X=X=X=X=X=X=X=X=X=X=X=X=X=X=X=X=X=X=X=X=X=X=X=X=X=X=X=X=X=X=X=X=X=X=X=X=X=X=X=X=X=X=X=X=X=X=X=X=X=X=X=X=X=X=X=X=X=X=X=X=X=X=X=X=X=X=X=X=X=X=X=X=X=X=X=X=X=X=X=X=X=X=X=X=X=X=X=X=X=X=X=X=X=X=X=X=X=X=X=X=X=X=X=X=X=X=X=X=X=X=X=X=X=X=X=X=X=X=X=X=X=X=X=X=X=X=X=X=X=X=X=X=X=X=X=X=X=X=X=X=X=X=X=X=X=X=X=X=X=X=X=X=X=X=X*X*X=X=X=X=X*X-X*X-X:X#Xm.n.n.n.c.C  .rXwXeXC m.x.&XuX0XuXT l.C ;XuX6XeXT c.A.c.b.+XC ,X:X=X=X=X=X=X=X=X=X=X=X=X=X=X=X=X=X=X=X=X=X=X=X=X=X=X=X=X=X=X=X=X$X=X-X-X-X-X-X=X:X&Xm.b.C iXrXwXrXwXwXuX@XC z.Z.b.b.n.n.v.v.b.b.b.z.n.n.b.C 1X:X=X$X=X*X=X=X*X=X$X$X=X=X=X=X=X=X:X*X=X=X$X$X=X=X=X1XR.M.B.K.S.L.D.D.U.I.U.U.L.I.L.L.L.L.L.L.L.L.L.L.I.P.G.G.Q. X|.).).).).).).|.|.|.|.|.|.|.|.|.Y.P.P.H.H.P.P.P.H.H.H.H.H.H.H.L.S.G.G.G.P.L.G.U.M.G.U.L.L.L.J.H.H.H.H.H.H.H.H.H.H.H.H.H.H.H.H.H.H.H.",
"=X=X=X=X=X=X=X=X=X=X=X=X=X=X=X=X=X=X=X=X=X=X=X=X=X=X=X=X=X=X=X=X=X=X=X=X=X=X=X=X=X=X=X=X=X=X=X=X=X=X=X=X=X=X=X:X,Xx.b.Z xXmXmXxXB Z.Z.A.Z.z.l.c.m.c.m.c.c.n.c.n.n.z.Z.z.c.N.c.m.c.N.m.v.m.z.Z.z.A.A.l.c.k.c.c.c.c.z.B l q { a.a.nX..q b k % = X e N z z z m u ..lXw.jXX.o.&.=.>.>._ _ / / ' ' >./ / >.X.5.zXa.p.p.a.zXjXP U Y cXJXZXJX} } } 6.zXp.p.p.p.y.r.p.a.jXX.o.=.^ *.Q Q ^ *.,.K o $ & * = 6 % = 4 o +.lXu.t.W Q / Q / Q O.lXlXnX..o % X <.&.&.%.%.%.&.=.) ~ +.jXe.jXo.~ ' ' / / / / ' W 8.u.lXxX} u r G <.#.&.` *.*._ ( W ^ ( _ %.( ( *.~ ;.xXa.lX+.P Y ^ ^ ( $.c r q y xXlXlX;.P P X.lXq.lX..q J w lXq.a.5.U %.8.u.e.lX4.q J c m J v K :._ ) ) *.*.-.%.*.( / Q Q W _ >.P 6.u.y.jXP %.*.*.*.%.%.W -.U 5.xXa.lX} @._ ^ -.-.-.-.-.>.=.%.%.&.-.>.=.( *.>.>./ / %.! *.( *.^ *.o.X.jXr.lX5.~ %.=.@.-.>.I t r j =X:X=X=X=X-X=X=X=X=X=X=X=X=X=X=X=X=X=X=X=X=X=X=X=X=X=X=X=X=X=X=X=X=X=X=X=X=X=X=X=X=X=X=X=X=X=X=X=X=X=X=X=X=X=X=X=X=X=X=X=X=X=X=X=X=X=X=X=X=X=X=X=X=X=X=X=X=X=X=X=X=X=X=X=X=X=X=X=X=X=X=X=X=X=X=X=X=X=X=X=X=X=X=X=X=X=X=X=X=X=X=X=X=X=X=X=X=X=X=X=X=X=X=X=X=X=X=X=X=X=X=X=X=X=X=X=X=X=X=X=X=X=X=X=X=X=X=X=X=X=X=X=X=X=X=X=X=X=X=X=X=X=X=X=X=X=X=X=X=X=X=X=X=X=X=X=X=X=X=X=X=X=X=X=X=X=X=X=X=X=X=X=X=X=X=X=X=X=X=X=X=X=X=X=X=X=X=X=X=X=X=X=X=X=X=X=X=X=X*X*X=X=X=X=X=X-X*X-X:X#XC A.c.n.v.x.%XuXrXyXT x.x.&XuXeXyX#Xx.x.;XeX0XuXT x.Z.z.+Xx.C ,X:X=X=X=X=X=X=X=X=X=X=X=X=X=X=X=X=X=X=X=X=X=X=X=X=X=X=X=X=X=X=X=X=X=X-X-X-X-X=X=X:X&Xm.z.C <XeX6X6X6X6XuX@Xm.c.v.b.b.v.v.z.v.b.b.b.z.n.v.b.C 1X:X=X$X=X*X=X=X*X=X=X=X=X=X*X=X=X=X=X*X=X=X%X=X-X*X9X1X>Xk.S.F.S.H.H.J.J.J.J.H.J.F.F.F.F.F.F.F.F.F.M.M.S.G.S.S.I.~.|.).|.).).).).).|.|.|.|.|.|.|.|.G.G.F.F.F.F.F.F.F.F.F.F.F.F.F.F.H.L.H.G.P.J.G.H.G.L.L.H.H.H.J.J.H.H.H.H.H.H.H.H.H.H.H.H.H.H.H.H.H.H.",
"=X=X=X=X=X=X=X=X=X=X=X=X=X=X=X=X=X=X=X=X=X=X=X=X=X=X=X=X=X=X=X=X=X=X=X=X=X=X=X=X=X=X=X=X=X=X=X=X=X=X=X=X=X=X=X:X,Xm.n.Z vXnXmXvXZ n.Z.A.Z.z.x.,X#X#X#X#X#X#Xz.n.n.n.Z.l.x.#X#X+X#X#X#X2Xl.c.Z.v.z.Z.C #X#X#X#X;X+X#XB B B { 0.0.4.} D L N 7 7 7 b N c c c J q <.lXt.jXO.X.W ( _ ^ Q ;.;.;.;.Q o.3.Q ` ( O.6.6.t.6.t.6.+.7.O.O.jXNXmXNX} X.Q +.t.t.t.t.t.t.t.t.t.kX;.-.Q Q ;.;.,.^ *./ I 0 0 0 4 % * & > = o 0.lXw.t.;.;.;.;.,.,.O.+.0.hX{ + 0 0 :.=.&.&.) %.&.*.=.Q +.lXi.jX5.;.-.;.;.;.;.;.;.;.5.4.kX4.} L G K $.W ^ ! *.@.Q 5.O.5.-./ -.*.^ -.%.;.kX6.6.+.;.;.;.W ! -.L L L L hXhX4.4.4.O.4.t.e.xX{ q H w lXy.u.5.Q -.X.u.i.zX4.u G z x x w L ,._ ) ) *.*.*._ >.Q 5.O.O.;.U *.P 6.u.u.kXP %.&.! &.! ! ! =.Q 5.kX6.t.O.-.>.) &.^ ^ ^ %.^ ( -.%.@.@.*.*.W ^ *./ X.;.;.;.Q *.-.( &.o.O.jXe.lX5.~ &.&.W ^ #.I t M q $X=X=X-X*X-X-X=X=X=X=X=X=X=X=X=X=X=X=X=X=X=X=X=X=X=X=X=X=X=X=X=X=X=X=X=X=X=X=X=X=X=X=X=X=X=X=X=X=X=X=X=X=X=X=X=X=X=X=X=X=X=X=X=X=X=X=X=X=X=X=X=X=X=X=X=X=X=X=X=X=X=X=X=X=X=X=X=X=X=X=X=X=X=X=X=X=X=X=X=X=X=X=X=X=X=X=X=X=X=X=X=X=X=X=X=X=X=X=X=X=X=X=X=X=X=X=X=X=X=X=X=X=X=X=X=X=X=X=X=X=X=X=X=X=X=X=X=X=X=X=X=X=X=X=X=X=X=X=X=X=X=X=X=X=X=X=X=X=X=X=X=X=X=X=X=X=X=X=X=X=X=X=X=X=X=X=X=X=X=X=X=X=X=X=X=X=X=X=X=X=X=X=X=X=X=X=X=X=X=X=X=X=X=X=X=X=X=X=X*X*X=X=X=X=X=X=X*X-X1X#XC b.b.b.b.+X;X3X3X3X+X+Xx.;X3X3X&X+Xx.x.;X3XiXyX+Xx.Z.x.Z.x.m.,X<X=X=X*X=X=X=X=X=X=X=X=X=X=X=X=X=X=X=X=X=X=X=X=X=X=X=X=X=X=X=X=X*X*X*X-X*X=X$X$X*X&Xl.b.m.yXuXwXrXeX5XuX#Xx.c.z.x.x.b.z.z.z.v.b.b.z.n.v.b.C 1X:X=X$X=X=X=X=X*X=X=X=X*X*X=X=X=X=X*X-X=X=X*X-X,X#X,X>XR.S.L.P.L.P.K.J.J.F.S.Y.I.U.I.I.I.I.I.I.I.I.I.I.I.Y.I.I.!.|.|.|.).|.).).).).).).).).).).).).'.Y.I.I.I.I.I.I.I.I.I.I.I.I.I.I.Y.I.G.S.H.H.F.G.P.P.H.H.H.H.H.H.H.H.H.H.H.H.H.H.H.H.H.H.H.H.H.H.H.H.",
"=X=X=X=X=X=X=X=X=X=X=X=X=X=X=X=X=X=X=X=X=X=X=X=X=X=X=X=X=X=X=X=X=X=X=X=X=X=X=X=X=X=X=X=X=X=X=X=X=X=X=X=X=X=X=X:X,Xm.n.Z vXnXmXvXZ n.c.c.b.+X@XuXeX0XwXwXqX9X+Xb.b.x.A.C T yXqX4.zXmXSXNXT x.v.n.b.+XT iXeX5X7XwXeXuX#Xx.#XC B w G I $.,.<.G m N z z c c M M u ..lXu.u.O.o.( ` ` -.X.u.a.p.a.a.zXlXO.@.,.K w q 0 0 q u y xXlXy.zXw.i.kXP ( ! ! ! Q Q ! Q Q / Q ~ W Q =.Q +.lXjXlX;.=.) 2.-.6X4Xj % # 2 2 * o ..a.w.p.r.r.p.w.p.s.xX+ o o G 4XqX,.-.=.*.&.%.%.&.*.=.P +.lX9.p.r.y.a.a.p.p.p.p.p.a.0.u q w I :.>.-.%.&.=.( =.o.O.jXjXxX6.X.%.=.Q %.W Q @.P O.t.lXlX6.! ! 2.%.*.>./ u u u ..lXu.a.p.9.zX{ q z w lXw.lX5.Q ^ X.jXe.zX4.q m m N m z K ,.*.) ` _ _ *._ _ P jXlXlXjXW >.U 6.a.y.jX} &.( -.,.@.-.*.>.U *.P ~ o.U / #.@.W *.*.*.-.%.( -.! %.^ %.-.( _ =.P jXlXlXjXX.%.*._ &.X.O.jXe.lX5.Q %.( *.*.,.| w r t $X$X*X:X*X*X:X*X=X=X=X=X=X=X=X=X=X=X=X=X=X=X=X=X=X=X=X=X=X=X=X=X=X=X=X=X=X=X=X=X=X=X=X=X=X=X=X=X=X=X=X=X=X=X=X=X=X=X=X=X=X=X=X=X=X=X=X=X=X=X=X=X=X=X=X=X=X=X=X=X=X=X=X=X=X=X=X=X=X=X=X=X=X=X=X=X=X=X=X=X=X=X=X=X=X=X=X=X=X=X=X=X=X=X=X=X=X=X=X=X=X=X=X=X=X=X=X=X=X=X=X=X=X=X=X=X=X=X=X=X=X=X=X=X=X=X=X=X=X=X=X=X=X=X=X=X=X=X=X=X=X=X=X=X=X=X=X=X=X=X=X=X=X=X=X=X=X=X=X=X=X=X=X=X=X=X=X=X=X=X=X=X=X=X=X=X=X=X=X=X=X=X=X=X=X=X=X=X=X=X=X=X=X=X=X=X=X=X=X*X*X=X=X=X=X=X=X*X-X:X#Xl.A.A.c.c.c.v.Z.l.z.l.c.m.z.l.z.A.v.v.z.m.x.x.m.b.z.Z.z.A.z.m.,X<X=X=X*X=X=X=X=X=X=X=X=X=X=X=X=X=X=X=X=X=X=X=X=X=X=X=X=X=X=X=X=X*X*X*X*X=X=X$X=X:X&Xm.x.C iXeX3.3.3.6XuX#Xx.v.v.b.b.b.z.z.x.b.v.b.z.n.n.b.C 1X:X=X$X=X=X=X=X=X*X=X=X*X*X=X=X=X=X*X-X=X=X-X1X,XA.M.L.F.F.J.P.G.G.L.Y.P.G.I.].|.).|.|.|.|.|.|.|.|.|.|.|.|.|.~.).|.).|.|.|.).).).).).).).).).~.).).|.|.|.).).|.|.|.|.|.|.|.|.|.|.|.|.~.I.U.P.P.H.P.P.H.G.G.L.L.L.L.H.H.H.H.H.H.H.H.H.H.H.H.H.H.H.H.H.H.",
"=X=X=X=X=X=X=X=X=X=X=X=X=X=X=X=X=X=X=X=X=X=X=X=X=X=X=X=X=X=X=X=X=X=X=X=X=X=X=X=X=X=X=X=X=X=X=X=X=X=X=X*X=X=X=X:X,Xm.n.Z xXnXmXvXB n.n.c.v.C T uXrX7XwX7X7XeXm.c.Z.x.Z.x.T uX8X,.i.zXMXnXN C z.Z.z.x.C yXrX7X7X7X7XuX+Xm.>Xm.B t w U ;.-.X.D v m N N N J N n q ..a.r.u.O.-.>.2._ ^ P t.lXd.w.d.9.lXO.~ 6XR G z m N m q y xXu.q.9.r.y.t.~ o.=.%.^ >.` >._ _ >._ >._ ] 1.~ +.a.r.a.~ ~ ^ >.! -.<.u X & 9 2 = o ..xXi.u.u.u.u.i.u.kXvX  - o v >.*.=.=.=.` _ %.%._ _ >.Q ;.lXi.y.w.a.w.e.w.e.e.e.w.i.cXu r q R ,.2.) =.=.] ` _ P } xXu.lX5.P Q 2.=.>.( ^ *.^ X.t.a.y.t.P Q =.&.2.2./ G z w 0.zX9.r.9.w.zX..0 r y xXa.lX5.~ ~ X.kXu.lX..0 b x x z z L <.#.) =.%.%.%.( 2.8.q.r.r.t.Q >.~ 6.u.y.u.} %.( ( _ ~ %.*.>.( ) ) 2.` =./ =.>.>./ _ ( =.%.%.=.^ =.( Q ( _ _ >.P +.p.r.t.8.! >.>._ X.O.jXw.lX5.Q >.( ^ Q %.U w J v $X=X;X:X*X*X*X*X=X=X=X=X=X=X=X=X=X=X=X=X=X=X=X=X=X=X=X=X=X=X=X=X=X=X=X=X=X=X=X=X=X=X=X=X=X=X=X=X=X=X=X=X=X=X=X=X=X=X=X=X=X=X=X=X=X=X=X=X=X=X=X=X=X=X=X=X=X=X=X=X=X=X=X=X=X=X=X=X=X=X=X=X=X=X=X=X=X=X=X=X=X=X=X=X=X=X=X=X=X=X=X=X=X=X=X=X=X=X=X=X=X=X=X=X=X=X=X=X=X=X=X=X=X=X=X=X=X=X=X=X=X=X=X=X=X=X=X=X=X=X=X=X=X=X=X=X=X=X=X=X=X=X=X=X=X=X=X=X=X=X=X=X=X=X=X=X=X=X=X=X=X=X=X=X=X=X=X=X=X=X=X=X=X=X=X=X=X=X=X=X=X=X=X=X=X=X=X=X=X=X=X=X=X=X=X=X=X=X=X*X*X=X=X=X=X=X-X*X-X:X#Xx.n.x.x.v.c.c.m.m.n.n.>X+X#Xc.c.l.c.Z.Z.Z.A.A.c.n.n.b.z.A.z.m.,X-X=X=X=X=X=X=X=X=X=X=X=X=X=X=X=X=X=X=X=X=X=X=X=X=X=X=X=X=X=X=X=X=X=X=X=X*X*X=X*X:X&XC +XT 3XeX7X3.wXwXuX;Xx.v.v.b.b.v.v.z.b.v.v.b.z.n.v.b.C -X-X=X=X=X=X=X=X*X=X*X=X*X*X=X=X=X=X*X=X=X-X-X1X>Xk.S.J.J.P.P.Y.L.H.F.J.G.M.I.}.XX X|.|.|.|.|.|.|.|.|._.)._._.~.~.~.).).).).).).|.).~.~.~.~.~.~.~.~.|._._._._._._._._._._._._._._.|.|.~.I.M.G.G.G.G.H.G.S.G.L.H.H.P.H.H.H.H.H.H.H.H.H.H.H.H.H.H.H.H.H.H.",
"=X=X=X=X=X=X=X=X=X=X=X=X=X=X=X=X=X=X=X=X=X=X=X=X=X=X=X=X=X=X=X=X=X=X=X=X=X=X=X=X=X=X=X=X=X=X=X=X=X=X=X*X=X=X=X:X,Xm.n.Z xXnXnXvXZ n.n.n.v.C T yXeX4X8X6X6X9XC c.n.n.n.m.T uX8X:.kXxXnXNXC m.v.Z.Z.x.C iXeX6X6X6X5XuX#Xm.#XC x v w } O.} I w v j 0 0 u 0 q 0 u D lXlXjXX.@.Q / Q ~ ~ t.lXlXlXlXu.lX;.Y | I q r r r r r D xXa.a.a.a.lXjXO.X.-.*.-.^ Q %.X.W W Q ` / _ ~ 8.+.u.lXxXo.! >.#.Q $. .0 o $ < . - 4 ..nXs.s.s.s.s.s.a.zXvX+ O + w qX@.Q *.*._ ` _ *.@.@.X.O.+.lXa.a.p.a.s.s.a.a.a.a.a.lX0.w t D I @.&.! ^ / ^ &.%.P X.kXlXlX6.X.Q / U Y o.o.*.=.Q kXlXjXtXP ^ *.W @.%.@.w r y 4.xXa.zXlXa.xX..w r D kXlXjX5.X.Q O.jXr.lX..u z v v v v G <.@.@.%.@.@.%.( ( ~ t.lXlXt.Q ~ W 6.u.u.jX} -._ Q ( Q &.! ) 1.) 3.3.W 2.! ~ ~ ~ W %.~ / *.( -.^ ^ -.Q %.^ / _ U u.lXjXt.O.Q ( Q _ ^ X.jXe.lX5.Q >.W o.~ o.U q T q $X=X;X:X*X=X=X=X=X=X=X=X=X=X=X=X=X=X=X=X=X=X=X=X=X=X=X=X=X=X=X=X=X=X=X=X=X=X=X=X=X=X=X=X=X=X=X=X=X=X=X=X=X=X=X=X=X=X=X=X=X=X=X=X=X=X=X=X=X=X=X=X=X=X=X=X=X=X=X=X=X=X=X=X=X=X=X=X=X=X=X=X=X=X=X=X=X=X=X=X=X=X=X=X=X=X=X=X=X=X=X=X=X=X=X=X=X=X=X=X=X=X=X=X=X=X=X=X=X=X=X=X=X=X=X=X=X=X=X=X=X=X=X=X=X=X=X=X=X=X=X=X=X=X=X=X=X=X=X=X=X=X=X=X=X=X=X=X=X=X=X=X=X=X=X=X=X=X=X=X=X=X=X=X=X=X=X=X=X=X=X=X=X=X=X=X=X=X=X=X=X=X=X=X=X=X=X=X=X=X=X=X=X=X=X=X=X=X=X*X*X=X=X=X=X=X-X*X-X:X#Xl.n.x.A.A.C.A.A.l.v.m.c.m.z.A.l.b.m.v.l.m.z.l.l.n.z.b.x.Z.x.C &X:X=X=X*X=X=X=X=X=X=X=X=X=X=X=X=X=X=X=X=X=X=X=X=X=X=X=X=X=X=X=X=X=X=X=X=X*X-X*X*X-X&XC #X+XiXyXeXeXrXeXuX#Xx.z.z.b.b.v.v.v.b.v.v.z.z.n.n.b.C <X-X=X=X=X=X=X=X*X*X=X=X*X*X=X=X*X*X-X=X=X=X-X1X>Xk.S.S.S.S.M.M.S.F.F.J.F.M.G.!.~.~.~.~.~.~.~.~.~.~.~.~.~.~.~.).~.~.).).).).).).).).).).).).).).).).~.~.~.~.~.~.~.~.~.~.~.~.~.~.~.~.).!.I.M.S.G.S.G.H.G.H.P.H.G.G.H.H.H.H.H.H.H.H.H.H.H.H.H.H.H.H.H.H.H.",
"=X=X=X=X=X=X=X=X=X=X=X=X=X=X=X=X=X=X=X=X=X=X=X=X=X=X=X=X=X=X=X=X=X=X=X=X=X=X=X=X=X=X=X=X=X=X=X=X=X=X=X=X=X=X=X:X,Xm.n.Z xXnXmXvXZ n.n.b.Z.m.T yXuX4XkXjXlXvXC Z.l.z.Z.C { cXxXlXzXbXf.NXC z.A.z.b.+XC iXeX7X0X0X3.eX#Xz.Z.x.C C C ;X3X3X3X;X*X .9XkX0.0.xXxXxXlXO.;.3.Q -.X.5.t.t.t.7.O.;.o.O.O.O.6.7.t.6.P U U R R R U 6.;.o.O.O.;.;.Q Q *._ >.-.-.6.t.6.5.%.=.@.tX6.6.6.;.O.;.1.! _ / =.=.,.I I  .N O - X e b e e e 8 8 s k k b J K I U ,.@.*.#.*.%.%.*.#.%.*.^ #.@.qX<.<.K H { { { { { { { { | I I U #.-.-.-.*.@.X.5.6.6.6.5.;.O.5.6.6.t.jXjXt.5.X.! ~ 6.u.jXtXQ &.&.%.@.@.@.U I I } { { { H { }  .I U Y ;.;.;.5.6.6.+.y.e.lX6.L | | R R R U -.( %.%.@.%.%.( =.o.@.;.O.5.6.t.+.t.y.u.kXQ %.Q 5.t.6.tXQ @.,.I u 0 u hXt.t.kXkX6.6.o.@.>._ =.@.X.6.6.6.6.@.%.%.-.;.;.;.6.6.t.5.W W X.jXe.a.5.~ W X.6.t.kX} + 7 7 &X:X;X=X=X*X*X=X=X=X=X=X=X=X=X=X=X=X=X=X=X=X=X=X=X=X=X=X=X=X=X=X=X=X=X=X=X=X=X=X=X=X=X=X=X=X=X=X=X=X=X=X=X=X=X=X=X=X=X=X=X=X=X=X=X=X=X=X=X=X=X=X=X=X=X=X=X=X=X=X=X=X=X=X=X=X=X=X=X=X=X=X=X=X=X=X=X=X=X=X=X=X=X=X=X=X=X=X=X=X=X=X=X=X=X=X=X=X=X=X=X=X=X=X=X=X=X=X=X=X=X=X=X=X=X=X=X=X=X=X=X=X=X=X=X=X=X=X=X=X=X=X=X=X=X=X=X=X=X=X=X=X=X=X=X=X=X=X=X=X=X=X=X=X=X=X=X=X=X=X=X=X=X=X=X=X=X=X=X=X=X=X=X=X=X=X=X=X=X=X=X=X=X=X=X=X=X=X=X=X=X=X=X=X=X=X=X=X=X*X*X=X=X=X=X=X-X*X-X:X#Xx.b.x.b.v.x.;X3X3XiX+Xb.x.;XiX3X-X+Xb.x.#XyX3XyX+Xx.Z.z.b.x.C &X:X=X=X=X=X=X=X=X=X=X=X=X=X=X=X=X=X=X=X=X=X=X=X=X=X=X=X=X=X=X=X=X=X=X=X=X*X-X=X=X1X&XC b.m.#X#X;X#X;X#X&Xx.z.v.b.z.z.v.v.v.b.v.v.z.v.n.n.b.C <X:X=X=X=X=X=X=X*X*X*X*X*X=X=X=X*X-X*X=X=X$X*X1X>XR././.!.(.!.(..X{.!.!.!.!.!.~.^.|.^.).).).).).).).).).).).|.}.}.|.).).).).).).).).).).).).).).).).).).~.).).|.).~.).).).).).).).).|.|.~.!.!.!.!.!.!.'.!.!.Y.G.F.H.H.H.H.H.H.H.H.H.H.H.H.H.H.H.H.H.H.H.",
"=X=X=X=X=X=X=X=X=X=X=X=X=X=X=X=X=X=X=X=X=X=X=X=X=X=X=X=X=X=X=X=X=X=X=X=X=X=X=X=X=X=X=X=X=X=X=X=X=X=X=X=X=X=X=X:X,Xx.Z.Z xXnXnXvXV A.Z.z.Z.m.@XuX6X;.s.MXmXnXC c.b.b.b.C N NXNXnXbXf.f.NXC c.n.v.x.Z.C yXuX5XeX6XwXeX+Xm.z.n.Z.Z.l.>X1X-XiX-XyX .i.zXw.s.VXJXJXvXY ~ ] / -.P +.lXy.lXO.U >.' / ^ F kXlXzXt.X.1.2.1.] 2.` ! ! / ' ' / / ( _ >./ =.W O.u.lXa.6.} X.8.y.lXxX6.Y / #.*./ >.^ 1.! ) 2.1.7X .+ 6 & % . @ @ @ @ . @ . X + 9X>.2.) ! ) =.` _ %.@.#.#.%.) ) 2.~ ) Q :.E q j l l l j j l w D ,.>.>.1.) ! =.` &.~ 6.u.lXjXP / Y 5.lXa.r.p.p.lX6.Q @.Q kXu.u.t.P o.W -.*._ ) 1.2.6XY q 0 0 l j q I >.3.) ] ! Y 5.lXzXw.p.e.lX6.~ 1.1.1.2.=.=.1.) ( &.%.%.=.) ! =./ / ~ ;.jXa.p.p.y.t.kX~ o.P +.a.lXjXX.#.4Xc o   o hXzXr.r.p.a.a.O.W =.( *.@.8.u.a.lXt.O.W ) ` / U X.lXa.a.+.} X.X.jXe.a.5.U o.O.u.zXzX..  - % &X1X*X=X*X*X*X*X=X=X=X=X=X=X=X=X=X=X=X=X=X=X=X=X=X=X=X=X=X=X=X=X=X=X=X=X=X=X=X=X=X=X=X=X=X=X=X=X=X=X=X=X=X=X=X=X=X=X=X=X=X=X=X=X=X=X=X=X=X=X=X=X=X=X=X=X=X=X=X=X=X=X=X=X=X=X=X=X=X=X=X=X=X=X=X=X=X=X=X=X=X=X=X=X=X=X=X=X=X=X=X=X=X=X=X=X=X=X=X=X=X=X=X=X=X=X=X=X=X=X=X=X=X=X=X=X=X=X=X=X=X=X=X=X=X=X=X=X=X=X=X=X=X=X=X=X=X=X=X=X=X=X=X=X=X=X=X=X=X=X=X=X=X=X=X=X=X=X=X=X=X=X=X=X=X=X=X=X=X=X=X=X=X=X=X=X=X=X=X=X=X=X=X=X=X=X=X=X=X=X=X=X=X=X=X=X=X=X=X*X*X=X=X=X=X=X-X*X-X:X#XC Z.c.n.c.C %XrXwXuXC l.C ;XrXwXuXT x.C ;XuX5XuXT x.A.c.b.b.m.,X:X=X=X=X=X=X=X=X=X=X=X=X=X=X=X=X=X=X=X=X=X=X=X=X=X=X=X=X=X=X=X=X*X*X*X*X*X=X=X=X:X&XC Z.k.A.l.l.c.c.m.Z.c.c.Z.b.z.z.v.v.v.v.v.v.z.z.n.v.b.C 1X:X=X=X=X=X=X=X*X*X*X*X=X=X=X=X-X-X*X*X=X$X*X<X,X>XdX_.pXpX`._.^.^.^.dXpX X`.`.`.}._._._._._._._.).).).).~.~.).~.~.).).).).).).).).).).).).).).).).~.~.~.~.).).).~.).).).).).).)._.~._.|._.pX|._._.|.|.|.|.!.U.G.P.L.H.H.H.H.H.H.H.H.H.H.H.H.H.H.H.H.H.",
"=X=X=X=X=X=X=X=X=X=X=X=X=X=X=X=X=X=X=X=X=X=X=X=X=X=X=X=X=X=X=X=X=X=X=X=X=X=X=X=X=X=X=X=X=X=X=X=X=X=X=X=X=X=X=X:X&Xm.n.Z vXnXnXvXZ N.n.b.#XC T uXeX,.lXMXmXNXC c.Z.Z.n.C N cXBXbXf.f.mXnXJ C N.N.c.x.+XiXuXwX7X7XwXuX;Xx.b.c.n.n.m.&X-X=X=X=X*X .0.y.r.w.BXSXCX0.F 2.! >.' Y +.lXe.t.o.~ #.^ %.%.~ kXlXlX6.P ~ ` 2.' %.o.@.-.o.@.#.@.#.X.;.W >./ Q Q u.a.y.6.X.1.O.jXq.jX6.Y @.>.! =.` / *.U >.` ! ,.{ O . & 3 3 3 3 3 3 & 3 & X +  .<.W ( ! ) ! 1.1.=.>._ *.%.( _ ` ! &.=.$.L v l b n z x l B j w :.>.>.( ! / _ ' =.P 6.u.u.jX} *.Q 5.lXa.y.p.r.a.6.P / U kXy.lXtX~ ~ ! ! ` #.#.-./ >.L t { t z z t K <.-.( &.%.P 6.lXa.p.p.w.lX6.X.W _ ^ %.o.! &.=._ -.-.( >._ ^ ( ` *.Q ;.u.a.p.p.y.lXkXX.&.~ 7.a.lXjX~ ~ >.G X   o xXlXr.p.p.a.t.;.Y >.' ' ` P jXa.lXkX8.( ' / #.! o.u.u.jX;.Q ~ o.jXa.a.5.Y Q Q 6.u.s...o % o &XyX=X-X*X=X=X=X=X=X=X=X=X=X=X=X=X=X=X=X=X=X=X=X=X=X=X=X=X=X=X=X=X=X=X=X=X=X=X=X=X=X=X=X=X=X=X=X=X=X=X=X=X=X=X=X=X=X=X=X=X=X=X=X=X=X=X=X=X=X=X=X=X=X=X=X=X=X=X=X=X=X=X=X=X=X=X=X=X=X=X=X=X=X=X=X=X=X=X=X=X=X=X=X=X=X=X=X=X=X=X=X=X=X=X=X=X=X=X=X=X=X=X=X=X=X=X=X=X=X=X=X=X=X=X=X=X=X=X=X=X=X=X=X=X=X=X=X=X=X=X=X=X=X=X=X=X=X=X=X=X=X=X=X=X=X=X=X=X=X=X=X=X=X=X=X=X=X=X=X=X=X=X=X=X=X=X=X=X=X=X=X=X=X=X=X=X=X=X=X=X=X=X=X=X=X=X=X=X=X=X=X=X=X=X=X=X=X=X*X*X=X=X=X=X=X-X*X-X1X#Xm.n.n.Z.c.x.%XuXrXeXC l.l.&XrXwXuXT +XC ;XuX6XuXT x.n.c.b.x.m.,X:X=X=X*X=X=X=X=X=X=X=X=X=X=X=X=X=X=X=X=X=X=X=X=X=X=X=X=X=X=X=X=X*X*X*X*X*X=X=X=X:X&XC Z.c.A.l.l.c.c.l.v.A.c.Z.x.z.v.b.n.n.v.n.v.z.z.n.n.b.m.1X-X=X=X=X-X*X*X=X=X-X&X*X:X-X-X3X4X3X3X$X$X$X*X,XdX^.).).).).).).).).).).).).).).).).).).).).).).).).).).).).).).).).).).).).).).).).).).).).).).).).).).).).).).).).).).).).).).).).).).).).).).).~.~.}..X'.S.M.G.H.S.G.H.G.G.H.H.J.J.H.J.H.J.G.H.H.H.",
"=X=X=X=X=X=X=X=X=X=X=X=X=X=X=X=X=X=X=X=X=X=X=X=X=X=X=X=X=X=X=X=X=X=X=X=X=X=X=X=X=X=X=X=X=X=X=X=X=X=X=X=X=X=X=X:X&Xm.n.Z vXnXnXvXZ n.n.v.Z.x.T iX9X4XhXxXxXvXN x.l.v.v.x.T vXcXxXnXxXxXcXT x.Z.l.b.+XT *XyX4XqXqX9XyX#XC x.x.x.x.C ,X:X*X*X*X*X%XtXkXkX0.JXCXZXhXY >./ ,.o.X.+.a.u.jX;.o.3.-./ =.@.tXjXt.6.+.O.;.>./ @.%.*.>._ =.( ) *./ ( ~ =.3.;.5.6.i.jX4.I | L xXjXjX6.o.@.W X.o.o.o.-.X.2.U /  .T 0 7 4 4 4 7 7 4 4 = 6 6 7 q :.$./ -.*.>.#.$.$./ #.>.>.%.@.#.#.@.%.*.$.I H G H G G t H { D } X.W Y X.;.o.-.#.>.P 6.u.y.jXX.o.X.4.i.i.u.kXkXkX6.O.X.O.t.t.jX5.;.;.;.! ! *.^ o.W ,.K t M t J H G I $.#.^ *.*.@.6.t.t.i.e.e.jX5.^ #.*.#.*.@.%./ *.^ *.@.W -.*.*.%.&.%.X.;.t.q.q.q.q.t.kXX.%.Q 6.jXt.t.;.O.5.L + 0 0 ..0.0.0.kXi.6.5.X.O.X.o.O.;.4.0.0.4.O.O.-.*.^ / o.jXw.y.7.8.O.;.kXt.u.6.;.O.O.t.u.a...O 7 7 &X*X;X*X*X=X=X=X=X=X=X=X=X=X=X=X=X=X=X=X=X=X=X=X=X=X=X=X=X=X=X=X=X=X=X=X=X=X=X=X=X=X=X=X=X=X=X=X=X=X=X=X=X=X=X=X=X=X=X=X=X=X=X=X=X=X=X=X=X=X=X=X=X=X=X=X=X=X=X=X=X=X=X=X=X=X=X=X=X=X=X=X=X=X=X=X=X=X=X=X=X=X=X=X=X=X=X=X=X=X=X=X=X=X=X=X=X=X=X=X=X=X=X=X=X=X=X=X=X=X=X=X=X=X=X=X=X=X=X=X=X=X=X=X=X=X=X=X=X=X=X=X=X=X=X=X=X=X=X=X=X=X=X=X=X=X=X=X=X=X=X=X=X=X=X=X=X=X=X=X=X=X=X=X=X=X=X=X=X=X=X=X=X=X=X=X=X=X=X=X=X=X=X=X=X=X=X=X=X=X=X=X=X=X=X=X=X=X=X*X*X=X=X=X=X=X-X*X-X1X#Xx.n.x.+Xb.+X;X3X3XiX+Xb.b.,XiX3X-XT x.x.;XyX9XyX+Xx.n.v.b.x.C &X-X=X=X=X=X=X=X=X=X=X=X=X=X=X=X*X=X=X=X=X=X=X=X=X=X=X=X=X=X=X=X=X=X=X*X*X*X-X*X*X1X&XC b.m.#X#X+X+X+X@X#Xz.l.b.x.z.v.n.n.v.v.v.z.z.z.n.n.b.C 1X-X=X=X=X-X*X*X=X=X3X%X$X:X<X,X&X&X&X&X&X&X&X&X>X>X^.).).).).).).).).).).).).).).).).).).).).).).).).).).).).).).).).).).).).).).).).).).).).).).).).).).).).).).).).).).).).).).).).).).).).).).).).~.|.}.!.I.I.Q.I.U.I.I.I.I.P.L.S.H.J.G.H.H.G.H.H.H.",
"=X=X=X=X=X=X=X=X=X=X=X=X=X=X=X=X=X=X=X=X=X=X=X=X=X=X=X=X=X=X=X=X=X=X=X=X=X=X=X=X=X=X=X=X=X=X=X=X=X=X=X=X=X=X=X:X,Xm.n.Z xXnXnXvXk v.b.n.Z.n.n.#Xm.m.m.c.m.N.m.>X#Xn.n.n.m.N.m.m.m.V m.n.m.v.Z.Z.b.c.m.c.v.l.l.l.l.c.l.l.n.Z.Z.z.C ,X:X=X%X=X*X=X;X3X ...JXCXCXhXF %.X.jXlXa.r.a.w.a.r.y.lXt.Q &.~ Q Q P +.jXlXxX;.W %.&.&.=._ *.W %.*.:.,.$.6.u.a.u.y 0 b 7 o o + 0.d.w.p.p.a.a.a.a.a.a.a.a.lX7.! 1.2.) 3.2.3.3.3.3.3.3.3.3.3.3.` 2.( *.>.%.@.<.w q w L @.=.@.%.-._ ) ) ] ) ! Q %.>.>.3.-.kXlXlXt.o.>.o.t.lXlXlXU >.U 6.u.y.jXX.^ / K w 0 0 q 0 u { xXlXjXO.P Y 5.jXjXjX;.W >.%.! %.,.I t c G <.@.o.&.1.) ( =._ W / ) Q Q W Q ~ -.W *.-.@.*.%.*.>.>.*.%.%.%.%.=.=.*./ _ Q Q %.W Q Q Q ^ #.U _ _ Q %.Q O.t.u.xX6.@.qX .0 O o + q 0 y 0.lXlXlXa.a.xXu o o u xXu.xX;.Q _ @.lXw.p.r.a.jXkXX.P } +.jXu.e.a.y.lXkX .yX;XyX3X=X:X&X*X*X=X=X=X=X=X=X=X=X=X=X=X=X=X=X=X=X=X=X=X=X=X=X=X=X=X=X=X=X=X=X=X=X=X=X=X=X=X=X=X=X=X=X=X=X=X=X=X=X=X=X=X=X=X=X=X=X=X=X=X=X=X=X=X=X=X=X=X=X=X=X=X=X=X=X=X=X=X=X=X=X=X=X=X=X=X=X=X=X=X=X=X=X=X=X=X=X=X=X=X=X=X=X=X=X=X=X=X=X=X=X=X=X=X=X=X=X=X=X=X=X=X=X=X=X=X=X=X=X=X=X=X=X=X=X=X=X=X=X=X=X=X=X=X=X=X=X=X=X=X=X=X=X=X=X=X=X=X=X=X=X=X=X=X=X=X=X=X=X=X=X=X=X=X=X=X=X=X=X=X=X=X=X=X=X=X=X=X=X=X=X=X=X=X=X=X=X=X=X=X=X=X=X=X=X=X=X=X=X=X=X=X=X*X*X=X=X=X=X=X-X*X-X1X#Xl.A.x.x.A.l.Z.Z.x.Z.l.c.m.z.z.z.#Xx.n.n.m.x.C C b.z.b.z.Z.z.C &X-X=X=X=X=X=X=X=X=X=X=X=X=X=X=X=X=X=X=X=X=X=X=X=X=X=X=X=X=X=X=X=X=X=X=X=X*X-X*X*X-X&XC +X+XiXyXeXeXuXuXyX&Xx.+Xb.v.v.v.n.v.z.z.z.z.z.v.v.b.C 1X:X=X=X=X=X*X*X=X=X-X-X&X,X>X~.{.{.).|.`.}.|.].`.(.).).).).).).).).).).).).).).).).).).).).).).).).).).).).).).).).).).).).).).).).).).).).).).).).).).).).).).).).).).).).).).).).).).).).).).).).).~.).|.|.~.~.|.|.}.|.|.).|.}.!.G.P.L.H.L.L.G.H.H.H.",
"=X=X=X=X=X=X=X=X=X=X=X=X=X=X=X=X=X=X=X=X=X=X=X=X=X=X=X=X=X=X=X=X=X=X=X=X=X=X=X=X=X=X=X=X=X=X=X=X=X=X=X=X=X=X=X:X,Xm.b.Z vXnXnXvXB n.b.n.n.n.l.l.Z.A.A.A.V A.C Z.m.x.z.Z.v.Z.l.A.Z.Z.c.Z.A.A.x.x.z.v.z.n.n.c.c.c.c.n.n.n.n.b.b.x.C &XiX-X$X$X=X-X;X-X;X .JXCXZXxXP &.} kXu.y.w.w.d.e.r.r.a.q.P _ 2.] =.~ ;.jXr.y.O.X.&.&.%.%.^ @.%.&.! ( _ Q 7.zXa.lXw 0 N e , 8 o vXxXw.w.w.w.w.w.d.w.e.e.r.jXO.P Q %.) 3.` ) ) ! &.%.-.-.o.&.&.=.&./ *.) ! ( <.m b b J -.=.W %.%.%.%._ &.&.&.&.1.1.` ) 8.t.y.a.kX~ ( Y 6.a.w.r.P %.Q 6.lXy.kXQ #.,.I l b N N N u { zXw.a.8.( _ O.lXlXlX;.~ =.( &.-.<.L w t G 6X*.&.=.*.^ #.*.#.>.=.>.( >.=.>._ ( W -.&.o.=.( *.*.^ / ( =.1.( ( ) ] ` 2.>.-.=.( ' _ ` _ =._ 2.2.` 2.` X.y.r.a.7.8.2.3XO . & 7 T B r u.a.e.w.d.d.NX+ . . + NXd.u.6.~ ( X.jXw.w.9.d.u.jX-.^ Q 5.zXa.w.r.9.e.6. .iXiXiX*X=X*X&X=X*X=X=X=X=X=X=X=X=X=X=X=X=X=X=X=X=X=X=X=X=X=X=X=X=X=X=X=X=X=X=X=X=X=X=X=X=X=X=X=X=X=X=X=X=X=X=X=X=X=X=X=X=X=X=X=X=X=X=X=X=X=X=X=X=X=X=X=X=X=X=X=X=X=X=X=X=X=X=X=X=X=X=X=X=X=X=X=X=X=X=X=X=X=X=X=X=X=X=X=X=X=X=X=X=X=X=X=X=X=X=X=X=X=X=X=X=X=X=X=X=X=X=X=X=X=X=X=X=X=X=X=X=X=X=X=X=X=X=X=X=X=X=X=X=X=X=X=X=X=X=X=X=X=X=X=X=X=X=X=X=X=X=X=X=X=X=X=X=X=X=X=X=X=X=X=X=X=X=X=X=X=X=X=X=X=X=X=X=X=X=X=X=X=X=X=X=X=X=X=X=X=X=X=X=X=X=X=X=X=X=X=X=X*X*X=X=X=X=X=X-X*X-X1X#Xx.b.x.x.b.l.m.m.c.N.N.>Xb.#Xc.c.l.v.R.R.n.Z.A.c.c.c.v.z.A.z.m.,X:X=X=X=X=X=X=X=X=X=X=X=X=X=X=X=X=X=X=X=X=X=X=X=X=X=X=X=X=X=X=X=X=X=X=X=X=X=X=X*X1X,XC x.C iXrXwX3.7XrXeX#XC x.z.v.v.b.b.z.z.z.z.z.z.v.n.b.C 1X:X=X=X=X=X=X=X=X$X3X$X=X1X>X/.(.[.(.(.`.(.[.[.(.(.).).).).).).).).).).).).).).).).).).).).).).).).).).).).).).).).).).).).).).).).).).).).).).).).).).).).).).).).).).).).).).).).).).).).).).).).).~.~.).|.|.|.|.|.|.|.).).|.|.'.M.I.L.G.H.L.H.H.H.H.",
"=X=X=X=X=X=X=X=X=X=X=X=X=X=X=X=X=X=X=X=X=X=X=X=X=X=X=X=X=X=X=X=X=X=X=X=X=X=X=X=X=X=X=X=X=X=X=X=X=X=X=X=X=X=X=X:X,Xm.n.Z xXnXnXvXZ n.Z.v.c.c.v.n.V m.m.c.m.N.c.N.N.Z.A.c.l.n.V l.C l.m.v.l.c.c.n.x.+X#X+X+X#X#X#X#X#X#Xb.x.x.x.x.C ,X1X-X*X*X*X*X1X1X*X$XJXBXCXxXY ` X.kXt.a.a.a.a.zXzXa.lX6.Q / Q Y / Y ;.jXr.a.;.^ =.=.( *.@.#.>.>.! ! Q U 5.lXlXxXH x { 0 X X + hXzXa.a.zXzXzXzXa.a.a.p.p.lX+.o.=.=.( >.U / U $.#./ / -.@.*.*.>.>.>._ ! ! ~ $.w l r L $._ / >.@.@.#.$.@.@.%.%.W ^ W X.8.i.y.lXkXP Q P 6.lXp.a.Q =.Q 6.lXy.t.X.Y X.L w t r q q t { xXs.xXO.W Y O.u.w.jX;.P =.*.@.$.| L t r D $.@.) &.( ^ @.#.@.Q ~ W P X.U %.=._ _ -.%.*.=._ *./ Q @.( ` =.Q ^ ~ ( Q / %.X.X.o.o.&.&.( W %.W Q %.*.( X.lXe.a.6.~ #.4Xu O % 7 b B u i.y.e.lXlXzXNXe % % e NXzXNX;.~ ! ;.lXzXnXzXzXzXjXX.~ Y O.lXq.q.y.e.lXhX .:X&X&X;X*X=X=XiX=X=X=X=X=X=X=X=X=X=X=X=X=X=X=X=X=X=X=X=X=X=X=X=X=X=X=X=X=X=X=X=X=X=X=X=X=X=X=X=X=X=X=X=X=X=X=X=X=X=X=X=X=X=X=X=X=X=X=X=X=X=X=X=X=X=X=X=X=X=X=X=X=X=X=X=X=X=X=X=X=X=X=X=X=X=X=X=X=X=X=X=X=X=X=X=X=X=X=X=X=X=X=X=X=X=X=X=X=X=X=X=X=X=X=X=X=X=X=X=X=X=X=X=X=X=X=X=X=X=X=X=X=X=X=X=X=X=X=X=X=X=X=X=X=X=X=X=X=X=X=X=X=X=X=X=X=X=X=X=X=X=X=X=X=X=X=X=X=X=X=X=X=X=X=X=X=X=X=X=X=X=X=X=X=X=X=X=X=X=X=X=X=X=X=X=X=X=X=X=X=X=X=X=X=X=X=X=X=X=X=X=X=X*X*X=X=X=X=X=X-X*X-X1X#Xm.A.c.c.c.c.z.Z.l.c.c.c.m.z.l.l.z.b.n.n.l.x.z.m.n.z.Z.z.Z.z.m.,X:X=X*X*X*X*X*X*X*X*X*X*X*X*X*X*X=X=X=X=X=X=X=X=X=X=X=X=X=X=X=X=X*X*X=X=X=X=X=X=X1X,Xm.x.C 3XeX3.3.7XwXuX;Xx.#XZ.v.b.b.b.z.z.v.v.z.z.n.n.b.m.1X:X=X=X=X=X=X=X$X$X3X$X3X:X>X>XdXdXdXdX^.^.^.^.^.^.^.).).).).).).).).).).).).).).).).).).).).).).).).).).).).).).).).).).).).).).).).).).).).).).).).).).).).).).).).).).).).).).).).).).).).).).).|.~.~.~.).)._._.~.~.~./.~.|.~.I.M.L.U.S.G.H.H.H.H.H.",
"=X=X=X=X=X=X=X=X=X=X=X=X=X=X=X=X=X=X=X=X=X=X=X=X=X=X=X=X=X=X=X=X=X=X=X=X=X=X=X=X=X=X=X=X=X=X=X=X=X=X=X=X=X=X=X:X,Xx.n.Z xXnXnXvXZ n.#Xx.z.x.+X-X3X3X%X%X%X=XT Z.C x.l.C +X<X-X-X%X3X3X-X#Xx.x.Z.v.v.c.V V V V V V V l.c.c.n.n.v.m.,X<X-X*X=X$X=X*X*X;X .zXs.zXi.Y ( X.lXu.y.+.D { { } } } +.5.6.t.6.t.5.5.y.r.lX;.^ *.=.%.*.^ #.$.X.O.6.6.6.+.} { { r l n 0 % , . A S e e S e e { { { } 4.;.qXX.W o.o.! -.X.6.t.6.6.! ! ) ! ) ) ! W ^ X.;.t.6.6.U R U @.&.o.W *.( &.%.*.( ( ) *.( ;.tX6.5.6.+.;.6.6.6.6.5.;.+.5.W =.Q 6.lXr.y.5.6.kX,.U | | U / L I ..{ ..4.t.6.9.a.i.lX;.Q =.-.( %.#.U I I Y -.&.&.&.&.&.%.&.! o.3.tX6.tXX.&.=.*.#.@.W *.=.W -.6.6.6.o.W o.O.tX6.kX,.^ *._ @.-._ _ *.W X.6.6.6.;.Q ^ Q lXu.lX6.Q / -.E L K J J N 0 u.a.u.0.y e A 4 @ # - A e u 4.i.t.4.y e e e e r M 4.kX6.i.p.y.r.u.i.u.6.| 4X<.4X=X=X=X-X:X*X=X=X=X=X=X=X=X=X=X=X=X=X=X=X=X=X=X=X=X=X=X=X=X=X=X=X=X=X=X=X=X=X=X=X=X=X=X=X=X=X=X=X=X=X=X=X=X=X=X=X=X=X=X=X=X=X=X=X=X=X=X=X=X=X=X=X=X=X=X=X=X=X=X=X=X=X=X=X=X=X=X=X=X=X=X=X=X=X=X=X=X=X=X=X=X=X=X=X=X=X=X=X=X=X=X=X=X=X=X=X=X=X=X=X=X=X=X=X=X=X=X=X=X=X=X=X=X=X=X=X=X=X=X=X=X=X=X=X=X=X=X=X=X=X=X=X=X=X=X=X=X=X=X=X=X=X=X=X=X=X=X=X=X=X=X=X=X=X=X=X=X=X=X=X=X=X=X=X=X=X=X=X=X=X=X=X=X=X=X=X=X=X=X=X=X=X=X=X=X=X=X=X=X=X=X=X=X=X=X=X=X=X*X*X=X=X=X=X=X-X*X-X1X#XC +Xb.n.n.x.;X3X3X-X+Xb.x.;X-X3X-X+Xx.x.#X-X1X1X+Xx.Z.x.b.x.m.,X:X=X=X=X*X=X=X=X=X=X=X=X=X=X=X=X=X=X=X=X=X=X=X=X=X=X=X=X=X=X=X=X*X*X*X-X=X=X$X$X:X&Xl.b.m.iXuXwX0X6XeXyX#Xm.z.l.v.b.b.b.v.v.n.b.z.z.n.n.b.m.1X:X=X=X=X=X=X=X$X-X,X>X>XdX^.).`.`._._._.).|.|.].~.).).).).).).).).).).).).).).).).).).).).).).).).).).).).).).).).).).).).).).).).).).).).).).).).).).).).).).).).).).).).).).).)._._.).).).).).).|.|.).~.).).^.~.|.).|.).).|.|.!.'.!.Q.G.G.H.H.G.H.H.",
"=X=X=X=X=X=X=X=X=X=X=X=X=X=X=X=X=X=X=X=X=X=X=X=X=X=X=X=X=X=X=X=X=X=X=X=X=X=X=X=X=X=X=X=X=X=X=X=X=X=X=X=X=X=X=X:X,Xx.b.Z xXnXnXxXZ n.b.b.#Xx.T yXeXrXrXrXrXuXT x.b.n.n.+XT eXtXwXwXwXrXuX+Xn.N.n.n.b.v.V a h h h h a l.Z.Z.#Xv.z.C &X3X=X=X=X3X3X3X=X3X .jXq.u.+.o.-.P jXu.xX..u B j 0 0 0 { zXa.p.p.a.a.a.p.9.y.O.W &.&.@.%.! &.%.Q O.a.lXlX} + r r z c J k $ : $ > . . . $ . X e l j G #.Q ' / _ ( ) _ @.U t.a.lXjX@.^ -.^ #.@.*.&.=.X.6.lXa.lXO.&.=.&.o.o.o.( %.@.%.%.%.( _ *.Q ;.lXjXlX+.P Y O.lXa.lX;.P Q W ( *.P 6.lXr.y.r.a.lX6.Q o.=.&.1.3.U u u u kXzXp.r.a.w.lX;.Q ( ( &.&.1.1.=.>.1.2./ / ^ ^ @.#.#.@.P 5.lXu.lX} X.o.%.@.o.W -.%.Q ;.xXlXjX+.~ X.+.xXa.a.7.Q %.*.*.-.=.=.%.Q O.u.a.zX5.Q =.W jXq.jX7.Q =.1.1.3.3.| t c u u.p.a...o X . $ * > @ $ $ o ..zXa.0.o . . $ @ . + vXlXa.p.w.9.e.e.u.a.6.Q ' ' :.3X=X=X*X*X&X*X=X=X=X=X=X=X=X=X=X=X=X=X=X=X=X=X=X=X=X=X=X=X=X=X=X=X=X=X=X=X=X=X=X=X=X=X=X=X=X=X=X=X=X=X=X=X=X=X=X=X=X=X=X=X=X=X=X=X=X=X=X=X=X=X=X=X=X=X=X=X=X=X=X=X=X=X=X=X=X=X=X=X=X=X=X=X=X=X=X=X=X=X=X=X=X=X=X=X=X=X=X=X=X=X=X=X=X=X=X=X=X=X=X=X=X=X=X=X=X=X=X=X=X=X=X=X=X=X=X=X=X=X=X=X=X=X=X=X=X=X=X=X=X=X=X=X=X=X=X=X=X=X=X=X=X=X=X=X=X=X=X=X=X=X=X=X=X=X=X=X=X=X=X=X=X=X=X=X=X=X=X=X=X=X=X=X=X=X=X=X=X=X=X=X=X=X=X=X=X=X=X=X=X=X=X=X=X=X=X=X=X*X*X=X=X=X=X=X=X*X-X1X#XC v.c.A.n.x.%XeXeXyX+Xz.x.&XuXeXyX@Xx.x.;XuXeXuXT x.Z.z.+Xx.m.,X-X=X=X=X=X=X=X=X=X=X=X=X=X=X=X=X=X=X=X=X=X=X=X=X=X=X=X=X=X=X=X=X=X=X-X-X-X-X$X=X:X&Xl.Z.C <XeX6X0X6X0XuX#Xl.Z.v.v.v.b.b.v.v.b.b.v.v.n.n.b.x.1X:X=X=X=X=X=X=X$X&X>X/.~.).(.(.~._._.)..X~.^._.).).).).).).).).).).).).).).).).).).).).).).).).).).).).).).).).).).).).).).).).).).).).).).).).).).).).).).).).).).).).).).).).)._._._._._.).).).).).}.|.).).|._.).).~.~.).~.~.).~.|. X~.I.G.L.H.G.H.H.",
"=X=X=X=X=X=X=X=X=X=X=X=X=X=X=X=X=X=X=X=X=X=X=X=X=X=X=X=X=X=X=X=X=X=X=X=X=X=X=X=X=X=X=X=X=X=X=X=X=X=X=X=X=X=X=X:X,Xx.b.Z xXnXnXxXZ n.n.c.Z.C T uXeX6X3.2.7X9XC Z.z.z.c.v.T 9XeX8X7X6X7XuX+Xz.Z.l.l.n.Z.V h g g g V g l.b.x.b.z.z.C ,X-X$X*X:X=X-X=X&X-X .jXr.lX5.P ! 8.jXy.xX4.u M m M J q { zXd.a.y.y.a.y.e.y.xX;.^ %.-.#.*.( ) ` Q O.u.y.lX4.q N l H t n k   < < - X 9 & 3 - X b N l G ,.@.%.>.%.^ =.2.=.P q.a.y.q.Q Q =.! %.^ ^ _ ` P +.a.r.lXQ ` ` *.o.&.1.` =.*.%.&.) ` ` =.X.O.a.9.a.O.Q _ } xXd.a.;.! ] _ %.-.P 6.lXw.r.r.w.a.6.Q ^ 2.` _ #.| q m u xXlXr.y.y.r.lXO.%.*.#.@.X.*.( ^ #.%.( -.=.&.&.=.` _ *.P 6.lXy.jX8.Q ` ( @.@.( >._ Q 5.u.r.jX;.Q X.O.jXu.jX;.Y ` >.%.%.W %.%.Q O.jXu.jX5.Y _ Q u.9.lX5.P ,.~ ! ! -.| w J w u.w.zX0.o 2 2 = 4 - < > 8   ..zXr.xXo 2 9 = 8 X o cXa.y.a.u.a.p.r.y.a.6.~ *.:.4X:X:X-X*X*X:X*X=X=X=X=X=X=X=X=X=X=X=X=X=X=X=X=X=X=X=X=X=X=X=X=X=X=X=X=X=X=X=X=X=X=X=X=X=X=X=X=X=X=X=X=X=X=X=X=X=X=X=X=X=X=X=X=X=X=X=X=X=X=X=X=X=X=X=X=X=X=X=X=X=X=X=X=X=X=X=X=X=X=X=X=X=X=X=X=X=X=X=X=X=X=X=X=X=X=X=X=X=X=X=X=X=X=X=X=X=X=X=X=X=X=X=X=X=X=X=X=X=X=X=X=X=X=X=X=X=X=X=X=X=X=X=X=X=X=X=X=X=X=X=X=X=X=X=X=X=X=X=X=X=X=X=X=X=X=X=X=X=X=X=X=X=X=X=X=X=X=X=X=X=X=X=X=X=X=X=X=X=X=X=X=X=X=X=X=X=X=X=X=X=X=X=X=X=X=X=X=X=X=X=X=X=X=X=X=X=X=X=X*X*X=X=X=X=X=X=X*X-X1X#Xm.n.v.v.v.C 4XrX7XeXC l.z.&XuX7XuXT z.m.;XuX7XeXT z.Z.v.+Xb.l.,X-X=X=X=X=X=X=X=X3X3X3X3X3X3X3X=X=X=X=X=X=X=X=X=X=X=X=X=X=X=X=X=X$X=X-X-X-X-X=X=X:X&Xl.Z.C :XrX7XwX3.7XeX#XC Z.v.v.v.n.v.A.A.b.b.b.v.n.n.v.C 1X:X=X$X=X=X=X=X$X-X>XdX_.`.).^.dX^.~.).{..X^.^._.`.).).).).).).).).).).).).).).).).).).).).).).).).).).).).).).).).).).).).).).).).).).).).).).).).).).).).).).).).).).).).).).)._._._._._.).).).).!.~.|.|.).|.|.|.|.~.).|.~.~._._.~.}.!.G.S.L.L.L.H.H.",
"=X=X=X=X=X=X=X=X=X=X=X=X=X=X=X=X=X=X=X=X=X=X=X=X=X=X=X=X=X=X=X=X=X=X=X=X=X=X=X=X=X=X=X=X=X=X=X=X=X=X=X=X=X=X=X:X,Xx.b.Z xXnXnXvXZ n.x.b.#XC T uXuX4XrX6.6.uXC n.b.z.Z.z.T uXeX6XwX6XrXuXT l.Z.z.z.v.Z.V h V h g g a l.Z.l.b.z.b.m.,X:X$X-X-X*X$X;X3X;X .a.r.q.6.~ ~ 5.6.jXxX..y N r G G w ..u.a.u.e.w.p.w.p.a.u.;.&.W _ %.-.Q &.! ~ 5.5.xXjX..r c x m M r 0 7 % = * 2 $ $ 6 % O b x v L U @.*.&.^ _ _ _ Q O.5.u.u.t.;.P -./ _ =.Q -.Q ;.4.u.e.u.o.) ] >.X.$.W 2.] ` =.W @.W ! ( ^ @.jXu.jX;.X.P +.t.u.lX;.U -.%.%.Q X.6.t.r.r.y.y.jX6.X.W _ %.*.$.I G t D 4.lXe.y.y.jXt.;.X.o.&.*._ *.*.%.%.o.&.) 2.o.-./ Y 6.~ X.5.jXjX6.;.Q =.-.U 6X/ &.o./ ;.jXr.lXO.W *.O.lXq.jX;.$.X.-.' ' ] ^ =.o.O.t.r.a.5.Q Q ;.t.u.jX5.~ ( 2.Q :.$.I G t y 0.xXxX..+ X 1 # # > * > 2 o 0.a.xX0.+ o 6 * - o e gXxXu.y.y.lX0.lXr.u.6.X.@.,.4X$X$X=X=X=X=X=X=X=X=X=X=X=X=X=X=X=X=X=X=X=X=X=X=X=X=X=X=X=X=X=X=X=X=X=X=X=X=X=X=X=X=X=X=X=X=X=X=X=X=X=X=X=X=X=X=X=X=X=X=X=X=X=X=X=X=X=X=X=X=X=X=X=X=X=X=X=X=X=X=X=X=X=X=X=X=X=X=X=X=X=X=X=X=X=X=X=X=X=X=X=X=X=X=X=X=X=X=X=X=X=X=X=X=X=X=X=X=X=X=X=X=X=X=X=X=X=X=X=X=X=X=X=X=X=X=X=X=X=X=X=X=X=X=X=X=X=X=X=X=X=X=X=X=X=X=X=X=X=X=X=X=X=X=X=X=X=X=X=X=X=X=X=X=X=X=X=X=X=X=X=X=X=X=X=X=X=X=X=X=X=X=X=X=X=X=X=X=X=X=X=X=X=X=X=X=X=X=X=X=X=X=X=X=X=X=X=X=X*X*X=X=X=X=X=X-X*X-X1X#XC b.v.Z.b.T  .eXeXiX+Xx.C &X9XuXiX;Xx.x.;XyXeXyX+Xb.b.z.x.C x.&X=X9X3X&X*X:X=X*X=X-X-X-X-X-X-X=X=X:X1X&X4X4X3X%X3X=X-X-X=X$X%X$X=X-X-X=X=X$X$X$X-X&Xm.b.x.iXuX6X6X5X7XeX;Xm.Z.b.+X+Xb.b.b.b.n.n.v.n.z.x.b.x.1X=X=X=X&X&X*X%X$X<X>X).).).).).).).).).).).).).).).).).).).).).).).).).).).).).).).).).).).).).).).).).).).).).).).).).).).).).).).).).).).).).).).).).).).).).).).).).).).).).).).).).).).).).).).).).).).).).).).).).).).).)._._.|.|.!.I.G.I.L.S.G.G.",
"=X=X=X=X=X=X=X=X=X=X=X=X=X=X=X=X=X=X=X=X=X=X=X=X=X=X=X=X=X=X=X=X=X=X=X=X=X=X=X=X=X=X=X=X=X=X=X=X=X=X=X=X=X=X=X:X,Xx.n.Z xXnXnXvXZ N.n.n.Z.C +XuXeX,.xXzXnXnXB A.Z.v.N.z.T yXuX8X5X6XrXuX+Xl.n.v.z.z.A.V h V g g V Z c.Z.z.b.x.b.m.&X:X%X-X-X=X*X&X1X*X%XjXy.y.e.lXlXkXy u r z l l v :.6X^ &.&.~ U G q j q q q q U #.*.-.X.@.X.6.xXlX0.y q r b l N c c H H c x c v G K L | ,.>.=.2.=.&.) 1.1.` ( %.o.%.-.*.^ ^ @.P ;.t.jXxX5.O.X.O.xXjXjX..q q w $.$.$.I t v t | *.( %.W -.%.=.=.W ;.a.9.a.e.u.lXr.a.9.y.;.Q =.^ =.^ / #.*.^ / / P o.^ / ` ] ) ) 1.=.>._ / ` 1.! Q Q ^ @.^ ( *.) ) ) &.&.&.&.%.%.W $.G t v D jXu.jX5.X.X.O.kXu.jX6.W >.^ =.o.Q ;.zXw.jXO.W -.O.lXe.a.e.e.y.u.X.@.o.! -.X.O.jXu.u.a.y.y.r.p.r.a.7.Q @.$.G t l b b N q M r w m r J B 7 4 6 4 - - % . @ . # . # 1 # 2 $ . = % . X   X + I U $.:.;XiX3X-X-X-X-X-X-X*X*X=X=X=X=X=X=X=X=X=X=X=X=X=X=X=X=X=X=X=X=X=X=X=X=X=X=X=X=X=X=X=X=X=X=X=X=X=X=X=X=X=X=X=X=X=X=X=X=X=X=X=X=X=X=X=X=X=X=X=X=X=X=X=X=X=X=X=X=X=X=X=X=X=X=X=X=X=X=X=X=X=X=X=X=X=X=X=X=X=X=X=X=X=X=X=X=X=X=X=X=X=X=X=X=X=X=X=X=X=X=X=X=X=X=X=X=X=X=X=X=X=X=X=X=X=X=X=X=X=X=X=X=X=X=X=X=X=X=X=X=X=X=X=X=X=X=X=X=X=X=X=X=X=X=X=X=X=X=X=X=X=X=X=X=X=X=X=X=X=X=X=X=X=X=X=X=X=X=X=X=X=X=X=X=X=X=X=X=X=X=X=X=X=X=X=X=X=X=X=X=X=X=X=X=X=X=X=X=X=X=X=X*X*X=X=X=X=X=X-X*X-X1X#Xx.Z.c.c.c.m.x.+XC b.m.c.l.Z.x.m.b.l.l.m.m.x.x.x.v.c.n.c.n.c.z.,X,X1X>XD.G.J.F.F.F.F.B.B.B.B.B.F.B.J.F.D.#X,X<X&X*X*X*X-X*X=X-X:X*X=X*X*X*X=X$X=X1X&Xm.b.C 3XeX7X6X0X0XeX#Xm.Z.c.z.z.v.n.z.z.z.v.x.b.b.z.v.m.1X-X&X>X^.(.{.{.[.}.).).).).).).).).).).).).).).).).).).).).).).).).).).).).).).).).).).).).).).).).).).).).).).).).).).).).).).).).).).).).).).).).).).).).).).).).).).).).).).).).).).).).).).).).).).).).).).).).).).).).).)._._.~._.~.!.~.}.!.L.L.L.",
"=X=X=X=X=X=X=X=X=X=X=X=X=X=X=X=X=X=X=X=X=X=X=X=X=X=X=X=X=X=X=X=X=X=X=X=X=X=X=X=X=X=X=X=X=X=X=X=X=X=X=X=X=X=X=X:X,Xx.b.Z xXnXnXvXB b.Z.n.A.C @XuXeX<.lXMXmXnXV c.Z.z.n.x.T 9XeX6X3.6X0XyXT l.A.v.Z.Z.Z.V h V g g h a l.Z.z.b.z.b.m.,X:X%X=X=X*X=X-X-X;X .jXr.p.r.9.a.u.y u x N N x t X.1.! ) =._ ,.L t x B c x v R -.W o.o.-.Q 6.a.a.kXw q B B l x z v v v v m J J J t D Y >.2.1.) ) ) &.%.*.$.#.#./ W %.-._ ' ' Q O.y.a.p.+.U -.8.u.r.lX..0 B j $.@.$.I r z t | -.( %.^ >._ _ / / ,.lXq.r.r.p.p.w.p.r.jX;.U *.) &.( ) ) ! ! / _ / =.*._ >.#.@.%.@.W =.2._ / / / _ / ' _ _ =.&.! ( ( &.) %.*.*.*.-.,.L l q y s.a.lX7.P W Q jXp.p.6.Q Q / >.=.W ;.u.9.lX;.W Q O.lXr.w.p.r.a.u.P -._ _ -.Q O.jXr.q.w.w.a.r.e.e.jX5.Q -.,.E t r n n m z n l j c c J J 0 X = 3 & & > 9 1 $ > 1 < % % = = * % . % 1 # & 7 <.>._ :.%X-X-X*X*X=X=X=X=X=X=X=X=X=X=X=X=X=X=X=X=X=X=X=X=X=X=X=X=X=X=X=X=X=X=X=X=X=X=X=X=X=X=X=X=X=X=X=X=X=X=X=X=X=X=X=X=X=X=X=X=X=X=X=X=X=X=X=X=X=X=X=X=X=X=X=X=X=X=X=X=X=X=X=X=X=X=X=X=X=X=X=X=X=X=X=X=X=X=X=X=X=X=X=X=X=X=X=X=X=X=X=X=X=X=X=X=X=X=X=X=X=X=X=X=X=X=X=X=X=X=X=X=X=X=X=X=X=X=X=X=X=X=X=X=X=X=X=X=X=X=X=X=X=X=X=X=X=X=X=X=X=X=X=X=X=X=X=X=X=X=X=X=X=X=X=X=X=X=X=X=X=X=X=X=X=X=X=X=X=X=X=X=X=X=X=X=X=X=X=X=X=X=X=X=X=X=X=X=X=X=X=X=X=X=X=X=X=X=X=X=X=X*X*X=X=X=X=X=X-X*X-X1X#Xm.Z.x.b.Z.n.c.k.l.Z.v.#Xv.A.A.c.l.z.#XZ.n.n.c.c.z.x.x.x.v.z.+X*X3X:X>XC.S.B.K.Q.Q.Q.J.J.J.J.J.K.B.B.B.M.#X1X3X3X3X4X%X$X$X=X*X&X=X=X*X*X-X*X*X*X:X&XC x.C 3X0XwX7X7XwXeX;Xm.n.v.z.z.n.n.z.x.z.z.v.n.Z.c.n.x.:X$X*X,XdX`.{.{.(.(.).).).).).).).).).).).).).).).).).).).).).).).).).).).).).).).).).).).).).).).).).).).).).).).).).).).).).).).).).).).).).).).).).).).).).).).).).).).).).).).).).).).).).).).).).).).).).).).).).).).).).).).).~._.).|. X X'.M.L.H.",
"=X=X=X=X=X=X=X=X=X=X=X=X=X=X=X=X=X=X=X=X=X=X=X=X=X=X=X=X=X=X=X=X=X=X=X=X=X=X=X=X=X=X=X=X=X=X=X=X=X=X=X=X=X=X=X:X,Xx.b.Z xXnXnXvXZ n.Z.v.A.C T eXeX4.lXmXmXxXC x.z.b.b.+XT yXrXrXrXrXrXuX+Xb.b.v.v.z.l.V h g h h h a l.v.z.Z.v.v.m.,X:X$X=X=X*X=X*X=X%X<.jXp.a.p.p.zXkXD y M l q z t U &.&.=.-.,.<.I t v H H m t U =.Q / ` =.Y 6.q.e.kXD G J H z m x x x x z z b e b 0 0 L R #.^ ^ ^ @.@.@.%.#.=.>.>.*.o.%.%.=.>.o.O.u.a.y.5.U / O.jXlXxX4.u G G %.! 2.@.v J D <.*.( ) ( >./ *.^ Y ;.jXq.y.e.e.w.p.r.a.lX5.U @.*.%.-.=.*.o.&.&.1.1.1.&.( %.@.@.*.-.^ W %.@.@.*.-.-.&.=.&.&.&.&.&.%.%.%.%.%.%.*.&.! 3.I J m H lXa.xX6.8.W X.jXa.a.5.Q U ^ ( _ Q ;.lXr.jXO.P P ;.jXa.p.s.a.u.t.P / / ' / U X.jXu.r.p.p.a.p.a.a.lXt.P X.$.L G M m z t M N N N N c r N 7 . & & $ $ * X - % = = & # 5 * * = < = = 4 * & X $.1.^ :.=X*X-X-X*X*X-X-X=X=X=X=X=X=X=X=X=X=X=X=X=X=X=X=X=X=X=X=X=X=X=X=X=X=X=X=X=X=X=X=X=X=X=X=X=X=X=X=X=X=X=X=X=X=X=X=X=X=X=X=X=X=X=X=X=X=X=X=X=X=X=X=X=X=X=X=X=X=X=X=X=X=X=X=X=X=X=X=X=X=X=X=X=X=X=X=X=X=X=X=X=X=X=X=X=X=X=X=X=X=X=X=X=X=X=X=X=X=X=X=X=X=X=X=X=X=X=X=X=X=X=X=X=X=X=X=X=X=X=X=X=X=X=X=X=X=X=X=X=X=X=X=X=X=X=X=X=X=X=X=X=X=X=X=X=X=X=X=X=X=X=X=X=X=X=X=X=X=X=X=X=X=X=X=X=X=X=X=X=X=X=X=X=X=X=X=X=X=X=X=X=X=X=X=X=X=X=X=X=X=X=X=X=X=X=X=X=X=X=X=X=X=X*X*X=X=X=X=X=X-X*X-X:X#Xm.Z.x.b.n.c.c.l.m.v.m.Z.l.l.c.l.z.l.Z.c.l.l.m.l.A.l.z.z.v.n.x.&XyXyX,XZ.D.U.U.I.I.U.L.L.L.D.U.U.P.P.D.A.,XiXyX3X3X3X*X:X3X3X=X*X=X=X=X=X=X-X=X=X1X&XC #X+XiXeXrXrXrXrXuX;Xx.b.b.b.b.v.n.z.z.z.b.b.b.Z.v.b.C -X$X*X,X>X^.~.~.^.^.^.).).).).).).).).).).).).).).).).).).).).).).).).).).).).).).).).).).).).).).).).).).).).).).).).).).).).).).).).).).).).).).).).).).).).).).).).).).).).).).).).).).).).).).).).).).).).).).).).).).).).).).)._._.~.~.~.}.'.M.S.F.",
"=X=X=X=X=X=X=X=X=X=X=X=X=X=X=X=X=X=X=X=X=X=X=X=X=X=X=X=X=X=X=X=X=X=X=X=X=X=X=X=X=X=X=X=X=X=X=X=X=X=X=X=X=X=X=X:X,Xx.b.Z xXnXnXvXZ N.N.n.Z.x.+X&X;X;X:X:X:X:Xx.n.v.v.v.b.x.&X;X;X;X;X;X&Xx.Z.n.n.z.z.v.l.V k.V V l.m.A.Z.z.v.v.z.C &X:X*X-X-X*X-X:X=X=X$X9X9X9X<.......y t t H  .K I #.2.>./ L K K G v z z m z q <.tX6.5.W ^ 8.jXNXNXNXu q r t m x m m m m m m z y ....+.;.@.>.=.=.-.>.=.) ! ) ) ! &.-.-.@.^ _ #.^ Q 6.6.5.6.5.6.4.} ....{ y M t <.*.,.K 0 0 0  .#.o.o.&.=.W 6.6.5.6.y.e.y.r.y.u.jX+.5.5.;.^ *._ _ >.>._ ^ %.( ^ ^ ^ ( &.=.( _ =.>._ ( ( &.=.*./ ^ %.*.*.^ ^ _ #.#.#.*.%.%.%.o.&.( ,.z 0 e 0 ....} 4.+.6.5.6.5.6.5.6.6.6.o.! Q ;.lXe.y.+.5.6.4.} ........} } i.5.5.5.5.5.5.jXe.u.6.7.7.7.5.+.5.O.X.$.| D t M n z x m r l l r n x N k e e e e e k 6 # , , = * = = < * * > > > 3 > > O :.1./ 4X3X*X-X-X=X*X-X*X=X=X=X=X=X=X=X=X=X=X=X=X=X=X=X=X=X=X=X=X=X=X=X=X=X=X=X=X=X=X=X=X=X=X=X=X=X=X=X=X=X=X=X=X=X=X=X=X=X=X=X=X=X=X=X=X=X=X=X=X=X=X=X=X=X=X=X=X=X=X=X=X=X=X=X=X=X=X=X=X=X=X=X=X=X=X=X=X=X=X=X=X=X=X=X=X=X=X=X=X=X=X=X=X=X=X=X=X=X=X=X=X=X=X=X=X=X=X=X=X=X=X=X=X=X=X=X=X=X=X=X=X=X=X=X=X=X=X=X=X=X=X=X=X=X=X=X=X=X=X=X=X=X=X=X=X=X=X=X=X=X=X=X=X=X=X=X=X=X=X=X=X=X=X=X=X=X=X=X=X=X=X=X=X=X=X=X=X=X=X=X=X=X=X=X=X=X=X=X=X=X=X=X=X=X=X=X=X=X=X=X=X=X=X*X*X=X=X=X=X=X=X*X-X:X#Xm.n.z.b.v.x.#X-X*X-Xx.Z.z.#X-X-X1Xx.Z.b.#X-X;X&Xx.l.v.b.b.b.c.Z.>XR.R.G.G.J.G.K.K.K.F.F.F.F.K.K.J.P.J.G.R.R.R.R.R.R.Z.>X1X=X-X=X=X=X=X=X=X=X=X=X1X&XC #Xx.,X;X;X;X;X;X;X#Xx.v.z.z.z.v.v.v.v.v.v.v.v.v.v.v.c.>X>X>XdX^.).(.(.(.`.).).).).).).).).).).).).).).).).).).).).).).).).).).).).).).).).).).).).).).).).).).).).).).).).).).).).).).).).).).).).).).).).).).).).).).).).).).).).).).).).).).).).).).).).).).).).).).).).).).).).).).).)._._.).~.~.|.~.!.!.!.",
"=X=X=X=X=X=X=X=X=X=X=X=X=X=X=X=X=X=X=X=X=X=X=X=X=X=X=X=X=X=X=X=X=X=X=X=X=X=X=X=X=X=X=X=X=X=X=X=X=X=X=X=X=X=X=X:X,Xx.n.Z xXnXnXvXZ n.n.c.n.n.m.n.c.N.m.m.V c.m.N.A.A.c.A.k.c.m.m.k.k.m.v.l.A.v.v.v.Z.Z.Z.Z.Z.Z.Z.Z.b.#X#Xb.b.b.b.C &X:X*X-X-X-X-X:X*X-X*X=X;X*XT 0 r x l J G I 6X$.*.=.&.*.I t l t t n n x N n u 0.zXa.u.O.X.Y xXZXZXJXe r N m x z x z t t z c z y xXzXlX6.~ o.! W @.#.#.! ! %.%.W @.@.@.*.*.%.%.=./ ' Y Y 5.y.zXlXw u 0 l N z w $.^ 4XG X % O  .:.*.%.^ ^ X.t.a.a.a.p.r.r.q.e.u.tXY Q / ( ` ) ) ( _ *.%.%.-.-.o.#.$.#.*.-.%.%.*.W @.%.@.@.*.-._ >.>.*._ *.*.( *.&.&.&.&.) ) ) ) 2.,.e X $ . k r + ..zXzXjXX.Y Y 5.lXlXlXO.o.W ;.u.9.p.r.a.lX0.u q j 0 q 0 D xXa.p.p.p.a.r.a.9.a.;./ ' ' ' Q ( ^ ` >.,.L v x m n B N z m M t z z c c N J H J K J 8 X < = % = 4 X 4 - - % % < = * % O $.=.Q :.3X=X$X=X=X=X*X=X=X=X=X=X=X=X=X=X=X=X=X=X=X=X=X=X=X=X=X=X=X=X=X=X=X=X=X=X=X=X=X=X=X=X=X=X=X=X=X=X=X=X=X=X=X=X=X=X=X=X=X=X=X=X=X=X=X=X=X=X=X=X=X=X=X=X=X=X=X=X=X=X=X=X=X=X=X=X=X=X=X=X=X=X=X=X=X=X=X=X=X=X=X=X=X=X=X=X=X=X=X=X=X=X=X=X=X=X=X=X=X=X=X=X=X=X=X=X=X=X=X=X=X=X=X=X=X=X=X=X=X=X=X=X=X=X=X=X=X=X=X=X=X=X=X=X=X=X=X=X=X=X=X=X=X=X=X=X=X=X=X=X=X=X=X=X=X=X=X=X=X=X=X=X=X=X=X=X=X=X=X=X=X=X=X=X=X=X=X=X=X=X=X=X=X=X=X=X=X=X=X=X=X=X=X=X=X=X=X=X=X=X=X=X*X*X=X=X=X=X=X-X*X-X:X#Xm.b.z.Z.z.C 4XrXrXeXT C C ;XrXrXyXT C C  .rXrXuXT x.b.b.+Xb.c.D.M.F.B.B.K.H.S.G.P.I.P.I.U.I.I.I.G.J.K.K.F.F.B.B.B.K.M.R.,X%X-X-X-X-X*X*X=X=X$X=X-X&XC v.m.n.l.m.l.m.l.c.c.c.n.v.v.v.v.v.v.b.v.v.n.n.n.v.n.c.pX}.[.(.`._.~.).`.`.).).).).).).).).).).).).).).).).).).).).).).).).).).).).).).).).).).).).).).).).).).).).).).).).).).).).).).).).).).).).).).).).).).).).).).).).).).).).).).).).).).).).).).).).).).).).).).).)._._.).).).).).).~.|.|._.|.|.|.).|.pX",
"=X=X=X=X=X=X=X=X=X=X=X=X=X=X=X=X=X=X=X=X=X=X=X=X=X=X=X=X=X=X=X=X=X=X=X=X=X=X=X=X=X=X=X=X=X=X=X=X=X=X=X=X=X=X=X:X&Xm.n.Z xXnXnXvXZ b.Z.z.v.v.l.l.c.Z.Z.Z.z.Z.x.A.x.Z.x.#Xv.Z.n.n.c.A.z.#Xx.Z.x.x.x.z.z.b.b.z.b.b.b.b.b.b.x.b.b.b.m.,X:X*X=X=X*X*X*X;X=X=X:X:XyXT x b b l n w Y =.W &.) ! 2.U t z M t m m x c v u 0.a.r.t.Q ' Y cXJXZXJXu t J c v c m m M M n x z u kXlXlX6.P =.=.( ( _ _ o.o.&.*.>.>.#./ ^ &.o.! ! &.>.>.Q 6.a.y.jXy t c x x z G #./ 3.K O 4 O  .:.=._ ` _ Q t.a.e.w.e.r.r.e.r.jXkX~ &.=.) ( ! &.&.&.%.%.&.%.( ( ) ( ( ( ( ) &.&.! &.&.( ( ( &.&.%.&.W W &.&.%.%.&.&.&.&.&._ _ ` ] 6Xk % , % N N q ..lXw.jXX./ W +.lXy.jXX.W Q ;.lXp.a.w.w.a.hXu m J n N l H xXw.e.r.r.a.y.a.9.a.5.Q -.o.%.W &.%.Q @.<.G z x x x x z t M M v m m z c c c z v c n 4 . = * # # 2 3 & # > # = 6 * = * O <.2.^ :.=X-X*X-X-X-X-X<X-X-X*X=X=X=X=X=X=X=X=X=X=X=X=X=X=X=X=X=X=X=X=X=X=X=X=X=X=X=X=X=X=X=X=X=X=X=X=X=X=X=X=X=X=X=X=X=X=X=X=X=X=X=X=X=X=X=X=X=X=X=X=X=X=X=X=X=X=X=X=X=X=X=X=X=X=X=X=X=X=X=X=X=X=X=X=X=X=X=X=X=X=X=X=X=X=X=X=X=X=X=X=X=X=X=X=X=X=X=X=X=X=X=X=X=X=X=X=X=X=X=X=X=X=X=X=X=X=X=X=X=X=X=X=X=X=X=X=X=X=X=X=X=X=X=X=X=X=X=X=X=X=X=X=X=X=X=X=X=X=X=X=X=X=X=X=X=X=X=X=X=X=X=X=X=X=X=X=X=X=X=X=X=X=X=X=X=X=X=X=X=X=X=X=X=X=X=X=X=X=X=X=X=X=X=X=X=X=X=X=X=X=X=X*X*X=X=X=X=X=X-X*X-X:X#Xz.Z.c.n.c.C  .eX6XeXx.n.b.&XeXqXuX+Xl.m.;XeX0XuX+Xc.A.A.n.n.c.U.U.Q.P.P.I.U.G.G.K.K.G.G.S.G.K.G.S.D.S.S.L.L.J.Q.J.Y.M.R.1X3X3X=X-X*X*X*X*X=X=X=X:X&XC Z.c.R.c.c.A.A.A.n.n.n.b.b.b.b.b.b.b.b.b.b.b.x.x.x.x.m.dX~. X}._._.|.}.}.`.).).).).).).).).).).).).).).).).).).).).).).).).).).).).).).).).).).).).).).).).).).).).).).).).).).).).).).).).).).).).).).).).).).).).).).).).).).).).).).).).).).).).).).).).).).).).).).).)._._.).).).).).).~.|.|._._._.~.~.~.~.",
"=X=X=X=X=X=X=X=X=X=X=X=X=X=X=X=X=X=X=X=X=X=X=X=X=X=X=X=X=X=X=X=X=X=X=X=X=X=X=X=X=X=X=X=X=X=X=X=X=X=X=X=X=X=X=X:X&Xm.n.Z xXnXnXvXZ n.Z.z.Z.Z.v.v.z.Z.l.v.c.Z.z.v.c.Z.z.#Xz.v.m.b.z.Z.z.#Xz.Z.v.n.v.v.z.v.v.z.b.b.z.b.v.v.z.v.Z.b.m.,X:X*X$X=X*X*X=X=X-X*X=X=XyXT w t M r z w I *.@.-.=.( >.| t z z l z N m m x w i.a.a.u.Q ( P xXZXJXJXe t t t H r z n x x x v w w kXu.u.6.P %.^ W ^ _ _ ( ) &._ Q ` &.%.) =.=.&.*.#.^ -.P 6.lXlXxXy y t r r l v >./ ,.G X 4 O  .$.! ) 1.` Q t.y.r.a.y.a.y.r.p.a.jX8.-./ / _ / _ *._ %.%.%.( ( =.( %.*.#.#.#.*.^ *._ _ _ >.*.%.&.^ -.*.^ *._ _ >._ _ *.*.%.@.@.%.( 4Xk $ % X b M u ..zXe.xXP ! ~ 7.a.e.jXX.=.^ ;.lXp.a.y.p.lXkXu r z r r r y zXp.p.p.r.r.e.a.p.lX5.Q ) ! ) ` _ / =.>.$.D v c c c c c m x z x z z M M n n n z v N 8 @ > & 2 * * * = $ * * * # @ > $ X | 2.=.,.4X*X*X*X=X=X-X-X=X=X*X=X=X=X=X=X=X=X=X=X=X=X=X=X=X=X=X=X=X=X=X=X=X=X=X=X=X=X=X=X=X=X=X=X=X=X=X=X=X=X=X=X=X=X=X=X=X=X=X=X=X=X=X=X=X=X=X=X=X=X=X=X=X=X=X=X=X=X=X=X=X=X=X=X=X=X=X=X=X=X=X=X=X=X=X=X=X=X=X=X=X=X=X=X=X=X=X=X=X=X=X=X=X=X=X=X=X=X=X=X=X=X=X=X=X=X=X=X=X=X=X=X=X=X=X=X=X=X=X=X=X=X=X=X=X=X=X=X=X=X=X=X=X=X=X=X=X=X=X=X=X=X=X=X=X=X=X=X=X=X=X=X=X=X=X=X=X=X=X=X=X=X=X=X=X=X=X=X=X=X=X=X=X=X=X=X=X=X=X=X=X=X=X=X=X=X=X=X=X=X=X=X=X=X=X=X=X=X=X=X=X=X*X*X=X=X=X=X=X-X*X-X1X#XC Z.x.b.v.x.%XrXwXuXT m.C ;XuXqXuXT x.+X .rX0XeXT x.z.z.x.b.c.D.D.H.G.G.L.L.G.J.K.J.H.L.D.U.L.J.P.I.G.G.L.L.K.G.D.I.k.>XiX%X$X=X*X-X*X=X=X=X=X=X-X&XC Z.c.Z.c.v.l.l.l.l.x.z.b.b.v.v.z.v.z.v.v.v.n.n.z.z.b.m.dX~.}.}.^.^.^.^.^._._.).).).).).).).).).).).).).).).).).).).).).).).).).).).).).).).).).).).).).).).).).).).).).).).).).).).).).).).).).).).).).).).).).).).).).).).).).).).).).).).).).).).).).).).).).).).).).).)._._.).).).).).).).).~.~._._.|.).|.|.",
"*X*X*X*X*X*X-X-X*X*X*X-X-X*X*X*X*X*X*X*X*X*X*X*X*X*X*X*X*X*X*X*X*X*X*X-X-X*X*X*X*X-X*X*X*X*X*X*X=X=X*X=X=X%X%X:X,Xm.n.B cXnXmXvXV n.v.x.z.x.b.b.b.b.v.v.v.v.v.v.z.v.v.z.z.z.v.v.v.v.b.b.v.z.v.b.x.b.Z.v.v.Z.n.n.n.b.b.l.z.Z.m.b.C ,X:X=X=X=X*X*X-X-X-X-X-X-X=X=X3X3X3X3XiXiX:X:X*X:XB l l b n n x c H m c m v t z v q y lXw.zX{ u q z z z m x x M z m m r ..zXy.lXO.U ' / =.*.P t.u.a.q.X.^ Q t.a.a.t.X.o.&.%.@.%.@./ >.' ` / / ( &.-.=.1.] ] ! lXs.zX..o 6 +  .$.&.! 2./ =.Q W W _ ' ' ` W ( ! &.( &.~ q.a.r.lXP >.=._ @.o.^ ^ ! ! W -.^ *./ >._ ) =.W -.! &.&.&.W -.%.-.^ =.=.( &.&.) &.=.&.) &.=.1.1.1.1.1.1.=.' _ W P jXlXa.a.e.r.jXX.W 2.! o.Q / / / ` W &.=.1.&.&.=.=.( W ( W ' / ' ' ^ &.W ^ >.W lXr.lX6.X.*.<.D z r N n z x n m x x z z z m z z m z n c z m H H G G H M H H H G H H z J J z l z j J 3X=X=X*X*X*X*X-X:X*X*X*X*X-X-X*X*X*X*X-X*X*X*X*X*X*X*X-X*X*X*X*X*X*X*X*X*X*X*X*X-X-X*X*X*X*X*X*X*X*X*X*X*X*X*X*X*X*X*X*X*X*X*X*X*X-X-X-X*X*X*X*X*X-X*X*X*X*X*X*X*X*X*X*X*X*X*X*X*X*X*X*X*X*X*X*X-X-X*X*X*X-X-X*X*X*X*X-X*X*X*X*X*X*X*X*X*X*X*X*X-X-X*X*X*X-X-X*X*X*X*X-X*X*X*X*X*X*X*X*X*X*X*X*X-X-X*X*X*X-X-X*X*X*X*X*X*X*X*X*X*X-X-X-X*X*X*X*X*X-X*X*X*X*X*X*X*X*X*X*X*X*X*X*X*X*X*X*X*X*X*X*X*X*X*X*X*X*X*X*X*X*X*X*X*X-X-X*X*X*X*X-X*X*X*X*X*X*X=X=X*X*X=X=X*X*X*X=X=X=X=X*XyX+Xm.Z.c.c.c.c.v.l.c.c.l.Z.c.A.l.l.n.c.v.n.v.z.l.c.c.n.n.n.n.c.A.D.L.H.H.H.H.H.H.H.H.H.H.H.H.H.H.H.L.L.H.H.H.H.H.H.H.K.Q.K.F.M.k.dX<X-X*X=X=X%X%X$X*X&XC #XC -XtX3.qXwXwXrXT C x.z.z.z.z.v.v.v.v.v.v.c.R.pX X`.}.~.^.^.~.).).~.^.^.~.).).).).).).).).).).).).).).).).).).).).).).).).).).).).).).).).).).).).).).).).).).).).).).).).).).).).).).).).).).).).).).).).).).).).).).).).).).).).).).).).).).).).).).).).).).).).).).).).).).).).).).).).).).).).).).).).).",
"=X=X=X=X=X=X=X=X=X=X=X=X=X=X=X=X=X=X=X=X=X=X=X=X=X=X=X=X=X=X=X=X=X=X=X=X=X=X=X=X=X=X=X=X=X=X=X=X-X3X-X-X3X=X$X:X,Xm.b.B vXnXmXvXZ N.Z.n.Z.n.Z.N.n.v.z.z.x.x.x.z.b.b.Z.b.b.b.b.v.v.v.v.b.b.b.b.b.z.l.z.z.v.z.x.x.z.z.Z.c.z.n.n.#Xm.&XiX3X%X$X*X=X=X=X=X=X=X3X=X=X=X-X-X-X-X3X-X-X=XyXN c n z z z x z z z z x z z x l q y xXw.lXD u l x z x x x z z z m m r } zXe.lXO.( =.^ ` ( X.q.r.p.9.X./ U kXa.a.t.P W -.>.>.^ %.@.2.&.=.o.%.=.` ` ) =.-.@.X.q.w.a.{ o 4 +  .qX@.Q W W >.( &.=.=.) Q ~ W ^ >._ _ ` ~ q.a.r.u.X.-.=._ @.@.>.6X>.*.&.1.! 1.! =.2.=.=.^ =.( %.W ( ( -.^ =./ >.>._ *.*.) _ =.*.) ) _ &.&.&.&.&.&.=.^ ( W O.jXy.9.r.e.r.u.X.Q ` ` ( -.>.>.( ( =.*.%.( 1.=.*.-.@.@.W Q &.*.=.>./ ` ( / =.Q u.r.a.+.U _ 4XE J l m z v c c c x c m m z H z m m x c c c H J J c N N n z z m c J J v v m x n N l T :X*X-X=X-X-X=X-XiXiX=X=X=X=X=X=X=X=X=X=X=X=X=X=X=X=X=X=X=X=X=X=X=X=X=X=X=X=X=X=X=X=X=X=X=X=X=X=X=X=X=X=X=X=X=X=X=X=X=X=X=X=X=X=X=X=X=X=X=X=X=X=X=X=X=X=X=X=X=X=X=X=X=X=X=X=X=X=X=X=X=X=X=X=X=X=X=X=X=X=X=X=X=X=X=X=X=X=X=X=X=X=X=X=X=X=X=X=X=X=X=X=X=X=X=X=X=X=X=X=X=X=X=X=X=X=X=X=X=X=X=X=X=X=X=X=X=X=X=X=X=X=X=X=X=X=X=X=X=X=X=X=X=X=X=X=X=X=X=X=X=X=X=X=X=X=X=X=X=X=X=X=X=X=X=X=X=X=X=X=X=X=X=X=X=X=X=X=X=X=X=X=X=X=X=X=X=X=X=X=X=X=X=X=X=X=X=X=X=X=X$X=X=X=X=X=X=X=X=X=X3X=XyX+XC A.x.z.#XZ.Z.v.n.Z.x.+Xm.+Xb.b.z.x.#X#Xb.v.l.Z.v.b.b.x.b.z.v.A.D.H.H.H.H.H.H.H.H.H.H.H.H.H.H.H.H.H.H.J.H.H.H.H.L.G.Q.K.H.D.c.>X:X4X$X$X*X-X-X-X1X&XC z.C iXrX7XwXwX7XuX#Xz.n.n.A.c.v.v.v.b.x.z.x.l.R.dX|.`.|.^.^.^.^.).)._.^.^.^.).).).).).).).).).).).).).).).).).).).).).).).).).).).).).).).).).).).).).).).).).).).).).).).).).).).).).).).).).).).).).).).).).).).).).).).).).).).).).).).).).).).).).).).).).).).).).).).).).).).).).).).).).).).).).).).).).",
"&X&X&X&X&X&X&X&X&X&X&X&X&X&X&X&X&X&X&X&X&X&X&X&X&X&X&X&X&X&X&X&X&X&X&X&X&X&X&X&X&X&X&X&X&X&X&X&X&X&X&X&X&X&X&X&X,Xm.n.Z xXnXmXvXk +X#Xz.z.z.v.z.v.b.Z.b.z.b.v.b.l.x.z.v.v.v.v.v.Z.v.z.z.v.v.z.z.Z.A.z.Z.Z.b.b.#XZ.v.Z.Z.n.v.x.z.C >X1X&X&X&X&X&X&X&X&X&X&X&X&X&X&X&X&X&X&X&X*X*X;X:Xc x n z z c x x z z x x n z m m z { xXlXzX..r x m x x x x z z z c c q } zXu.jXX.%.>.( =.Y F jXa.a.q.$.@.P kXjXjX6.P Q / ' / ' ` / ] ` ` ( -.@.@.! ( ) ( X.} xXzXNX..o X O  .#.~ =.&.>.=.Q Q ~ ` 2.7X3.3.%./ _ _ _ P 6.lXy.u.X._ / _ Q ~ ` ' >./ / ' ~ ` / _ _ / _ Q =./ _ -.&.( *.Q @.Q W Q ^ _ *._ _ *.*.*.( ( ( &.&.&.%.%.-.^ %.X.O.jXlXlXa.a.a.jX;.W ( ` Q Q Q ( ^ ) *.Y W ~ ` ` ( *.Q W _ _ =.) W ) Q Q 1.( &.X.jXa.lXi.Y U :.G v v m z m m n n x x n m r z r r r l c m l l l e e l r r l l l r l m z m c c m x j J :X;X*X;X&X&X&X&X&X&X&X&X&X&X&X&X&X&X&X&X&X&X&X&X&X&X&X&X&X&X&X&X&X&X&X&X&X&X&X&X&X&X&X&X&X&X&X&X&X&X&X&X&X&X&X&X&X&X&X&X&X&X&X&X&X&X&X&X&X&X&X&X&X&X&X&X&X&X&X&X&X&X&X&X&X&X&X&X&X&X&X&X&X&X&X&X&X&X&X&X&X&X&X&X&X&X&X&X&X&X&X&X&X&X&X&X&X&X&X&X&X&X&X&X&X&X&X&X&X&X&X&X&X&X&X&X&X&X&X&X&X&X&X&X&X&X&X&X&X&X&X&X&X&X&X&X&X&X&X&X&X&X&X&X&X&X&X&X&X&X&X&X&X&X&X&X&X&X&X&X&X&X&X&X&X&X&X&X&X&X&X&X&X&X&X&X&X&X&X&X&X&X&X&X&X&X&X&X&X&X&X&X&X&X&X&X&X&X&X&X&X&X&X&X&X&X&X&X&X&X&X&X1X+Xx.n.x.b.Z.c.c.c.k.c.c.Z.c.A.c.k.c.c.Z.c.c.c.m.l.n.n.n.n.A.c.A.A.D.H.H.H.H.H.H.H.H.H.H.H.H.H.H.H.H.H.J.J.J.H.H.L.P.S.L.G.L.D.D.>X1X=X$X=X&X&X&X&X1X&XC z.C 1XuX7X7X7X6XeX#Xz.v.n.v.v.v.b.v.v.v.A.z.c.R.dX].).|.^.^.^.^._.)._._.^._.).).).).).).).).).).).).).).).).).).).).).).).).).).).).).).).).).).).).).).).).).).).).).).).).).).).).).).).).).).).).).).).).).).).).).).).).).).).).).).).).).).).).).).).).).).).).).).).).).).).).).).).).).).).).).).).).).",
"4X4X4X4X4X4X4X4X4X4X4X4X4X4X4X4X4X4X4X4X4X4X4X4X4X4X4X4X4X4X4X4X4X4X4X4X4X4X4X4X4X4X4X4X4X4X4X4X4X9X4X4X9X4X4XyX,Xm.n.Z xXnXmXvXZ Z.Z.z.z.z.v.z.x.z.v.v.v.c.c.c.v.v.v.Z.v.v.v.v.v.v.v.v.Z.Z.Z.Z.n.b.z.b.b.v.x.x.n.m.l.v.v.n.n.v.C &XyX4X4X9X4X4X4X4X4X4X4X4X4X4X4X4X4X4X4X4X9X9X4X9Xc l l z c c c K K I J v z m z c z t 4.} 4.{ z m m z x x x x z z x x q } zXe.lXO.@.W X.tX5.6.5.5.6.5.o.&.Q t.u.e.t.+.5.5.5.5.6.5.X.&.( &.X.o.W o.&.=.=.` ` -.{ { { M r q t | 2.` 2.W *.U 5.6.6.<.G G G I =.1.&.&.&.P 6.a.y.jXQ _ / 3.5.5.6.Q o.Q ;.6.5.6.@.^ W ;.6.7.5.X.! =.( ( %.W 5.5.6.5.W ( &.&.%.%.&.%.@.%.%.%.%.%.%.%.( ( -.W Q 5.5.5.5.6.5.6.O.@.W -.6.6.6.-.Q ^ %.6.6.6.-.! ( ! &.=.=.' _ ( o.6.5.6.o.! ^ Q 6.5.6.5.5.5.6.D t x m x l z x c v v z v c K K { K H z v K I I I I I I I I I K v z n l x z z m c q  .yX4X4X4X4X9X9X4X4X4X4X4X4X4X4X4X4X4X4X4X4X4X4X4X4X4X4X4X4X4X4X4X4X4X4X4X4X4X4X4X4X4X4X4X4X4X4X4X4X4X4X4X4X4X4X4X4X4X4X4X4X4X4X4X4X4X4X4X4X4X4X4X4X4X4X4X4X4X4X4X4X4X4X4X4X4X4X4X4X4X4X4X4X4X4X4X4X4X4X4X4X4X4X4X4X4X4X4X4X4X4X4X4X4X4X4X4X4X4X4X4X4X4X4X4X4X4X4X4X4X4X4X4X4X4X4X4X4X4X4X4X4X4X4X4X4X4X4X4X4X4X4X4X4X4X4X4X4X4X4X4X4X4X4X4X4X4X4X4X4X4X4X4X4X4X4X4X4X4X4X4X4X4X4X4X4X4X4X4X4X4X4X4X4X4X4X4X4X4X4X4X4X4X4X4X4X4X4X4X4X4X4X4X4X4X4X4X4X4X4X4X4X4X4X4X4X4X4X4X4X9X4XyXT x.v.z.Z.Z.x.#X;X;X&X+Xb.x.#X&X;X&X+Xv.z.#X&X;X&X+Xb.v.v.z.z.c.A.D.H.H.H.H.H.H.H.H.H.H.H.H.H.H.H.H.H.H.J.H.H.H.H.L.S.H.G.L.U.D.R.>X#X;X3X9X4X9X4XeX3XT +XC 1XeX6X0XrXrXuX#Xl.x.b.z.z.v.v.v.c.A.R.R.R.R.|.~.).).~.^.^.^._.)._._._.).).).).).).).).).).).).).).).).).).).).).).).).).).).).).).).).).).).).).).).).).).).).).).).).).).).).).).).).).).).).).).).).).).).).).).).).).).).).).).).).).).).).).).).).).).).).).).).).).).).).).).).).).).).).).).).).).).",
"wXwXwXwXwXwXwXwXwXwXwXwXwXwXwXwXwXwXwXwXwXwXwXwXwXwXwXwXwXwXwXwXwXwXwXwXwXwXwXwXwXwXwXwXwXwXwXwX7X7XwX7XwX7X0XuX-XC b.Z vXnXmXvXZ N.n.z.b.Z.Z.b.b.b.b.b.b.x.b.b.Z.v.v.v.v.x.x.b.m.x.v.v.z.z.v.n.n.n.b.b.Z.Z.Z.Z.#XZ.x.b.x.x.b.b.C =XeXrXwXwXwXwX7X7XwXwXwXwX0X0X0X0X7X7X7X7X7X7X0XeXG v n m N G G $.,.,.} D t m z n x q z q l q x m x z x x z m z z x x q } lXr.u.O.-.X.+.lXlXxX} U ^ / Q ) ~ kXlXp.a.r.a.p.p.p.a.t.O.X.%.>.-._ ] ` $.$.@./ _ | O   O t ,.3.2.3.X.%.@./ >.P u.a.zXh.  X X N ,.! &.&.=.Q 5.u.y.u.P ^ W 6.lXlXlXO.X.Q 4.lXa.u.;.-.Q 5.lXa.lXO.X.W ^ *.#.X.t.a.lXjXQ @.%.&.@.%.%.%.%.%.@.@.%.%.%.*.( =.2.=.*.%.Q Y / ` ~ ! / _ W ;.lXy.lX4.@.-.O.lXy.xX;.W >.W o.Q %.%.@.X.O.jXp.zX5.&.>._ *.U P +.lXlXlXD y n c c c c H H G G m H G | >.2./ L z v $.1.1.1.1.1.1.2.=.>.$.K G H c c l n m m t  .eX6X5X5X7X7XwXwXwXwXwXwXwXwXwXwXwXwXwXwXwXwXwXwXwXwXwXwXwXwXwXwXwXwXwXwXwXwXwXwXwXwXwXwXwXwXwXwXwXwXwXwXwXwXwXwXwXwXwXwXwXwXwXwXwXwXwXwXwXwXwXwXwXwXwXwXwXwXwXwXwXwXwXwXwXwXwXwXwXwXwXwXwXwXwXwXwXwXwXwXwXwXwXwXwXwXwXwXwXwXwXwXwXwXwXwXwXwXwXwXwXwXwXwXwXwXwXwXwXwXwXwXwXwXwXwXwXwXwXwXwXwXwXwXwXwXwXwXwXwXwXwXwXwXwXwXwXwXwXwXwXwXwXwXwXwXwXwXwXwXwXwXwXwXwXwXwXwXwXwXwXwXwXwXwXwXwXwXwXwXwXwXwXwXwXwXwXwXwXwXwXwXwXwXwXwXwXwXwXwXwXwXwXwXwXwXwXwXwXwXwXwXwXwX0XwXwXrXwX5XwX6XrX .C Z.c.Z.c.C <.rXrX9X+Xm.m.-XeXrXyXT C C ;XuXrXeX+Xv.c.v.x.x.n.D.U.H.H.H.H.H.H.H.H.H.H.H.H.H.H.H.H.H.H.L.H.H.J.H.H.G.H.J.J.H.S.I.B.M.#XyXeXqX3.qXuXiXm.b.C -XeX5X6X5XeXuX#Xl.v.n.v.v.v.n.Z.n.R.E.dX^._.|.).).).}.~.~.~.~.).).~.~.).).).).).).).).).).).).).).).).).).).).).).).).).).).).).).).).).).).).).).).).).).).).).).).).).).).).).).).).).).).).).).).).).).).).).).).).).).).).).).).).).).).).).).).).).).).).).).).).).).).).).).).).).).).).).).).).).).",
"0X0X0X0X0X0X0X0X0X0X0X0X0X0X0X0X0X0X0X0X0X0X0X0X0X0X0X0X0X0X0X0X0X0X0X0X0X0X0X0X0X0X0X0X0X0X0X0XqXqXqXqXwX7XqXeX*XC b.Z vXnXnXvXZ b.b.b.Z.z.z.l.c.c.l.l.l.v.Z.#Xz.x.x.b.b.b.b.#Xb.b.b.b.b.z.z.v.Z.Z.Z.Z.c.c.c.c.m.N.n.n.z.x.x.C C *XeX0X0XwX5X7X7X7X0X0X0X5X0X0XqXqXqXqX7X7X7X7X0XeXG z n b n z w R >.,.| t t m z m N x m z m n x c z z n x z m z z c c q } lXe.jXo.^ Q +.a.y.u.O.^ _ _ ( o.P 6.u.q.y.e.p.9.9.9.a.t.X.Q ` 2.] ` >._ ^ %.1.1.3.4X7 & . k 6X` ] / W >.=.=.' P t.a.s.h.  X O T eX~ ( / >.Q 6.u.y.u.X.=.~ 6.lXu.u.P _ / 4.lXa.y.X.! ` 3.jXe.lXO.X.( >.>./ P q.a.y.q.P ^ =.=.#.#.#.%.%.%.@.@.@.%.%.*.=.( ( Q *._ >.] ] 2.W %.^ -.Q ;.lXy.u.O.Y W O.lXr.lXO.P *._ >.*.%.%.o.Q O.jXe.lX5.Q W _ ` ) ~ 5.jXu.lXy r m z x m n z z l l b z w U 2.2.R t e r | =.=.&.&.( W @.@.$.| G w x x N m m m v w } tX0XwXwX7X6X6X0XqXqX0X0X0X0X0X0X0X0X0X0X0X0X0X0X0X0X0X0X0X0X0X0X0X0X0X0X0X0X0X0X0X0X0X0X0X0X0X0X0X0X0X0X0X0X0X0X0X0X0X0X0X0X0X0X0X0X0X0X0X0X0X0X0X0X0X0X0X0X0X0X0X0X0X0X0X0X0X0X0X0X0X0X0X0X0X0X0X0X0X0X0X0X0X0X0X0X0X0X0X0X0X0X0X0X0X0X0X0X0X0X0X0X0X0X0X0X0X0X0X0X0X0X0X0X0X0X0X0X0X0X0X0X0X0X0X0X0X0X0X0X0X0X0X0X0X0X0X0X0X0X0X0X0X0X0X0X0X0X0X0X0X0X0X0X0X0X0X0X0X0X0X0X0X0X0X0X0X0X0X0X0X0X0X0X0X0X0X0X0X0X0X0X0X0X0X0X0X0X0X0X0X0X0X0X0X0X0X0X0X0X0X0X5X5X0X0X0X5XwX5XeX6XeXR C b.n.c.m.C <.rXwXeXx.m.m.&XeXrXuXT m.C  .uXrXeX+Xn.c.c.x.b.Z.D.U.H.H.H.H.H.H.H.H.H.H.H.H.H.H.H.H.H.L.G.H.H.H.H.J.J.J.J.J.J.K.K.B.M.,XuXrX7X3.3.eX3Xm.z.C iXrXrX3.wXwXuX#XC b.b.v.n.n.n.b.n.Z.dX|.|.`.`.).`.}.|.).).~.~.~.~.).).).).).).).).).).).).).).).).).).).).).).).).).).).).).).).).).).).).).).).).).).).).).).).).).).).).).).).).).).).).).).).).).).).).).).).).).).).).).).).).).).).).).).).).).).).).).).).).).).).).).).).).).).).).).).).).).).).).",
"7X7X5X5X5X5X5X5X5X5X5X5X5X5X5X5X5X5X5X5X5X5X5X5X5X5X5X5X5X5X5X5X5X5X5X5X7X7X5X5X5X5X5X5X7X7X5X5X5X5X5X8X0X5X5XuX-Xx.b.B vXnXnXvXV N.c.c.c.l.c.Z.z.x.m.z.n.c.c.k.v.z.b.#XZ.v.v.Z.Z.v.v.b.Z.#X#Xb.A.l.c.n.b.m.m.b.m.Z.c.m.N.N.Z.#XT 3XuX7X7X7X7X7X7X7X5X5X7X7X7X7XwXwX5X5X5X5X5X5XeXuXH l l l z G G | $.:.| t z N z z z z z m v v x c z z m x z x z c m c q } lXe.kXX.P Q +.jXjXlXO.W ( &.&.%.P t.a.r.a.q.y.u.a.lXt.kXX.@.%.%.o.X.X.W ] 1.1.) =.,.+ 7 O 0 <.Y =.Q ` ` ~ ! Q ;.kXxXxXhX7 7 + K $.Q ;.Q _ Q 6.a.y.u.} -.Y 6.lXq.t.O.P Q 5.t.a.lX;.-.Q 5.lXq.jXO.X.&.( >._ U t.a.y.t.P _ =.=.%.#.*.*.) ) ( ^ @.@.%.%.X.X.O.Q o.Q _ >.%.%.o.-.o.-.Q ;.jXjXjX5.P U 4.kXlXkX5.X.W ^ Q _ _ =.) ! X.jXt.jX+.P Q o.! 1.~ 5.jXu.xXy r J z z r l z z z v v v G }  .<. .J z w | -.( ! =.=.( %.*.$.| G t m l l m z z c v  .uXeX6XrXrX5X5XrXrXrX5X5X5X5X7X7X5X5X5X5X5X5X7X7X5X5X5X5X5X5X5X5X5X5X7X7X5X5X5X5X5X5X5X5X5X5X5X5X5X5X5X5X5X5X5X5X5X5X5X5X5X5X7X5X5X5X5X5X5X5X7X7X5X5X5X5X5X5X5X5X5X5X5X5X5X5X5X7X5X5X7X7X5X5X5X5X5X5X5X5X5X5X7X7X5X5X5X5X5X5X5X5X5X5X7X7X5X5X5X5X5X5X5X5X5X5X7X7X5X5X5X5X5X5X5X5X5X5X7X7X5X5X5X5X5X5X5X5X5X5X5X5X5X5X5X5X5X5X7X5X5X5X5X5X5X5X7X7X5X5X5X5X5X5X5X5X5X5X5X5X5X5X5X7X5X5X5X5X5X5X5X5X5X5X5X5X5X5X5X5X5X5X5X5X5X5X7X7X5X5X5X5X5X5X5X5X5X5X5X5X7X7X7X7X5X8X5X7X7X5X0X6XuX .C Z.x.Z.Z.x.%XeXeXyX+Xx.+X;XeXuXyXT #X+X;XuX9XyXT x.z.b.x.b.v.A.D.H.H.H.H.H.H.H.H.H.H.H.H.H.H.H.H.H.L.U.L.H.H.H.H.P.L.H.G.J.J.G.T.c.#XyX9X6XwXwXqX4XC #XT iXeX0XrX0XeXuX#Xx.+Xx.z.Z.v.v.b.z.Z.dX~.`.)._.~.~.)._.).).^.^.).).).).).).).).).).).).).).).).).).).).).).).).).).).).).).).).).).).).).).).).).).).).).).).).).).).).).).).).).).).).).).).).).).).).).).).).).).).).).).).).).).).).).).).).).).).).).).).).).).).).).).).).).).).).).).).).).).).).).).",
"*X*X*X*X*X*X*X*X*X*X*X*X*X*X*X*X=X=X=X=X=X=X=X=X=X=X=X=X=X=X*X*X*X*X*X*X*X*X*X*X*X*X*X*X*X*X*X*X=X=X*X=X3X$X$X:X,Xm.Z.B xXnXnXvXC N.n.b.+XT ;X3XeX0XwXeXeX3X#XC b.z.z.v.l.V g g g h h V l.v.v.x.x.C +XiX9X4.i.xXnXcX&XC z.n.b.v.m.>XiX-X=X=X*X:X:X:X:X:X-X-X-X-X=X=X=X=X*X*X=X$X$X9Xx v G K / -.Q ;.o.&.| D v x N x x n x N b n n m z z m x z x z c m c q } lXw.a.w.u.jX6.O.} o.o.! ( =._ _ P kXjXe.6.O.X.%.%.Q %.3.Q ` ` ( ( %.W -.2./ l 7 X O k N r { xXe.jXO.@.~ 7.u.kXhX0 o O e 0 N u hXa.lX6.O.o.~ 6.y.y.u.w G w 4.zXw.lXi.lXt.6.X.X.<.v c q { lXe.lXX.X.-.! 1._ Q t.a.u.kXU ( &.&.%.@.*.*.` _ ) %.%.%.%.@.Q 5.jXkXkX;.X.o.W %.=.>.! 1.~ >.#.X.O.6.jXjX0.u y y 4.u.jXkXX.W ( =.) W X.lXe.y.r.t.lXkXo.%.P 6.u.w.xXy r J l M c L R :.>.>.>.#.| I t D K R >.:.G H G L | *.%.&.! 1.2.^ @.:.I D c z N N l z J j J  .$X*X&X*X*X*X*X*X*X*X*X*X*X*X*X*X*X*X*X*X*X*X*X*X*X*X*X*X*X*X*X*X*X*X*X*X*X*X=X=X=X=X=X=X=X=X=X=X=X=X*X*X*X=X*X*X*X*X*X*X*X*X*X*X*X*X*X*X*X*X=X=X*X*X=X=X=X=X=X=X*X*X=X=X=X=X*X*X*X*X*X*X*X*X*X*X*X*X*X*X*X*X*X*X*X*X*X*X*X*X*X*X*X*X*X*X*X*X*X*X*X*X*X*X*X*X*X*X*X*X*X*X*X*X*X*X*X*X*X*X*X*X*X*X*X*X*X*X*X*X*X*X*X*X*X*X*X*X*X*X*X*X*X*X*X*X=X=X*X*X=X=X=X=X=X=X*X*X=X=X=X=X=X=X=X=X=X=X=X=X=X=X=X=X=X=X*X*X*X*X*X*X*X*X*X*X*X*X*X*X*X*X*X*X*X*X=X=X=X=X*X-X*X=X=X*X:X&X1X#Xc.Z.x.x.c.c.v.+XC #Xl.Z.l.z.b.z.Z.m.Z.c.m.#Xx.+Xz.z.c.c.N.N.A.D.D.H.H.H.H.H.H.H.H.H.H.H.H.H.H.H.J.J.H.U.L.H.H.H.G.U.U.S.S.S.P.J.Q.B.G.L.M.R.,X*X=X&Xm.c.m.>X+Xb.x.x.x.>Xc.c.v.z.z.Z.x.x.x.l.c.dX~.}.|.^.^.^.~.~._._.^._._._.).).).).).).).).).).).).).).).).).).).).).).).).).).).).).).).).).).).).).).).).).).).).).).).).).).).).).).).).).).).).).).).).).).).).).).).).).).).).).).).).).).).).).).).).).).).).).).).).).).).).).).).).).).).).).).).).).).).).",
"*X*X*X*X*X*X*X=X-X-X=X=X=X=X=X=X*X*X*X*X*X*X*X*X*X*X*X*X*X*X*X*X=X=X=X=X=X=X=X=X=X=X=X=X=X=X=X=X=X-X-X-X-X=X$X:X,XC Z.B xXnXnXxXZ N.n.n.Z.m.T uXeX0XrX7XwXeXC n.z.v.Z.v.l.h h h h g h h A.Z.b.Z.c.x.T uXuXqX4.NXMXCXT C n.n.v.x.x.,X:X=X*X=X*X-X-X=X*X*X*X*X*X=X=X=X=X*X*X-X-X-X=X3Xc x t K >.1.) ) ) -.| w v c x x m z x n r l n z z x M M M n x x N c u } xXd.e.w.w.lX6.~ / >.^ ^ =.( >./ P kXu.y.t.8./ >.>._ / _ &.%.~ -.*._ ( ) ! ,.n o % X N K w { xX0.xX} $.P +.lXw.cX4 @ : 7 { G w 4.lXe.jX8.,.U t.y.p.w.q l 0 ..lXw.w.e.w.lX6.Y =.$.G c 0 { lXy.jXO.Q %.&.( 6XU t.a.e.t.Q ( @.@.` ) ) ) ^ #.%.W -.( 2.=.X.5.lX9.lX} @.>.Q %.^ *.*.o.o.! _ _ P kXlXi.kXu N u 0.w.y.t.Q >.=.=.-.P O.jXy.w.r.r.a.u.o.&.~ 6.y.w.zXy q N l M l t $.=.^ -.( *.<.L t r L $.=.#.H t r G $.2.W @.@.#.@.*.1.>.I w z m c J z m t c j $X:X*X-X*X-X-X*X=X=X=X=X=X=X=X=X=X=X=X=X=X=X=X=X=X=X=X=X=X=X=X=X=X=X=X=X=X=X=X=X=X=X=X=X=X=X=X=X=X=X=X=X=X=X=X=X=X=X=X=X=X=X=X=X=X=X=X=X=X=X=X=X=X=X=X=X=X=X=X=X=X=X=X=X=X=X=X=X=X=X=X=X=X=X=X=X=X=X=X=X=X=X=X=X=X=X=X=X=X=X=X=X=X=X=X=X=X=X=X=X=X=X=X=X=X=X=X=X=X=X=X=X=X=X=X=X=X=X=X=X=X=X=X=X=X=X=X=X=X=X=X=X=X=X*X*X*X*X*X-X*X-X:X*X*X*X-X1X-X-X*X:X:X;X*X&X&X&X*X*X&X&X&X&X&X,X&X%X$X-X&X=X*X&X*X-X=X*X=X*X=X=X=X=X=X=X=X=X=X=X=X=X=X=X=X=X=X=X=X=X=X=X=X=X=X=X=X=X*XyX+Xm.b.x.x.Z.c.n.c.c.n.n.b.m.+Xl.A.l.z.Z.b.l.c.A.A.n.b.b.b.A.A.n.N.U.H.H.H.H.H.H.H.H.H.H.H.H.H.H.H.H.H.H.H.H.H.H.H.H.H.H.H.H.H.H.H.K.G.G.G.F.S.,X:X1X&Xl.n.z.b.z.v.n.v.v.v.v.v.v.v.v.Z.v.v.Z.l.n.dX^.).).~.).).).).).).).).).).).).).).).).).).).).).).).).).).).).).).).).).).).).).).).).).).).).).).).).).).).).).).).).).).).).).).).).).).).).).).).).).).).).).).).).).).).).).).).).).).).).).).).).).).).).).).).).).).).).).).).).).).).).).).).).).).).).).).",
"&X&X&X&X&X&X&X&X&X&X&X&X&X&X&X&X&X&X&X&X&X&X&X&X&X&X&X&X&X&X&X&X&X&X&X&X&X&X&X&X&X&X&X&X&X&X&X&X&X&X&X&X*X*X*X:X,Xm.Z.B cXnXnXxXZ N.n.v.Z.m.T uX9X6XeX8X0XeXC c.v.v.Z.Z.A.V V V g V V h A.v.z.v.Z.b.C -X<.<.i.NXnXCXT C z.n.n.Z.m.>X1X*X&X*X&X*X*X*X&X&X&X&X&X&X&X&X&X&X&X&X&X&X*X:XB l r J :.#.*._ _ >.| w G H J N J J J J G K c x x x x m M M z z z z y ..xXlXa.a.a.lX6.X.W ^ @.@.-.o.-.O.O.t.a.a.jXX.,./ ^ ~ W ( / >.! 1.) ) 3.2.2.6XN X % % l z 0 ..NXlXlXX.~ ~ 5.lXzXnX4   . 4 b t y 0.zXlXkXQ P Y 6.jXzXzXw t y 4.zXp.a.a.p.lX6.! ;.@.G H r { lXq.jXO.X.-.>./ Y Y t.lXa.u.Q ( #.$.*.*.@.@.-.-.=.^ _ Q ` Q 8.5.xXlXjXX.P Q _ ( ( _ =.` ) =.Q U P t.lXlXi.u t w i.nXxXt.Q Y / ' ' Y $.kXjXy.e.e.jX6.Q Q Q ;.xXlXlXD t m z z z D *.2.1.2.1.=.>.L G t K >.3.3.L c v L >.2.) 3.! ! ( ^ ^ $.{ r l n l n l n l N q *X*X&X*X&X*X&X&X&X&X&X&X&X&X&X&X&X&X&X&X&X&X&X&X&X&X&X&X&X&X&X&X&X&X&X&X&X&X&X&X&X&X&X&X&X&X&X&X&X&X&X&X&X&X&X&X&X&X&X&X&X&X&X&X&X&X&X&X&X&X&X&X&X&X&X&X&X&X&X&X&X&X&X&X&X&X&X&X&X&X&X&X&X&X&X&X&X&X&X&X&X&X&X&X&X&X&X&X&X&X&X&X&X&X&X&X&X&X&X&X&X&X&X&X&X&X&X&X&X&X&X&X&X&X&X&X&X&X&X&X&X&X&X&X&X&X&X&X&X&X&X&X&X&X&X&X&X&X&X&X&X&X&X&X&X&X*X%X%X$X%X$X9X4X9X4X4X4X4X4X4X4X4X4X4X4X4X4X9X:X:X%X%X*X*X-X-X*X*X&X&X&X&X&X&X&X&X&X&X&X&X&X&X&X&X&X&X&X&X&X&X&X&X&X&X*X*X&X&X1X+Xc.Z.c.c.A.c.c.n.m.c.c.R.v.Z.l.m.v.z.Z.n.z.x.C m.n.n.n.n.c.A.n.N.U.H.H.H.H.H.H.H.H.H.H.H.H.H.H.H.H.H.H.H.H.H.H.H.H.H.H.H.H.H.H.H.P.P.P.J.F.k.,X%X=X&Xm.n.v.b.v.Z.z.z.z.v.v.v.v.v.z.z.x.v.Z.c.c.>X^.).).).).).).).).).).).).).).).).).).).).).).).).).).).).).).).).).).).).).).).).).).).).).).).).).).).).).).).).).).).).).).).).).).).).).).).).).).).).).).).).).).).).).).).).).).).).).).).).).).).).).).).).).).).).).).).).).).).).).).).).).).).).).).).).).",
"4X4X4X4X4X4X4X4X4X4X4X4X4X4X4X4X4X4X4X4X4X4X4X4X4X4X4X4X4X4X4X4X4X4X4X4X3X3X3X3X4X4X4X4X4X4X4X4X4X4X3X4X4X4X4XyX,XC n.Z xXnXnXvXZ v.b.b.Z.C T uXeX5X5X5XwXeXC l.v.v.v.v.v.a h h h g Z a c.v.v.b.m.x.N vXvXkXkXkXkXcXT C Z.A.z.b.C &XiX4X4X4X4X3X4X4X4X4X4X4X4X4X4X3X4X4X4X4X4X4X4X9XK K L U #.*.*.*._ :.| t c N k e e k k e e b n m c x c c m z z n x z y { 4...4.4.4.4.5.-.&.=._ _ >.` _ ) W 3.t.6.5.~ =.~ ;.5.5.3./ _ / &.! -.:.L L J q 0 7 7 { m t H ....} 6.5.5.+.{ ....e 0 0 0 N l r ..4.+.O.4.4.6.4.4.4.4.y M r ..0.4.4.4.4.4.<.I } } c m 0 { xXe.xXO.Q U U 6.+.6.6.6.6.6.! ( ' #.%.&.@.#.@.@.*.^ *.^ 3.5.+.+.+.+.O.4.5.5.3.Q o.( _ _ Q -.5.4.4.4.4.4...y m y ..4...+.6.5.5.;.5.O.+.r.r.r.r.r.y.r.+.5.6.4.4.4.0.M m c N z b t I U I U I I | G m z G I U | H c z H I I I $.-.&.-.*.&.#.| L I K G c z N z m w 3X9X4X9X4X4X4X4X4X3X3X3X3X3X3X4X4X4X4X4X4X4X4X4X4X3X3X4X4X4X4X4X4X4X4X3X3X3X3X4X4X4X4X4X4X4X4X4X4X3X3X4X4X4X4X3X3X4X4X4X4X3X3X3X3X4X4X4X4X3X3X3X3X4X4X4X4X3X3X3X3X4X4X4X4X3X3X4X4X4X4X4X4X4X4X4X4X3X3X4X4X4X4X4X4X4X4X3X3X3X3X4X4X4X4X4X4X4X4X4X4X3X3X4X4X4X4X4X4X4X4X3X3X3X3X4X4X4X4X4X4X4X4X4X4X3X3X4X4X4X4X4X4X4X4X4X4X4X4X4X4X4X4X4X4X9X4X3X3X1X#X#X>X>X>X#X#X>X>X>X>X#X#X#X,X,X,X,X>X>X#X=X4X3X3X3X3X3X4X4X4X4X4X3X3X3X4X4X4X4X4X4X4X4X4X4X4X4X4X4X4X4X4X3X4X9X4X3X3XyX@Xx.b.x.x.z.C #X;X;X&XC x.C #X&X;X#Xm.c.c.#X&X;X#Xz.c.c.n.v.v.c.A.U.H.H.H.H.H.H.H.H.H.H.H.H.H.H.H.H.H.H.H.H.H.H.H.H.H.H.H.H.H.H.L.S.S.K.J.K.D.1X4X9X=Xx.Z.c.z.l.b.z.z.z.v.v.v.v.n.b.v.v.Z.R.R.R.^.^.).).).).).).).).).).).).).).).).).).).).).).).).).).).).).).).).).).).).).).).).).).).).).).).).).).).).).).).).).).).).).).).).).).).).).).).).).).).).).).).).).).).).).).).).).).).).).).).).).).).).).).).).).).).).).).).).).).).).).).).).).).).).).).).).).",
"7X7X7X7X7X7X7X7X7X7X7X7X7X7X7X7X7X7X7X7X7X7X7X7X7X7X7X7X7X7X7X7XwXwXwXwXwXwXwXwXwXwXwXwXwXwXwX7X7XwX0X5XwX7X0XuX-XC +XZ vXmXnXvXV c.Z.Z.Z.m.@XuX6X5X5XeXrXyXx.c.Z.z.v.Z.A.Z h g g V V Z A.Z.Z.b.b.x.B cXNXxXjX;.<.uX+Xm.n.Z.v.+XT 3XeX7X7XwX7X7X7X7XwXwXwXwXwXrX0XwX7X7X7X7X0X7X7XrX&.=.&.=.1.=.%.@._ >.| t N N 7 X X % = % % e n M z c c c x x x m x c z l v q 0 q 0 q L U X.o.@.@.-.o.X.o.W -.Y / / ' >.X.t.lXa.u.X.X.@.@.X.<.{ + X 7 0 N J J x c c 0 o o o 0.s.zX..+ O 7 e x J J K z q x q u D xXa.lX{ u q q x N q l l 0 0 0 0 q q q l x B B r { lX9.u.O.@.;.7.xXe.jX;.U U U ( ) _ *.o.o._ *.( %.#.@.@.O.jXjXxX..u q y kXlXlX6.P -.o.=.-.W 5.xXa.lXD u j j j n r r l q D lXy.a.a.lXy.y.a.u.u.jXu.e.a.e.u.lX4.+ 0 l e x l N l b l m z r b l l N l n l l x l l c l l l z r r K $.^ ^ ( ) 1.=.( =.@.L G v H v G G qXrX5XrX5XwX7XwXwXwXwXwXwXwXwXwXwXwXwXwXwXwXwXwXwXwXwXwXwXwXwXwXwXwXwXwXwXwXwXwXwXwXwXwXwXwXwXwXwXwXwXwXwXwXwXwXwXwXwXwXwXwXwXwXwXwXwXwXwXwXwXwXwXwXwXwXwXwXwXwXwXwXwXwXwXwXwXwXwXwXwXwXwXwXwXwXwXwXwXwXwXwXwXwXwXwXwXwXwXwXwXwXwXwXwXwXwXwXwXwXwXwXwXwXwXwXwXwXwXwXwXwXwXwXwXwXwXwXwXwXwXwXwXwXwXwXwXwXwXwXwX7X7XwXwXwXwX7X7X7X7X7X7X7X7XrX7X5XuXyXn.k.G.M.B.B.B.B.B.B.B.B.B.B.W.W.B.B.B.B.k.-XeXrX7XrXrXrXrX7XwXwXwXwXwXwXwXwXwXwXwXwXwXwX7X7X7X7X7XwXwXwXwXwXwXwX7XrX6XuX;Xx.n.v.n.v.x.;XeXeXuX+XZ.Z.&XuXeXyX+XZ.x.;XuXqXuXT v.n.n.b.b.c.A.D.H.H.H.H.H.H.H.H.H.H.H.H.H.H.H.H.H.H.H.H.H.H.H.H.H.H.H.H.H.H.H.L.L.J.J.F.k.iXwXrX4XC n.n.A.z.Z.z.v.v.n.n.n.v.v.Z.v.c.R.dX^._. X).).).).).).).).).).).).).).).).).).).).).).).).).).).).).).).).).).).).).).).).).).).).).).).).).).).).).).).).).).).).).).).).).).).).).).).).).).).).).).).).).).).).).).).).).).).).).).).).).).).).).).).).).).).).).).).).).).).).).).).).).).).).).).).).).).",
"wXwX0X0X0X0X0X0X0X0X0X0X0X0X0X0X0X0X0X0X0X0X0X0X0X0X0X0X0X0X0X0X0X0X0X0X0X0X0X0X0X0X0X0X0X0X0X0X0X0X0X0XwXwX0XuX-XC +XZ xXnXnXvXZ v.Z.b.Z.x.T uX7X7X7XwXwX9XC l.v.v.v.Z.A.g h h g h h h c.v.b.b.#Xx.k cXBXnXlXO.rXuX@Xx.z.Z.x.+XC -XuX0X5XwX0X5X7X7X0X0X0X0X0X0X0X5X0X7X7X0X0X0X6XrX*.=.=.=.*.@.%.%.) >.| t N N 6 % & & & # * k n M c x c c x x x x z x c x c x N J x j I >.>.=.&.( 1.) ( _ ' ' &.1.1.) o.8.+.p.y.t.Q ) ] ] ' ' 9X+   X 7 N l z n N N k X X o cXs.bX..o X X A { t t M z n N B l y xXs.zX} q N J x m x x m c N N N N n N M z n M u { zXlXlXO.~ ~ O.a.p.lX;.Q >.>.( ) *.%.o.o.#.*.=.=.=.( W O.u.y.lX..u z w xXp.y.tXQ 2.^ ` / ~ ;.lXp.s.D u J N J N J c B q D zXp.9.9.r.r.r.r.q.e.y.r.w.p.p.p.a.} q m B B J v H v N x c z l b x x c v J N x c x x c z m c c v t I 3.1.) &.&.%.-.%.&.%.D v z n z c t 9XrX7XwX7XwXwXwXwX0X0X0X0X0X0X0X0X0X0X0X0X0X0X0X0X0X0X0X0X0X0X0X0X0X0X0X0X0X0X0X0X0X0X0X0X0X0X0X0X0X0X0X0X0X0X0X0X0X0X0X0X0X0X0X0X0X0X0X0X0X0X0X0X0X0X0X0X0X0X0X0X0X0X0X0X0X0X0X0X0X0X0X0X0X0X0X0X0X0X0X0X0X0X0X0X0X0X0X0X0X0X0X0X0X0X0X0X0X0X0X0X0X0X0X0X0X0X0X0X0X0X0X0X0X0X0X0X0X0X0X0X0X0X0X0X0X0X0X0X0X0X0X0XwXwX7X7X7X7XwX7XwX7X5XwXrX6X3.tXyXA.k.J.K.K.K.G.H.U.U.U.U.U.G.H.U.U.K.K.F.k.=X0XrX6X3.6X6XqX0X0X0X0X0X0X0X0X0X0X0X0X0X0X0X0X0X0X0X0X0X0X0X0X0XwXwX5X0X6XuX;XC b.c.Z.c.x.4XrXwXeXT m.C ;XrXrXuXT C C  .uX5XuXT x.n.n.b.v.A.D.D.H.H.H.H.H.H.H.H.H.H.H.H.H.H.H.H.H.H.H.H.H.H.H.H.H.H.H.H.H.H.H.H.H.J.J.F.k.yXrXrX4XC n.v.Z.z.v.v.v.v.v.v.v.z.z.z.l.c.R.dX|.`. X).).).).).).).).).).).).).).).).).).).).).).).).).).).).).).).).).).).).).).).).).).).).).).).).).).).).).).).).).).).).).).).).).).).).).).).).).).).).).).).).).).).).).).).).).).).).).).).).).).).).).).).).).).).).).).).).).).).).).).).).).).).).).).).).).).",
"6X6XqXqX6XqX6X6XqXqXqXqXqXqXqXqX6X5X5X5X6X6X6X6X5X6X0X0X5X5X6X6X5X5X5X5X5X5X5X5X5X5X5X5X5X5X5X5X6X0XqX0X0X7XqXeX<XC n.Z cXnXnXxXZ b.#Xx.b.x.T 9XeXrXrXrXeXyX+X#Xb.v.v.z.c.Z h h h h h Z l.v.b.b.x.x.N cXNXNXxXtXtXyX#X+Xx.Z.x.x.C *XuX5X6X0X0X5X6X6X6X0X6X6X5X5X5X5X6X6X6X6XqXqXqXrX#.^ ^ %.@.@.%.%.) -. .t m N 7 % % % * % % s b m c x c c c c M M z n m m m J z v v G I ,.,.>./ / ! ! / / / / Q / / / / @.6.jXlXjXO.-.1.1.3.;. .+ X 4 e N l m z n b 0 4 7 + hXxXxX..7 O X k r M M z z m N n t { xXs.xX..t x l z M m z z m z M z z z m M z m M t ..xXxXkX4.X.P 4.xXxXxX5.! ! %.%.%.*.*.%.%.*.*.%.%.=.>./ X.jXw.a...q J w kXu.u.6.P -.Q =.%.X.X.lXlXxX{ t J r l z c z z t { xXa.a.a.zXzXa.a.a.a.a.a.a.a.a.a.xX0.w z z z c v N c c c m c G H c c c c m m c c c J c v m m H G G I ,._ @.-.%.^ ^ %.=.:.t l x B n m w 9XeX6X0X6X0X5X6X5X5X5X5X5X5X5X5X5X5X5X5X5X5X5X5X5X5X5X5X5X5X5X5X5X5X5X5X5X5X5X5X5X5X5X5X5X5X5X5X5X5X5X5X5X5X5X5X5X5X5X5X5X5X5X5X5X5X5X5X5X5X5X5X5X5X5X5X5X5X5X5X5X5X5X5X5X5X5X5X5X5X5X5X5X5X5X5X5X5X5X5X5X5X5X5X5X5X5X5X5X5X5X5X5X5X5X5X5X5X5X5X5X5X5X5X5X5X5X5X5X5X5X5X5X5X5X5X5X5X5X5X5X5X5X5X5X5X5X5X5X5X5X6XqX6X6X6X6X6X6X0X5X0X6X6X0XqX6X0XuXyX#Xc.I.U.G.L.L.T.T.Y.L.L.L.L.T.U.U.H.P.U.c.1XuXuX8XrX7X7XwX5X5X5X5X5X5X5X5X5X5X5X5X5X5X5X5X5X5X6X6X6X6X5X5XqX0X0X6XeX4XuX .C b.n.n.c.x.;XqXrXyX+Xx.C ;XeXrXyX+Xx.x.;XuXeXyX+Xb.n.n.v.c.A.D.L.H.H.H.H.H.H.H.H.H.H.H.H.H.H.H.H.H.H.H.H.H.H.H.H.H.H.H.H.H.H.H.F.G.H.K.F.k.yXeXeX3Xx.n.z.v.l.l.v.b.b.b.x.x.x.z.Z.c.c.R.^.|.`.`.).).).).).).).).).).).).).).).).).).).).).).).).).).).).).).).).).).).).).).).).).).).).).).).).).).).).).).).).).).).).).).).).).).).).).).).).).).).).).).).).).).).).).).).).).).).).).).).).).).).).).).).).).).).).).).).).).).).).).).).).).).).).).).).).).).",
"5X5X5X5X5X5X5X5X5X5X5X5X5X5X5X5X5X5X5X5X5X7X5X5X7X5X5X5X5X5X5X5X5X5X5X5X5X5X5X5X5X5X5X5X5X5X5X5X5X5X5X5X7X7X5XuXiXx.n.Z cXmXnXvXV N.Z.c.Z.c.v.#Xx.+X+X#X#X#Xm.N.v.b.b.v.#Xm.z.l.c.l.c.m.Z.v.b.b.n.n.m.>XC T T T +X+Xm.n.c.+Xc.b.C -XuX7X7X7X5X6X5X5XqX7X7X7X7X7X5X5X7X5X5X5X0X5X0XrX%.%.&.&.^ -.%.%.) #.| w G m n x x l x c z J n x x x x m m c m M M M M z t t n l M l c J G w kXu.q.q.e.r.e.e.y.r.y.y.u.t.5.O.<. .u 7 7 e J v J r l k l J v J z v J N k k e k 4 4 e e b l { H c c x x v v M z q H t { M r N N z l m x x m z x c N x n N z c z l r + 7 + 4.kXlX..+ + u I -.o.%.%.*.&.) _ _ _ &.^ ^ *.>.#.X.jXe.zX..u z w kXu.lX6.P @.X.6.t.t.4.y H { t r z n m m M M t r r { t H M m m M t t t H t m x m x J z l n n m N c B x z M n m c z z z z z M l l z z c M z M l z c l m H G L | %.) ) =.1.>.G x N N x c w 9XrX6X5X5XrX5X5X5X5X5X5X5X5X5X5X5X5X5X5X5X5X5X5X5X5X5X5X5X5X5X5X5X5X5X5X5X5X5X5X5X5X5X5X5X5X5X5X5X5X5X5X5X5X5X5X5X5X5X5X5X5X5X5X5X5X5X5X5X5X5X5X5X5X5X5X5X5X5X5X5X5X5X5X5X5X5X5X5X5X5X5X5X5X5X5X5X5X5X5X5X5X5X5X5X5X5X5X5X5X5X5X5X5X5X5X5X5X5X5X5X5X5X5X5X5X5X5X5X5X5X5X5X5X5X5X5X5X5X5X5X5X5X5X5X5X5X5X5X5X5X5X5X7X5X7X7X7X7X5X5X0X0X6X0XqX3Xc.I.Y.S.F.J.J.Q.K.J.U.U.U.U.U.G.J.J.J.K.K.K.K.F.D.R.C.#X4XqX6XqX0X5X5X5X5X5X5X5X5X5X5X5X5X5X5X5X5X5X5X7X7X5X5X5X5X5X7X6X0XqXeX;Xm.Z.c.c.c.c.#X#X+X#Xn.Z.v.#X+X+X#Xx.z.z.x.#X+X+Xv.v.n.n.v.c.c.D.U.H.H.H.H.H.H.H.H.H.H.H.H.H.H.H.H.H.H.H.H.H.H.H.H.H.H.H.H.H.H.H.L.H.L.P.K.k.>X#X#X#Xl.n.z.Z.Z.Z.v.z.z.z.b.b.v.n.>XR.R.~.|.|.|.).).).).).).).).).).).).).).).).).).).).).).).).).).).).).).).).).).).).).).).).).).).).).).).).).).).).).).).).).).).).).).).).).).).).).).).).).).).).).).).).).).).).).).).).).).).).).).).).).).).).).).).).).).).).).).).).).).).).).).).).).).).).).).).).).).).",
"5X5X5X5X5X5X5X5X5X5X5X5X5X5X5X5X5X5X5X5X5X5X5X5X5X5X5X5X5X5X5X5X5X5X5X5X5X5X5X5X5X5X5X5X5X5X5X0X5XeXqX5XwX7X6XeX<Xm.b.Z xXnXMXxXZ n.x.C Z.b.m.x.c.c.c.c.l.b.l.n.v.b.b.m.+Xx.#X#Xb.#X#Xz.Z.z.v.v.l.Z.c.N.V l.c.N.c.c.c.A.z.#Xl.Z.C <XuX8X6X0XeX6X0X0XqX0X5X5X5X5X5X5X0X0X0X0X0X5X6X0X#.%.&.=.W &.&.) ) #. .w v c z n J c m H t v n n z z n m m m x z z z z c N N m v m M l x r u kXa.r.r.a.y.e.y.y.w.p.w.y.jX7.8.#. .O # & 8 N z t m J H c m l b M t v G c N T o @ . 7 N { c H t z M n c c G m x N j j j N z M r m z N x z m z c t M r z m x H c N k . X o hXlXa.gXo . % I >./ #.#.*.o.o.@.#.@.%.-._ ( &.W X.u.w.lX} q c y kXw.y.6.Q @.X.u.a.a.0.u z l l m M n l c z M t m B B j q l l z x l l l x q x j x l z r x m c z z m z n z m n n n x n N z x z z m n x x m z M z c N l l z t G | -.=.%.&.) >.t z m c c G w 9XrX6X6X6X0XeX5X5X5X5X5X5X5X5X5X5X5X5X5X5X5X5X5X5X5X5X5X5X5X5X5X5X5X5X5X5X5X5X5X5X5X5X5X5X5X5X5X5X5X5X5X5X5X5X5X5X5X5X5X5X5X5X5X5X5X5X5X5X5X5X5X5X5X5X5X5X5X5X5X5X5X5X5X5X5X5X5X5X5X5X5X5X5X5X5X5X5X5X5X5X5X5X5X5X5X5X5X5X5X5X5X5X5X5X5X5X5X5X5X5X5X5X5X5X5X5X5X5X5X5X5X5X5X5X5X5X5X5X5X5X5X5X5X5X5X5X5X5X5X5X5X5X5X5X5X5X5X5X8X5XeXeXqXeX9X-Xj.W.Q.K.H.L.S.H.H.J.J.J.H.H.H.L.U.U.H.G.S.L.J.K.B.B.j.D.yXrX5X0X5X5X5X5X5X5X5X5X5X5X5X5X5X5X5X5X5X5X5X5X5X5X5X5X5X5X6X6XeXqXuX;Xm.Z.x.x.b.z.z.l.l.l.c.Z.m.b.l.c.l.v.Z.Z.l.l.c.c.c.n.b.b.v.n.n.A.U.H.H.L.H.H.H.H.H.H.H.H.H.H.H.H.H.H.H.H.H.H.H.H.H.H.H.H.H.H.H.H.H.S.D.L.Q.M.R.m.m.Z.c.Z.x.b.v.n.A.A.v.v.v.n.c.N.pXpX X X}.}.~.~.~.).).).).).).).).).).).).).).).).).).).).).).).).).).).).).).).).).).).).).).).).).).).).).).).).).).).).).).).).).).).).).).).).).).).).).).).).).).).).).).).).).).).).).).).).).).).).).).).).).).).).).).).).).).).).).).).).).).).).).).).).).).).).).).).).).",
"6X0X6X0XwX7XwX7XwXwX6.6.wXwXwXwXwXwXwXwXwXwXwXwXwXwXwXwXwXwXwXwX7X6X0X5X6XeX0X6X5X5X5X5X5X7X7X7X5X0XqX5X7X7X5XuX-XC b.Z xXnXnXvXV N.v.l.Z.N.m.c.l.c.k.c.l.A.l.Z.z.z.x.Z.l.l.l.c.c.c.V +Xm.N.#XC z.l.Z.x.#X#X#X#X#Xb.#X+Xb.b.x.b.C -XeX5X7XwX6X0X5X5X5X5X5X5X5X5X5X5X5X5X0X0X5X5XwX3.#.^ W W ^ ^ ( ( ! #.| w M m n z x z n m v c z m z z z l l r r n r N x c z c v H v N N b M u lXlXa.p.a.p.p.p.a.a.p.a.a.xX5.~ 7X| O . X k N c c x x c c c c c x z n x l N l 7 . . 7 N N l b r e b l z G G m n n c c c c c m m x x x x x x x x M z n n x z v z N k % 4 o hXzXzXgXo X O I wX^ 2.` ~ ` Q ) 1.( ^ *._ ' / Y o.jXlXzX+.u t y xXzXlXtX' Y Q 6.u.u.4.w J c x z z x x x x x x x x x x c c c m m m m n l r z l b l J m z M M M z x n n x x x x x x x x x x x x x x x c c c x x x x x c z t L :.-.( =.) =.:.t e b l N c w 9XeX6X0X6X0X5X5X5X5X5X5X5X5X5X5X5X5X5X5X5X5X5X5X5X5X5X5X5X5X5X5X5X5X5X5X5X5X5X5X5X5X5X5X5X5X5X5X5X5X5X5X5X5X5X5X5X5X5X5X5X5X5X5X5X5X5X5X5X5X5X5X5X5X5X5X5X5X5X5X5X5X5X5X5X5X5X5X5X5X5X5X5X5X5X5X5X5X5X5X5X5X5X5X5X5X5X5X5X5X5X5X5X5X5X5X5X5X5X5X5X5X5X5X5X5X5X5X5X5X5X5X5X5X5X5X5X5X5X5X5X5X5X5X5X5X5X5X5X5X0X0X0XqX6X6X5X0X0XeX5X3.7XrXeXrX3Xc.G.L.L.H.H.H.H.H.H.H.H.H.H.H.L.U.U.L.H.H.H.L.H.K.K.S.Z.yXrX3.wX7X6X5X6X5XrX6XrX5X7X7X7X7X7X5X5X0X0X0X6X7X7X6X6X0X6X6X6XeX9XuX@XC v.v.v.v.v.z.b.v.v.v.v.v.v.v.b.z.z.v.v.v.v.v.v.b.b.v.v.n.c.c.A.U.H.H.H.H.H.H.H.H.H.J.H.H.H.H.H.H.H.H.H.H.H.H.H.H.H.H.H.H.H.H.H.U.P.J.J.G.D.A.n.b.b.b.n.v.v.z.z.z.v.v.n.b.b.z.c.^.|.).).^.^.~.).).).).).).).).).).).).).).).).).).).).).).).).).).).).).).).).).).).).).).).).).).).).).).).).).).).).).).).).).).).).).).).).).).).).).).).).).).).).).).).).).).).).).).).).).).).).).).).).).).).).).).).).).).).).).).).).).).).).).).).).).).).).).).).).).).).",
"8XrXeXeX5X5XeX3XiXiX3X3X3X3X3X3X3X3X3X3X3X3X3X3X3X3X3X3X3X3X3X4XeX0XrXeX5X0XwX7X7X7X5X5X0X5X5X5X5X0XqX5X7X7X5XuX-XC b.Z xXnXnXvXV n.b.x.n.b.+X#X;X;X#X;X#X#Xm.n.n.n.x.b.x.#X#X#X#X&X..1Xm.n.n.b.Z.v.Z.m.l.l.l.m.V V z.b.b.b.z.b.C -XeX5X7XwX5X0X5X5X5X5X5X5X5X5X5X5X5X5X0X0X5X5X0X6X,.>.>.>.>.>.>.>.>.,.| w z z m z n n b n l n z H x m n v L I L K z N n n n M z M z M c z m y 4.0.4.0.0.4.0.4.4.0.0.0.4.0.| U U K 0 7 7 k N z x x x x c c c c c x m n l n b 0 7 7 0 x z t K K K K z z c z x l n c c c c c n n x x x x x x x x z z x x x c z z n e 7 7 + ..0.0...+ e 0 H | K | 5.;.6.X.o.&.@._ W Q ;.;.;.5.4.4.0...r N t 4.0.4.4.;.+.+.q.y.a.4.u J c x z z x z c x x x x x x x x x x c c c x z H L L L v v c v z c M M z c c c x x x x x x x x x x x x x x x c c c c c c x x n m t G $.*.W %.^ ( :.L L K H c z w 9XeX6X0X6X0X6X5X5X5X5X5X5X5X5X5X5X5X5X5X5X5X5X5X5X5X5X5X5X5X5X5X5X5X5X5X5X5X5X5X5X5X5X5X5X5X5X5X5X5X5X5X5X5X5X5X5X5X5X5X5X5X5X5X5X5X5X5X5X5X5X5X5X5X5X5X5X5X5X5X5X5X5X5X5X5X5X5X5X5X5X5X5X5X5X5X5X5X5X5X5X5X5X5X5X5X5X5X5X5X5X5X5X5X5X5X5X5X5X5X5X5X5X5X5X5X5X5X5X5X5X5X5X5X5X5X5X5X5X5X5X5X5X5X5X5X5X5X5X5X5XeXeX5X7X5X5XqXqX0X0XwX0X4X*XiX,XD.G.L.L.L.H.H.H.H.H.H.H.H.H.H.H.F.F.F.F.J.H.G.U.J.P.U.R.<XiX-XyXeX5XrX0XwXwX6X0XeXeXeXeXeXeXeX0XwXwXwXrX0X0X0XeXeX5X0X0X5X8XuXR C v.v.v.v.v.z.b.v.v.v.v.v.v.v.v.v.z.v.v.v.v.v.v.v.v.v.v.n.n.c.A.D.H.H.H.H.H.H.H.H.H.H.H.H.H.H.H.H.H.H.H.H.H.H.H.H.H.H.H.H.H.H.H.H.H.K.K.G.D.A.A.z.b.b.n.v.v.v.v.b.v.v.n.b.b.z.c.^.|.).).^.^.~.).).).).).).).).).).).).).).).).).).).).).).).).).).).).).).).).).).).).).).).).).).).).).).).).).).).).).).).).).).).).).).).).).).).).).).).).).).).).).).).).).).).).).).).).).).).).).).).).).).).).).).).).).).).).).).).).).).).).).).).).).).).).).).).).).).).",
"7X7X0X6X,.9X1XA.M.B.B.B.W.W.W.W.W.W.W.W.W.W.W.W.W.W.W.W.W.W.W.M.yX0X5XeX5X6X0X6X5X5X5X5X5X5X5X5X5X0XqX5X7X7X5XuX-XC Z.Z xXmXnXvXZ n.Z.z.v.x.T 9XeX0XqX0XeX9X+Xx.x.b.x.+X@XyXeX6.xXNXmXNXA C x.#Xb.v.n.V h h g h g h l.v.v.b.z.b.C -XeX5X7XwX6X0X5X5X5X5X5X5X5X5X5X5X5X5X5X5X5X5XrXwX0X0XwXwX0XqX0X0XwXrX4XG c m c c m c x m c c v H x n n v I >.>.:.H m l x r z z c x x x c N x 0 q 0 q q 0 q 0 0 q q q 0 l q j H J l N n m N M n x x x x c c c c x m m l x N z N m N J z c | >.=.U D t m z z z M c c c c c c n x x x x x x x c z c x c x x z z J m N N l m q q J r N l v c q D xXu.lX+.X.@._ _ =.X.t.lXlXi.y u r q l c r z q u ..lXlXu.p.e.a.4.w c B c m z z z x x x x x x x c x x x x x x z v | ,.#.:.G c z m x c n n x x c c c x x x x x x x x x x x x x x x x x c c c c n n n t G | -.^ &.^ %.-.#.:.>.R G z w 9XeX5XwX6X0X6X5X5X5X5X5X5X5X5X5X5X5X5X5X5X5X5X5X5X5X5X5X5X5X5X5X5X5X5X5X5X5X5X5X5X5X5X5X5X5X5X5X5X5X5X5X5X5X5X5X5X5X5X5X5X5X5X5X5X5X5X5X5X5X5X5X5X5X5X5X5X5X5X5X5X5X5X5X5X5X5X5X5X5X5X5X5X5X5X5X5X5X5X5X5X5X5X5X5X5X5X5X5X5X5X5X5X5X5X5X5X5X5X5X5X5X5X5X5X5X5X5X5X5X5X5X5X5X5X5X5X5X5X5X5X5X5X5X5X5X5X5X5X5X5X5X8X7X7X5X5X0X0X6XeXuX1Xc.j.W.B.F.H.H.H.H.H.H.L.H.H.H.H.H.H.H.H.H.L.L.L.J.J.H.J.J.Q.K.B.S.S.V.R.9X7X7X7X7X7X6X7X6X6X6X6X5X6X7X7XqXqXqXqXqXqXqX0X6X6X6X6XqX6XtX .C v.v.v.v.v.z.b.v.v.v.v.v.v.v.b.v.v.v.v.v.v.v.v.v.v.v.v.v.n.c.A.D.L.L.L.L.L.L.H.H.H.H.H.H.L.L.L.L.L.L.L.H.H.G.H.H.H.H.H.H.H.G.G.G.U.J.H.G.D.A.v.z.x.b.n.n.n.v.v.v.v.v.n.b.b.z.c.^.|.).).^.^.~.).).).).).).).).).).).).).).).).).).).).).).).).).).).).).).).).).).).).).).).).).).).).).).).).).).).).).).).).).).).).).).).).).).).).).).).).).).).).).).).).).).).).).).).).).).).).).).).).).).).).).).).).).).).).).).).).).).).).).).).).).).).).).).).).).).).",
"eX8XeXeX5XuXyXC D.J.K.K.H.L.J.J.H.H.H.H.H.H.L.L.L.L.L.L.H.L.H.A.eX3.7XwXwX6X5X5XeXeX5X5X5X5X5X5X6X0XqX5X7X7X5XuX-XC Z.Z xXmXnXvXZ n.Z.v.A.m.T uX0XwX7XwXrX9XT l.z.Z.z.x.T uX6X;.i.nXmXNXA V z.Z.v.Z.Z.V h h g h h h l.Z.b.b.z.b.C -XeX5X7XwX6X0X5X5X5X5X5X5X5X5X5X5X5X5X5X5X5X5X6X6X6X5X0XwX5X6X5X6X0XeX4Xw r l x x n x l x c c v c z n b t I ,.>.:.G t t H c H G G M t M M r l n m x N N B B B b n J c m n M z q N r N H G c z x x x x x c c c c x c c z z m N J m N M r v / 2.3./ G z N z z z z x x x x x x x x x x x x x x x x x c c c c c c r q m c J x l x v c m t M z e M lXp.lX+.U _ _ ` _ P 6.y.a.kXr l B x J m M z B q { lXa.r.r.9.a.4.w c x c n z M z z x x x x x x x c x x x x z z D Y 3.=.,.t z b N x x c c x x x c x c x x x x x x x x x x x x c x z M x c c c x x z v L $.,.=.1.=.! ( ) ` 2.U w t w 9XrX7XwX6X7X5X5X5X5X5X5X5X5X5X5X5X5X5X5X5X5X5X5X5X5X5X5X5X5X5X5X5X5X5X5X5X5X5X5X5X5X5X5X5X5X5X5X5X5X5X5X5X5X5X5X5X5X5X5X5X5X5X5X5X5X5X5X5X5X5X5X5X5X5X5X5X5X5X5X5X5X5X5X5X5X5X5X5X5X5X5X5X5X5X5X5X5X5X5X5X5X5X5X5X5X5X5X5X5X5X5X5X5X5X5X5X5X5X5X5X5X5X5X5X5X5X5X5X5X5X5X5X5X5X5X5X5X5X5X5X5X5X5X5X5X5X5X5X5X5X6X6X7X6X5X5X7X7X3.3.wX9Xc.M.Q.W.K.H.H.H.H.H.H.L.H.H.H.H.H.H.H.H.L.L.U.U.H.J.J.H.I.U.L.G.S.M.M.>XuX6X5XeX5X5XeXeX0X7X7X7X5X5X5XeX0X0X0X0X5X5X7X7X6X5XeX5XeXeXyX;Xm.v.v.v.v.v.z.b.v.v.v.v.v.v.v.v.v.v.v.v.v.v.v.v.z.z.v.v.v.n.n.A.L.J.J.J.J.J.J.J.J.J.J.J.J.J.J.J.J.J.J.J.J.J.J.J.J.J.J.J.J.J.J.J.J.J.Q.J.U.D.A.n.b.b.v.v.v.v.v.v.b.v.v.n.b.b.z.c.^.|.).).^.^.~.).).).).).).).).).).).).).).).).).).).).).).).).).).).).).).).).).).).).).).).).).).).).).).).).).).).).).).).).).).).).).).).).).).).).).).).).).).).).).).).).).).).).).).).).).).).).).).).).).).).).).).).).).).).).).).).).).).).).).).).).).).).).).).).).).).).",
"3.3.wXwX6XeXyX+XA.D.L.L.D.U.P.J.P.L.L.L.L.L.L.L.L.L.L.L.L.L.L.A.yXqX,.0XwX3.wX5XeX5X5X5X5X5X5X5X6X0XqX5X7X7X5XuX-XC +XZ xXnXnXvXZ n.v.v.Z.C T uX6X6X6X5X0X9XC z.z.Z.z.x.C uXqX<.xXxXNXcXC l.v.n.z.Z.Z.V Z g V g g Z l.Z.b.b.b.b.C -XeX5X5X0X6X0X0X5X5X5X5X5X5X5X5X5X5X5X5X5X5X5X6X6X6X6X5X5X6X6X5X6X6XeX<.w v z r r l l r r l r z n l n n t I >.%.$.D t c J x n J J N l t H y t z x z x x l l N r t m r n r H H t H e n c v c x x n n x x x c c m x z c c x c c x l z z t G R $.:.R G M n l z c c x x x x x x x x x c x x x x x x x x z c c c c m x m q m z c J x m z t m z l H lXq.lXO.U -.&.&.>.P 6.y.y.jXq B N v m r M z J t ..zXa.a.a.a.zXhXw M x n n x m x x x x x x x x x m c x c c x z v U 3.$.| D z r l z x c c x x x n x c x x x x x x x x x x c c c n z z x c c c x x m v G | :.^ =.=.2.=.*.$.:.R G J w qXrX7X0X6X7X5X5X5X5X5X5X5X5X5X5X5X5X5X5X5X5X5X5X5X5X5X5X5X5X5X5X5X5X5X5X5X5X5X5X5X5X5X5X5X5X5X5X5X5X5X5X5X5X5X5X5X5X5X5X5X5X5X5X5X5X5X5X5X5X5X5X5X5X5X5X5X5X5X5X5X5X5X5X5X5X5X5X5X5X5X5X5X5X5X5X5X5X5X5X5X5X5X5X5X5X5X5X5X5X5X5X5X5X5X5X5X5X5X5X5X5X5X5X5X5X5X5X5X5X5X5X5X5X5X5X5X5X5X5X5X5X5X5X5X5X5X5X5X5X5XqXqX6X6X6X5X7X7XrX6XeXyXZ.k.D.S.H.H.L.H.H.G.H.L.H.H.H.H.H.H.H.H.F.J.H.H.H.J.K.H.G.D.D.D.Y.D.R.>XeX3.3.wX3.3.7X7X7X3.3.3.3.7X7X3.3.3.3.3.3.3.3.3.wX7X7X3.3.3.rXR C v.v.v.b.v.z.b.v.v.v.v.v.v.b.v.v.v.v.v.v.v.v.v.v.v.v.v.v.n.n.A.U.J.J.J.J.J.J.J.J.J.J.J.J.J.J.J.J.J.J.J.J.J.J.J.J.J.J.J.J.J.J.J.J.J.J.H.L.D.A.A.v.v.v.v.v.v.v.b.b.v.v.n.b.b.z.c.^.|.).).^.^.~.).).).).).).).).).).).).).).).).).).).).).).).).).).).).).).).).).).).).).).).).).).).).).).).).).).).).).).).).).).).).).).).).).).).).).).).).).).).).).).).).).).).).).).).).).).).).).).).).).).).).).).).).).).).).).).).).).).).).).).).).).).).).).).).).).).).",
"eX4XyX1XA.R.!.K.J.J.J.H.S.S.F.F.K.J.J.J.J.J.J.J.J.J.J.J.J.J.J.L.R.R.Z.,XyX6XwX5X5X5X7X7X5X5X5X5X6X0XqX5X7X7X5XuX-XC b.Z xXnXnXvXZ n.b.z.Z.C T uXeXeXeXeX0X9XC A.z.z.A.C N DXxXlXkX6.6.hXC l.b.b.l.z.A.V h h g h g Z l.Z.z.b.b.b.C -XeX5X5X0X6X0X5X5X5X5X5X5X5X5X5X5X5X5X5X5X5X5XrXrX0X0X0X0XwXrXrX0X0XrX0XY U / $.$.$.$.| | | K z n z m n t Y =.%.$.D z n k 7 4 6 6 5 7 v  .| <.G x c x x v v K |  .T 0 8 7 J | |  .v m m z n n x x x x x x x x N x x c m c c x M z K | | | I K K J z x n l c N x x x x x x x x x x x c x x x x n n x z c c z c x n N z J m z z n N l M M z q H xXr.lX;.Q >.%.o.^ P t.a.y.jXw x m z m m N c v q m ..H H { { { M r n x n n z N c x x x x x x x x m c c c m c x z H K H K R $.| I v x n n x c c c x c x x x x c x x x x x c c c x z z x c x x x x n z z J K L U #.) ^ L G H c r v w 9XeX6X0X6X0X5X5X5X5X5X5X5X5X5X5X5X5X5X5X5X5X5X5X5X5X5X5X5X5X5X5X5X5X5X5X5X5X5X5X5X5X5X5X5X5X5X5X5X5X5X5X5X5X5X5X5X5X5X5X5X5X5X5X5X5X5X5X5X5X5X5X5X5X5X5X5X5X5X5X5X5X5X5X5X5X5X5X5X5X5X5X5X5X5X5X5X5X5X5X5X5X5X5X5X5X5X5X5X5X5X5X5X5X5X5X5X5X5X5X5X5X5X5X5X5X5X5X5X5X5X5X5X5X5X5X5X5X5X5X5X5X5X5X5X5X5X5X5X5X5X5X5X6X5X7X5XeXyX,Xc.R.R.K.Q.Q.H.H.L.L.H.G.G.H.L.H.H.H.H.H.H.H.H.H.H.H.L.L.L.J.J.H.S.H.F.F.F.S.U.R.Z.#XyXyXyX1X>XdXdXdXdXdXdXdXdXdXdXdXdXdXdXdXdXdXdX>X,XyX9XyX#Xm.v.v.v.b.b.z.b.v.v.v.v.v.v.v.v.v.v.v.v.v.v.v.v.v.v.v.v.v.v.n.n.c.c.c.c.c.c.c.c.c.A.c.c.c.c.c.c.c.c.c.c.A.A.c.A.c.c.c.c.A.A.c.A.A.A.A.A.A.c.n.v.v.v.v.v.v.n.v.v.v.v.v.n.b.b.z.c.^.|.).).^.^.~.).).).).).).).).).).).).).).).).).).).).).).).).).).).).).).).).).).).).).).).).).).).).).).).).).).).).).).).).).).).).).).).).).).).).).).).).).).).).).).).).).).).).).).).).).).).).).).).).).).).).).).).).).).).).).).).).).).).).).).).).).).).).).).).).).).).",
"7X5XuX,Xk.j.B.B.J.U.U.U.L.G.S.H.H.U.U.U.U.U.U.U.U.U.U.U.U.U.U.J.B.B.j.>XyX6X0X6X5XeX7X7X5X5X5X5X6X0XqX5X7X7X5XuX-XC b.Z xXnXnXvXZ n.b.b.Z.C T uXeX5XeX6X7XeXC c.n.n.n.x.N HXNXNXkX,.,.uXC v.Z.n.b.v.Z.V g g g g g h l.Z.z.v.b.b.C -XeX5X5X0X6X0X5X5X5X5X5X5X0X0X5X5X5X0X5X5X5X5X6X6X6X6X6X6X6X5X6X5X5XwX7X^ 1.1.] ] ] ] ] ` >.Y t n z m n v U 2.( $.t b b e X % & & & o w -.@.<.H z m M t t G | 2.-.{ o X o { 6X>.:.t M z z l x x x x x x x x x x x x x m m x z n t I ,.,.$.L q r n l x m x N N x x x z x x x x x x x x x x x x z z x x x x x x z m z n l m z m l l n m z m r H lX9.lXO.~ ` @.*.>.P 6.u.q.u.w x m z r x l N N J j l 0 j j l l j x c z x z z m x x x x x x x x x c x x c m m x z l l l t :.>.2.U D z n n m c c c x x x x x x x x x x x x c c x c z z c x n n x x x x r z r w I :.=.#.G r m z n c w 9XeX6X0X6X0X5X5X5X5X5X5X5X5X5X5X5X5X5X5X5X5X5X5X5X5X5X5X5X5X5X5X5X5X5X5X5X5X5X5X5X5X5X5X5X5X5X5X5X5X5X5X5X5X5X5X5X5X5X5X5X5X5X5X5X5X5X5X5X5X5X5X5X5X5X5X5X5X5X5X5X5X5X5X5X5X5X5X5X5X5X5X5X5X5X5X5X5X5X5X5X5X5X5X5X5X5X5X5X5X5X5X5X5X5X5X5X5X5X5X5X5X5X5X5X5X5X5X5X5X5X5X5X5X5X5X5X5X5X5X5X5X5X5X5X5X5X5X5X5X5X5X5X5X5X7X7XwXyX>XM.S.J.K.K.G.D.L.L.L.H.G.G.H.L.H.H.H.H.H.H.H.L.L.L.H.H.U.U.P.P.U.D.U.U.J.Q.U.P.B.M.c.1XyXyX1XR.(.oX(.(.[.[.(.(.oXoX(.(.oXoX(.(.(.(.!.>XyXeXuX;XC v.v.v.v.v.z.b.v.v.v.v.v.v.v.b.v.v.v.v.v.v.v.v.v.v.v.v.v.v.n.v.b.+X+X+X+X+X+X+X+X+X+X+X+X+X+X+X+X+X+X+X+X+X+X+X+X+X+X+X+X+X+X+X+X+Xb.+Xb.b.b.b.b.b.v.v.n.n.n.v.v.v.v.n.b.b.z.c.dX|.).).^.^.~.).).).).).).).).).).).).).).).).).).).).).).).).).).).).).).).).).).).).).).).).).).).).).).).).).).).).).).).).).).).).).).).).).).).).).).).).).).).).).).).).).).).).).).).).).).).).).).).).).).).).).).).).).).).).).).).).).).).).).).).).).).).).).).).).).).).",
"7XrXuX&Xk.J.Q.K.T.D.H.J.K.J.L.L.H.J.J.J.J.J.J.J.J.J.J.J.H.H.H.H.Y.D.k.,XuX3.wX3.6X0X7X7XeXeX0X0X6X0XqX5X7X7X5XuX-XC +XZ vXnXnXvXZ Z.n.v.Z.m.T uXeXwXwXwXrXuXC c.v.z.b.C b NXMXmXjX3.3.uXC z.z.x.b.z.c.Z h h h h g h l.Z.z.z.v.z.C -XeX5X7X0X6X0X5X5X5X5X5X5X5X0X0X0X0X0X0X0X5X5X6X5X5X5X5X6X5X0X6X0X6X5X6XW *.W %.%.@.-.*.#.$.L q z z x b v U 3.=.$.t l b e % 6 = * = o j 6X#.:.G l x x l l v | 2.3. .O 4 O I >._ #.t z m m n m x x x x x x x x l x x z x x x x M q I *.>.$.L z l N x c c x n l x x x z x x x x x x x x x x x z v v c x x x n z t m r J l m z c m z N m t J q D zXr.zX+.~ ` / ' _ Y 5.lXy.lXy l z H z J r N z m m H M J z N N m x c t z t t n x x x x x x x x x x x x x m m x x B l b q ,.( 2.U t l n m c G c c x x x x x x x x x x x x x c x c z z x n n n x c c N n N z w I ,.=.,.t r m z J c w 9XeX5XwX7X7X5X5X5X5X5X5X5X5X5X5X5X5X5X5X5X5X5X5X5X5X5X5X5X5X5X5X5X5X5X5X5X5X5X5X5X5X5X5X5X5X5X5X5X5X5X5X5X5X5X5X5X5X5X5X5X5X5X5X5X5X5X5X5X5X5X5X5X5X5X5X5X5X5X5X5X5X5X5X5X5X5X5X5X5X5X5X5X5X5X5X5X5X5X5X5X5X5X5X5X5X5X5X5X5X5X5X5X5X5X5X5X5X5X5X5X5X5X5X5X5X5X5X5X5X5X5X5X5X5X5X5X5X5X5X5X5X5X5X5X5X5X5X5X5X5X7X0XqXqX7X7XwXeX>XD.D.L.H.P.G.L.L.L.L.H.G.G.H.L.H.H.H.H.H.H.H.L.U.L.J.K.H.H.J.J.G.S.T.L.K.Q.J.S.P.D.#XyXrXeX1X>X|.}.dXdX].|.|.|.].].dX].].].].]. X}./.>XyXrXrXR C v.v.v.v.v.z.b.v.v.v.v.v.v.v.v.v.v.v.v.n.n.v.v.v.v.v.v.v.v.n.n.v.v.n.n.n.v.v.v.v.n.n.v.v.v.v.v.n.n.n.n.n.n.n.n.n.n.n.n.n.n.n.v.z.z.z.v.v.n.v.v.n.n.v.v.v.v.v.v.b.v.v.n.z.b.z.c.dX|.).).^.^.~.).).).).).).).).).).).).).).).).).).).).).).).).).).).).).).).).).).).).).).).).).).).).).).).).).).).).).).).).).).).).).).).).).).).).).).).).).).).).).).).).).).).).).).).).).).).).).).).).).).).).).).).).).).).).).).).).).).).).).).).).).).).).).).).).).).).",
"eXiX<X>XR.D.S.J.J.H.L.U.U.U.U.U.L.H.H.H.H.H.H.H.H.H.H.H.H.H.H.H.L.D.D.>XyX3X:.rX7X7X5XeX5X5X0XwX7X5XwX5X7X7X3.rX-XC b.Z vXnXnXxXZ v.v.Z.x.C ;X3X9X4XqXqX9X=X#Xx.b.z.x.C ..vXcXcXtX4.9X3X#Xx.Z.l.v.z.l.V V V V V V V l.c.v.v.v.x.C -XeX5X5X7X6X0X0X0X0X0X5X6X5X0X5X5X5X5X0X5X5X5X5X0X0X5X5X5X0X5X5XrX6XwX6X*.*.=.( %.*.W #.@.#.Y G c { q G G I <.| K I L } q % 2 & & 8 X w ,.@.$.H x l v I D  .G R  .N 7 4 o I ,.@.$.t z b b z z t H G H m l m v G G { m r x N l m t I #.%.-.G v z x z z z n n z r { D K z l n x z G c m m x n m x J z m l c z m n z l z n x x c n m N J z t t D kXkX4.6.;.X.&.o.O.O.t.q.a.kXw x x M M z z x x n m l x x x n l z H G K t l b x v m c c J r l { G L v c m v G N l z J H G | $.,.I w c H c c m c c m z n M n n x c t J L H { r N x l n b r I E K t l b n x v G I | | I K G v v m H w 9XeX6X7X5X0X5X5X5X5X5X5X5X5X5X5X5X5X5X5X5X5X5X5X5X5X5X5X5X5X5X5X5X5X5X5X5X5X5X5X5X5X5X5X5X5X5X5X5X5X5X5X5X5X5X6X6X5X0X5XeXeX5XrXrX0X0X5X7X7X7X5X6X6X5X5X5X5X6X5X5X5X5X5X5X5X5X5X5X5X5X5X5X5X5X5X5X5X5X5X5X5X5X5X5X5X5X5X5X5X5X5X5X5X5X5X5X5X5X5X5X5X5X5X5X5X5X5X5X5X5X5X5X5X5X5X5X5X5X5X5X5X5X5X5X5X5X5X5X5X5XwX7X3.wXeX4X3XyXA.C.H.Q.Q.U.U.L.H.H.H.H.H.H.H.H.H.H.H.H.H.H.H.H.H.H.H.H.H.H.H.H.G.P.H.G.L.L.G.G.U.k.Z.<XyXiX>XdX^.).).~.^.^.~.~.~.~.~.~.~.).).)._.dX>X>X<XiXyX;Xx.v.z.z.v.v.v.Z.n.v.v.v.b.b.z.v.v.v.v.v.v.v.v.v.v.v.v.v.v.v.v.v.v.v.v.v.v.v.v.v.v.v.v.v.v.v.v.v.v.v.v.v.v.v.v.v.v.v.v.v.v.v.v.v.v.v.v.v.v.v.v.v.v.v.v.v.v.v.v.z.z.b.x.l.R.R.D.D.^.^.].~.^.^.^.^.~.).).).).).).).).).).).).).).).).).).).).).).).).).).).).).).).).).).).).).).).).).).).).).).).).).).).).).).).).).).).).).).).).).).).).).).).).).).).).).).).).).).).).).).).).).).).).).).).).).).).).).).).).).).).).).).).).).).).).).).).).).).).).).).).).).",
"B.B.B.B.B.B.J.P.H.L.L.L.L.H.H.H.H.H.H.H.H.H.H.H.H.H.H.H.H.H.H.H.K.K.B.B.U.c.z.1X9X5XqXeX5X6X6X6X5X6XeXeXeXeX8XuX<XC b.Z vXnXnXxXZ c.Z.A.A.l.c.Z.l.m.V m.l.c.c.c.Z.n.n.m.m.l.m.V m.m.m.n.m.l.Z.v.Z.b.b.b.v.Z.Z.Z.v.v.v.v.v.v.b.b.C -XeX5X5XwX5X0X0X0X0X0X5X6X5X5X5X5X5X5X5X5X5X5X5X5X5X5X5X5X0X5X6X5X6XwX3./ ^ &.&.( %.^ -.W -.( -.,.<.G H v v v H L | U <.G O , 7 4 5 X q ,.%.*.G v v L ,./ <.q o - - . - o I 3.( $.w v x m c G L <.-.>.} v J t ,.>.,.R G c c z z q K :.=.,.L v m m H c z c c G L ,.#.,.K v c x v c z x x x z t v G x J c N v c c v c c N m c N z z z c n n n n q q u ..kXlXlXlXlXy.a.r.p.u.w x x z n x x x x x m c J N N J G K ,.#.,.L H N m m z x z H z L <.#.,.I G c v v z w | 2.-.^ 1.&.>.U t z c z z n M z H c z z l z c J G | >.=.| D G G m m c G -.^ <.I t n N n b r z H v v v z z l z z w 9XeX6XrX5X0X5X5X5X5X5X5X5X5X5X5X5X5X5X5X5X5X5X5X5X5X5X5X5X5X5X5X5X5X5X5X5X5X5X5X5X5X5X5X5X5X5X5X5X5X5X5X5X5X5XqX7X7X7X6X6X6X6X5X5X5X5X5X6X5X5X5X5X6X5X5X5X5X6X5X5X5X5X5X5X5X5X5X5X5X5X5X5X5X5X5X5X5X5X5X5X5X5X5X5X5X5X5X5X5X5X5X5X5X5X5X5X5X5X5X5X5X5X5X5X5X5X5X5X5X5X5X5X5X5X5X5X5X5X5X5X5X5X5X5X5X5X5X5X5X5XeXeX6XyX1Xc.k.D.L.J.Q.Q.J.H.H.J.H.H.H.H.H.H.H.H.H.H.H.H.H.H.H.H.H.H.H.H.H.H.H.H.G.P.H.G.L.L.G.J.Q.B.J.!.]..X!.!.{.{.].].]..X.X{.{.).}.).).).).{.(.[.(.}.}.|.pXR.n.#XZ.b.b.v.z.v.n.v.v.v.v.v.v.v.v.v.v.v.v.v.v.v.v.v.v.v.v.v.v.v.v.v.v.v.v.v.v.v.v.v.v.v.v.v.v.v.v.v.v.v.v.v.v.v.v.v.v.v.v.v.v.v.v.v.v.v.v.v.v.v.v.v.v.v.v.v.v.b.z.b.n.n.R.|.^._.^.^.~.~._._._._.).).).).).).).).).).).).).).).).).).).).).).).).).).).).).).).).).).).).).).).).).).).).).).).).).).).).).).).).).).).).).).).).).).).).).).).).).).).).).).).).).).).).).).).).).).).).).).).).).).).).).).).).).).).).).).).).).).).).).).).).).).).).).).).).).).",
"K.K.Q.Q.P.U.U.U.U.L.L.L.H.H.H.H.H.H.H.H.H.H.H.H.H.H.H.H.H.H.H.L.Y.Y.J.K.K.M.c.yX9X5XwXwXwX7X7X7XwX7X7X7X6X5X8XuX-XC +XB xXnXnXxXZ b.b.b.Z.z.z.l.Z.Z.n.n.Z.Z.Z.Z.Z.x.z.Z.Z.Z.n.N.c.c.c.n.z.x.x.x.x.b.v.b.b.b.b.Z.Z.b.b.z.x.z.b.+XC -XeX5X5X0X5X0X0X0X0X0X5X6X5X5X5X5X5X5X5X5X5X5X5X5X5X5X5X5X5X5X0X0X0XrX6X( ^ &.=.( ( ) =.Q 2.2.) 1./ t r b b b q G $.>.6XL O = , * = o w ,.( @.H l l J ,.6X<.u X & 3 & 9 o K >.-.$.t z b N b z w :.2.2.K q n q @.] 1.U t r z m m t L :.*.-.G q b b b l b n n G E >.=.,.I v c n z t b b n N m z c x l n l n l n c c c c x l l l c v c x m x x x J t u 4.zXp.9.9.r.9.r.9.p.u.y z x n x x x x x x z x m x z z t L ,._ =.E v n l n n N n n t L >.1.3.Y w l n n n v U ` =.( &.! =.Y t m c z M M v v z m z m n n n z w } >.>.| t c n n z r G >.) ,.I t c m m M l l z z x n n N n n z w 9XeX6XrX5X0X5X5X5X5X5X5X5X5X5X5X5X5X5X5X5X5X5X5X5X5X5X5X5X5X5X5X5X5X5X5X5X5X5X5X5X5X5X5X5X5X5X5X5X5X5X5X5X5X5XeX5X5X5X5X5X0XrX7X7X7X5X5X5X5X5X5X5X6X6X5X5X5X5X5X5X5X5X5X5X5X5X5X5X5X5X5X5X5X5X5X5X5X5X5X5X5X5X5X5X5X5X5X5X5X5X5X5X5X5X5X5X5X5X5X5X5X5X5X5X5X5X5X5X5X5X5X5X5X5X5X5X5X5X5X5X5X5X5X5X5X5X5X5X5X5X3.7X7XuX1XA.M.B.Q.Q.J.H.S.S.H.H.H.H.H.H.H.H.H.H.H.H.H.H.H.H.H.H.H.H.H.H.H.H.H.H.H.L.H.G.L.L.G.P.P.K.J.(.{.{.`._._.dX^.^.^.^._.`.`.`._._.dXdX^.^._. X).`.(.(.}.U.c.z.z.x.z.z.z.v.v.v.v.v.v.v.v.v.v.v.v.v.v.v.v.v.v.v.v.v.v.v.v.v.v.v.v.v.v.v.v.v.v.v.v.v.v.v.v.v.v.v.v.v.v.v.v.v.v.v.v.v.v.v.v.v.v.v.v.v.v.v.v.v.v.v.v.v.v.v.v.v.v.b.n.n.R.pX|._._._.).).`._.`.).).).).).).).).).).).).).).).).).).).).).).).).).).).).).).).).).).).).).).).).).).).).).).).).).).).).).).).).).).).).).).).).).).).).).).).).).).).).).).).).).).).).).).).).).).).).).).).).).).).).).).).).).).).).).).).).).).).).).).).).).).).).).).).).).).).",
"L.L.L.P.Y.L.L.S.F.J.J.J.H.L.U.U.L.H.H.H.H.H.H.H.H.H.H.H.H.H.H.L.U.U.P.P.I.D.z.yX0XwX0X6X7XwXwXwXeXeXrX7X7X7X7XuX-XC +XB xXnXnXvXV N.n.n.b.#X#Xb.x.x.v.b.z.x.x.x.v.l.x.x.x.x.x.Z.#XZ.A.A.Z.b.v.v.v.v.v.v.v.z.z.z.x.z.z.v.v.v.v.b.C -XeX5X5X0X6X0X0X0X0X0X5X6X5X5X5X5X5X5X5X5X5X5X5X5X5X5X5X5X5X5X0X6X0XwX3.*.%.*.=.( ) &.*.Q ,.^ ,.6X| K w r r r l G $.*.,.G X - * % < 7 G 6X6XqXt r t J | 4X4Xq 7 = = * 6 o I ,./ | t z l l r q K <.,.,.I t v t ,.2.2.R v z z m m v I :.#.$.G t r r l z m z l v G :.^ :.K r b b t t z l l n z z n l z c l m l n n n n z l z c z n l b l z t t z N z y hXxXlXa.zXzXa.lXlXlXkXM z n x x x x x x x z z b l z v t G <.$.:.E z r t m w c l x z L <.>.<.K t r l r e q | *.,.-.3.1.7X$.G J J H N m v H v J c J J N J G t | -.*.| t x x n n l v ,.^ -.L t c c c m H G H m m n x n n z v w 9XeX6X7X5X0X5X5X5X5X5X5X5X5X5X5X5X5X5X5X5X5X5X5X5X5X5X5X5X5X5X5X5X5X5X5X5X5X5X5X5X5X5X5X5X5X5X5X5X5X5X5X5X5X5X5X7X7X7XwX5X6X0XrXrXrXrXrXrXrXrX5X5X6X6X5X5X5X5X5X5X5X5X5X5X5X5X5X5X5X5X5X5X5X5X5X5X5X5X5X5X5X5X5X5X5X5X5X5X5X5X5X5X5X5X5X5X5X5X5X5X5X5X5X5X5X5X5X5X5X5X5X5X5X5X5X5X5X5X5X5X5X5X5X5X5X5X5X5X5X5XwXqX6XuXiXZ.D.Y.P.P.U.L.S.S.L.U.L.H.H.H.H.H.H.H.H.H.H.H.H.H.H.H.H.H.H.H.H.H.H.H.H.L.H.H.L.H.G.L.D.M.L.~.].~.^.dX^.^.].}.}.`.`._.).~.~.~.^.^.~.~.~.|.^.|.^./.dXR.c.c.v.l.z.b.v.b.v.v.v.v.v.v.v.v.v.v.v.v.v.v.v.v.v.v.v.v.v.v.v.v.v.v.v.v.v.v.v.v.v.v.v.v.v.v.v.v.v.v.v.v.v.v.v.v.v.v.v.v.v.v.v.v.v.v.v.v.v.v.v.v.v.v.v.v.v.v.v.v.z.Z.z.c.R.^.~.(.~.~.}.).).).).~.).).).).).).).).).).).).).).).).).).).).).).).).).).).).).).).).).).).).).).).).).).).).).).).).).).).).).).).).).).).).).).).).).).).).).).).).).).).).).).).).).).).).).).).).).).).).).).).).).).).).).).).).).).).).).).).).).).).).).).).).).).).).).).).).).).",
"F.F.F.S.H.J.P.J.J.J.J.J.H.H.H.H.H.H.H.H.H.H.H.H.H.H.H.H.H.H.H.H.J.J.F.F.L.k.z.yX9XeX,XZ.Z.R.Z.R.Z.,XyX5X6X5X5XuX-XC n.V xXnXnXxXZ R.n.c.z.z.v.z.b.v.Z.v.c.c.A.Z.c.v.n.Z.n.b.b.b.z.n.c.l.n.n.c.c.v.v.Z.Z.b.b.b.v.v.v.Z.Z.Z.v.z.z.C -XeX5X5X0X5X0X0X0X0X0X5X5X5X5X5X5X5X0X5X0X5X5X0X5X5X5X5X5X5X5X0X>.>.,.>.*.^ ^ %.%.&.*.*./ ,.L u 0 q  .| R | | I U $.^ ,.G X = = = = . 4 k 0 0 | | R K 0 e k 4 X $ # * 9 o K ,.@.*.U | U | R | K 0 0 0 v | I | L G L G t x x m z t L -.@.#.U U U U U R R L t v L ,.^ :.K t z v | U | K v x z c z v K $.R | G z c c c c G I | | K z m v I U } } t M r { { { { { { { { { { ..z N n z x x c c x x x x n c I | U W #.#.,.L v v L | R | J m c v L L K I | | | | | | I L K L K L K v 7 0 e 8 8 8 e n n n 0 7 7 0 N H G | :.#.| G G c c c z G ,.^ ,.I v n x l z M z z x z z z z c c G w 9XeX6XrX6X0X5X5X5X5X5X5X5X5X5X5X5X5X5X5X5X5X5X5X5X5X5X5X5X5X5X5X5X5X5X5X5X5X5X5X5X5X5X5X5X5X5X5X5X5X5X5X5X5X5XqXwX6X6X9X%XT ;X#X#X#X#X#X#X#XT eX0X5X6X6X5X5X5X5X5X5X5X5X5X5X5X5X5X5X5X5X5X5X5X5X5X5X5X5X5X5X5X5X5X5X5X5X5X5X5X5X5X5X5X5X5X5X5X5X5X5X5X5X5X5X5X5X5X5X5X5X5X5X5X5X5X5X5X5X5X5X5X5X5X5X5X6X6X5XeXyX&X#XR.R.M.D.U.J.J.J.H.H.H.P.P.H.H.H.H.H.H.H.H.H.H.H.H.H.H.H.H.H.H.H.H.H.H.H.H.H.L.H.H.L.G.G.P.!.Q.!. X_._.^.^.~.).}.).).).^.^.~.~.].~.].).}.}.(.}.).).~.^.|./.R.E.R.c.v.v.v.v.v.v.v.v.z.z.v.v.v.v.v.v.v.v.v.v.v.v.v.v.v.v.v.v.v.v.v.v.v.v.v.v.v.v.v.v.v.v.v.v.v.v.v.v.v.v.v.v.v.v.v.v.v.v.v.v.v.v.v.v.v.v.v.v.v.v.v.v.v.v.v.v.z.b.z.c.R.].~.`.~.~.].}.).).~.~.~.).).).).).).).).).).).).).).).).).).).).).).).).).).).).).).).).).).).).).).).).).).).).).).).).).).).).).).).).).).).).).).).).).).).).).).).).).).).).).).).).).).).).).).).).).).).).).).).).).).).).).).).).).).).).).).).).).).).).).).).).).).).).).).).).).",
"I.I.U.U.L.L.H.G.L.U.U.P.P.P.J.J.H.H.H.H.H.H.H.H.H.H.H.H.H.H.H.L.G.U.L.L.P.M.v.yXeXyX>XM.B.W.B.B.j.R.yX0X6X7X7XeX-XC Z.V vXnXnXxXZ +X+Xx.z.x.z.x.b.b.x.x.x.x.z.v.x.#Xb.z.z.c.n.l.n.Z.b.z.b.Z.z.z.v.v.v.v.v.v.z.z.b.b.b.b.v.z.v.z.C -XeX5X5X0X5X0X0X0X0X0X5X0X0X5X5X5X5X0X0X0X5X5X0X0X5X5X5X5X0X5XwX#./ _ ( *.^ @.^ -.&.%.#.$.<.q o X + 4X>.] ` ) =.*.=.^ ,.G O , = = = & & 3 $ o  .-.>.I o . & & 9 < < , 9 o K >.! ) ( 2.( =.=.>.$XO . o z qX#.6Xv b N x z m x x l v I ,.&.1.) 1.2.2.1.2.>.I z z D $.( -.K t c G ,.2.,.U v c m m z t U 3.>.:.G t z c c v G | 3.>.| v G D *.3.2.$.w J z x q j j j q q 0 q q t j B x z x c z z x n n n x G $.3.) 1.! ^ :.E t t K ,.=.,.L z x l c v w I >.2.] ] ] >.K l l r l l b 8 . & & @ & . 7 N x B 4 . . = N c w U #.:.| t x x z z l v -.^ -.I t n n z n n l l x x c m m m m G w 9XeX6X0X6X0XqX5X5X5X5X5X5X5X5X5X5X5X5X5X5X5X5X5X5X5X5X5X5X5X5X5X5X5X5X5X5X5X5X5X5X5X5X5X5X5X5X5X5X5X5X5X5X5X5XeXeX6XeXyX#XC c.c.c.c.c.c.c.k.l.yX0X5X6X6X5X5X5X5X5X5X5X5X5X5X5X5X5X5X5X5X5X5X5X5X5X5X5X5X5X5X5X5X5X5X5X5X5X5X5X5X5X5X5X5X5X5X5X5X5X5X5X5X5X5X5X5X5X5X5X5X5X5X5X5X5X5X5X5X5X5X5X5X5X5X5X6X5X5XeXyX#Xk.B.W.B.J.P.J.J.F.H.L.L.J.J.H.H.H.H.H.H.H.H.H.H.H.H.H.H.H.H.H.H.H.H.H.H.H.H.H.L.H.L.L.G.G.Y.sX|._.pX_._.|.|.)._._._._.^.~.~.^._.^._._._._._._._._._.`.`.`.`.|.pXR.Z.c.n.v.v.v.v.v.v.z.b.b.b.v.v.v.v.v.v.v.v.v.v.v.v.v.v.v.v.v.v.v.v.v.v.v.v.v.v.v.v.v.v.v.v.v.v.v.v.v.v.v.v.v.v.v.v.v.v.v.v.v.v.v.v.v.v.v.v.v.v.v.v.v.v.v.v.z.Z.v.c.E.|.`.`.).).).).).).~.~.~.).).).).).).).).).).).).).).).).).).).).).).).).).).).).).).).).).).).).).).).).).).).).).).).).).).).).).).).).).).).).).).).).).).).).).).).).).).).).).).).).).).).).).).).).).).).).).).).).).).).).).).).).).).).).).).).).).).).).).).).).).).).).).).).).).",
"H.G.S.F.S.F.F.F.F.F.F.H.U.U.U.U.L.H.H.H.H.H.H.H.H.H.H.H.H.H.H.H.M.G.H.J.Q.M.b.yXrXuX,Xc.D.I.L.Y.k.>XeXwXwXwX7XeX=XC n.V xXnXnXvXZ N.N.n.Z.n.n.n.l.l.v.b.Z.b.b.b.b.+Xx.z.z.z.Z.Z.l.z.Z.b.z.n.+Xn.b.b.b.b.v.v.v.v.z.z.z.z.z.z.b.+XC -XeX5X5X0X5X0X0X0X0X0X5X5X5X5X5X5X5X5X5X5X5X5X5X5X5X5X5X5X5X5XrX*.( _ ( *.%.*.%.*.( %.#.$.,.q % = + 4X>.2.1.2.1.=.1.( 6XG O , * = 4 4 2 2 , O | 2.3.| O * = 6 = % : % = O | 3.&.1.=.3.=.2.-.,.$X+ o o G 6X` ,.v l x x c G v x m v K >.&.&.) 1.) ) ( *.$.L r r G ,.=.,.K t M G >.) >.I t x l l b t Y >.*.:.G z c c m v G R >.-. .r l q | -.#.R t N x N z m c x m J B N z M z x z z x c c x x x x x l v / 2.! ) &.-.,.L v t L -.&.>.G r x z x z w | ,.1.1.] 1.,.K t c v x n N k % > * % * 4 0 T G J 7 = = 8 T L D @.3.>.| w z z n n z G ,.( >.I w c N c m m n z z z x c m c z t w 9XeX6X0X6X0X5X5X5X5X5X5X5X5X5X5X5X5X5X5X5X5X5X5X5X5X5X5X5X5X5X5X5X5X5X5X5X5X5X5X5X5X5X5X5X5X5X5X5X5X5X5X5X5X5X5XwX7X0XuX;XC b.v.n.b.b.x.z.v.+XuXrX5X6X6X5X5X5X5X5X5X5X5X5X5X5X5X5X5X5X5X5X5X5X5X5X5X5X5X5X5X5X5X5X5X5X5X5X5X5X5X5X5X5X5X5X5X5X5X5X5X5X5X5X5X5X5X5X5X5X5X5X5X5X5X5X5X5X5X5X5X5X5X5X5X5X5X5X5X0XuX;Xk.F.K.F.L.U.H.H.S.L.L.L.L.H.H.H.H.H.H.H.H.H.H.H.H.H.H.H.H.H.H.H.H.H.H.H.H.H.H.H.H.L.P.G.H.!.|./.R././.~..X}.}.).).).]..X.X{.{.{.{.{.{.}.].~.|.].].~.].|.}.}.|.pXR.N.c.v.z.z.v.v.v.v.v.v.z.v.v.v.v.v.v.v.v.v.v.v.v.v.v.v.v.v.v.v.v.v.v.v.v.v.v.v.v.v.v.v.v.v.v.v.v.v.v.v.v.v.v.v.v.v.v.v.v.v.v.v.v.v.v.v.v.v.v.v.v.v.v.v.v.v.v.Z.v.c.R.].).`.).).).).).).~.~.~.).).).).).).).).).).).).).).).).).).).).).).).).).).).).).).).).).).).).).).).).).).).).).).).).).).).).).).).).).).).).).).).).).).).).).).).).).).).).).).).).).).).).).).).).).).).).).).).).).).).).).).).).).).).).).).).).).).).).).).).).).).).).).).).).).",
"G.L.P.I.U.U.U.U.L.L.H.H.H.H.H.H.H.H.H.H.H.H.H.H.H.H.H.H.H.H.H.H.Y.L.S.S.P.M.x.yX4XyX>XM.J.P.S.D.M.>X9X6X6X0XeXuX-XC n.Z xXnXnXvXV n.v.z.z.x.z.z.Z.v.v.v.v.v.v.v.v.v.l.b.Z.z.Z.x.z.z.Z.Z.l.z.Z.v.v.v.z.z.v.v.v.v.z.v.v.Z.b.v.b.b.C -XeX5X5XwX6X0X0X0X0X0X5X5X5X5X5X5X5X5X5X5X5X5X5X5X5X5X5X5X5X5XwX#.*.=.( &.%.-.%.&.( _ ^ #.4Xq X 4 + 3X| @.@.@.@.%.=.W ,.G X , * * % * > 3 & X  .#.#.I o < * % = = 2 > , X K #.^ o.W -.! =.! $. .7 4 7 G ,.@.$.c x m c n n l x n v L :.@.%.^ %.*.#.@.#.:.L t v G :.W #.L r M v <.@.<.I v N c z b q Y >.^ $.G z c c N c v } >.#.R v J t $.*.*.$.t m z J x m z M r M l N z M c x z z c c c x x c v c z v | ,.X.%.Q X.:.L v z L :.( ,.H l N v v G t } @.^ @.@.^ $.{ t H c z z N e % < * * - % 7 N l N 4 % % 7 N v D } $.@.| t c c z v r G ,.) >.I t n N z z z z z z z z x c m z G w 9XeX6XwX5X7X5X5X5X5X5X5X5X5X5X5X5X5X5X5X5X5X5X5X5X5X5X5X5X5X5X5X5X5X5X5X5X5X5X5X5X5X5X5X5X5X5X5X5X5X5X5X5X5X5X6X0X6XeXuX;XC Z.v.v.v.z.z.z.c.+XuXrX5X6X6X5X5X5X5X5X5X5X5X5X5X5X5X5X5X5X5X5X5X5X5X5X5X5X5X5X5X5X5X5X5X5X5X5X5X5X5X5X5X5X5X5X5X5X5X5X5X5X5X5X5X5X5X5X5X5X5X5X5X5X5X5X5X5X5X5X5X5X5X5X5X5X5X5X5XeXyX#Xk.J.Y.S.D.G.J.Q.J.J.J.H.L.L.L.H.H.H.H.H.H.H.H.H.H.H.H.H.H.H.H.H.H.H.H.H.H.H.L.H.H.L.P.G.H.!.|.~.~.|.|. X X`._._.~.~.~.~.^._.^.^.~.).).).).).~.~.~./.^._._._.~.dXE.Z.z.b.b.x.v.v.v.v.v.v.v.v.v.v.v.v.v.v.v.v.v.v.v.v.v.v.v.v.v.v.v.v.v.v.v.v.v.v.v.v.v.v.v.v.v.v.v.v.v.v.v.v.v.v.v.v.v.v.v.v.v.v.v.v.v.v.v.v.v.v.v.v.v.v.v.z.x.Z.x.c.R.].).`._._.).).).).~.~.~.).).).).).).).).).).).).).).).).).).).).).).).).).).).).).).).).).).).).).).).).).).).).).).).).).).).).).).).).).).).).).).).).).).).).).).).).).).).).).).).).).).).).).).).).).).).).).).).).).).).).).).).).).).).).).).).).).).).).).).).).).).).).).).).).).",
"H.H.H.H.H.H.H.H.H.H.H.H.H.H.H.H.H.H.H.H.H.H.H.H.H.H.H.H.G.G.L.P.H.H.J.J.J.J.J.K.B.B.F.J.J.J.H.J.F.B.B.B.B.B.B.M.D.A.N.V vXmXnXvXZ n.Z.v.z.l.v.v.Z.z.z.z.z.v.b.v.n.Z.m.z.l.v.x.+Xz.v.x.#Xz.Z.c.v.v.Z.v.Z.x.#Xz.v.+Xx.v.v.z.z.v.Z.C -XeX5X5X0X5X0X0X0X0X0X5X5X5X5X5X5X5X5X5X5X5X0X5X5X5X5X5X5X5X5XwX*.^ *.@.%.-.&.( =.( _ rXeXvXB X = * $ $ $ @ . $ & & & & # = = = = = = = = = = $ $ $ % % * * = = = = = * * & $ $ . . $ . . . X + <.3.3.I q l l r m v c z N l n z n l l l l r r r D <.@.&.=.2.3. .w r m l n l l b b q I >.>.,.D v t I -.) :.H l z x c m m x r q E >.2.( ) =.-.| w n n x n x l n b t / 2.2.:.H z x x N N b n v t v m l t $.-.#.} q l l l M t G <.@.o.1.1.3.#.D z b l l l l l l q U 2.=.>.D c G G H J H G J J k % & & & * > % $ $ . k b q L <.2.3.L r z t :.@.<.K t n N m z t I ,.1.>.G x N l H G D 9XeX6XeX6X7X7X5X5X5X5X5X5X5X5X5X5X5X5X5X5X5X5X5X5X5X5X5X5X5X5X5X5X5X5X5X5X5X5X5X5X5X5X5X5X5X5X5X5X5X5X5X5X5X5X6XeX6X5XuX;XC z.T uX0XuX;Xx.Z.x.uXwX6X6X0X0X5X0X5X5X5X5X5X5X5X5X5X5X5X5X5X5X5X5X5X5X5X5X5X5X5X5X5X5X5X5X5X5X5X5X5X5X5X5X5X5X5X5X5X5X5X5X5X5X5X5X5X5X5X5X5X5X5X5X5X5X5X5X5X5X5X5X5X5X5X5X5X5X5XeXuX#Xk.F.P.J.H.H.L.L.H.H.H.H.H.H.H.H.H.H.H.H.H.H.H.H.H.H.H.H.H.H.H.H.H.J.H.G.F.G.P.L.G.I.|.pX|.|.).).).).).).).).).).).).).).).).).).).).).).).).).).).).).).).).~.).[.[.XXpXR.c.b.x.v.Z.Z.c.z.z.z.v.v.v.v.v.v.v.v.v.v.v.v.v.v.v.Z.C T uX0XwXrXrXwXqXC z.C iXrXwXwXwXwXrX;Xm.z.z.z.z.C &XrXwXwXwXwXuX3XC Z.v.z.b.b.b.n.v.v.z.z.z.z.b.b.c.R.pX~._.^.^.).).)._.).).).).).).).).).).).).).).).).).).).).).).).).).).).).).).).).).).).).).).).).).).).).).).).).).).).).).).).).).).).).).).).).).).).).).).).).).).).).).).).).).).).).).).).).).).).).).).).).).).).).).).).).).).).).).).).).).).).).).).).).).).).).).).).).).).).).",
"H.H.H.H.H.H.H.H.H.H.H.H.H.H.H.H.H.H.H.H.H.H.H.H.G.L.L.L.G.G.L.L.G.G.G.G.G.G.G.G.H.H.L.H.G.G.L.P.J.J.J.K.J.F.K.G.D.A.N.Z xXnXnXxXZ n.b.b.b.b.#Xb.v.z.Z.Z.z.z.z.m.x.b.x.Z.A.Z.v.n.Z.Z.v.#Xz.Z.x.x.x.b.x.Z.x.Z.c.A.z.z.c.A.Z.b.x.+XC -XeX5X5X0X5X0X0X0X0X0X5X6X5X5X5X5X0X0X5X5X5X0X5X5X5X5X5X5X5X5XrX-.@.-.@.^ &.( =.=.! ( 0XqXuXl X * < * * = = = * & & & * * , , = = = = = = = = * * * * * = = = = = = = = * * % = = * = * * * % + 4X#.,.I w G x n b b N x J z z t z c c H J m n r G <.*.&.) ) *.<.D t c x m m N l n t R ,.2.:.D v v U >.1.>.G l n n x x l l b M G <.>.( %.*.*.| t m c v J c z m n t U ` =./ G z n n x x l n m N x N n t $.=.*.| v n b l z t L ,.&.! ) ! %.| t z b b x x l x n t U >.*.<.t M c c z n c c m N k X % * * = 6 < , < X k N v L :.1.2.K l z G >.=.>.L t x n m v G U 3.2.*.D r b b N x w 4XrX5X5X6X0X0X5X5X5X5X5X5X5X5X5X5X5X5X5X5X5X5X5X5X5X5X5X5X5X5X5X5X5X5X5X5X5X5X5X5X5X5X5X5X5X5X5X5X5X5X5X5X5X5X5XeX6XeXuX;XC x.T 9X0XeX;XC z.x.uXwX6X6X0X0X0X0X5X5X5X5X5X5X5X5X5X5X5X5X5X5X5X5X5X5X5X5X5X5X5X5X5X5X5X5X5X5X5X5X5X5X5X5X5X5X5X5X5X5X5X5X5X5X5X5X5X5X5X5X5X5X5X5X5X5X5X5X5X5X5X5X5X5X5X5X5X5X5XeXuX#Xk.F.P.J.H.H.L.L.H.H.H.H.H.H.H.H.H.H.H.H.H.H.H.H.H.H.H.H.H.H.H.H.H.P.J.H.P.P.S.S.M.I.~.|.|._.).).).).).).).).).).).).).).).).).).).).).).).).).).).).).).).^.^._.).).|.^.R.l.x.x.z.v.v.v.v.Z.v.v.v.v.v.v.v.v.v.v.v.v.v.v.v.v.Z.x.;XuX5X7X7X8XwXeXx.N.m.1XeX7X5X5X6XeX,Xx.+X+X+X+Xm.,XuX6X5X5X6XeX=XC A.c.c.A.v.v.A.v.v.z.b.b.b.b.b.c.R.pX~.).^.^.).).)._.).).).).).).).).).).).).).).).).).).).).).).).).).).).).).).).).).).).).).).).).).).).).).).).).).).).).).).).).).).).).).).).).).).).).).).).).).).).).).).).).).).).).).).).).).).).).).).).).).).).).).).).).).).).).).).).).).).).).).).).).).).).).).).).).).).).).",
"H.H.H.H.H.H.H.H.H.H.H.H.H.H.H.H.L.L.L.L.L.L.L.L.L.P.P.P.L.L.L.P.L.L.H.H.H.H.H.H.H.P.P.P.H.H.P.P.L.L.P.P.J.P.P.U.A.c.n.B xXnXnXxXZ n.b.b.b.b.#Xz.Z.Z.Z.Z.Z.Z.Z.b.n.Z.c.c.k.A.c.m.c.l.l.n.c.A.c.n.n.n.c.Z.l.l.k.k.l.c.c.c.A.n.n.b.C -XeX5X5X0X6X0X0X0X0X0X0X5X0X0X5X5X0X5X5X5X5X5X5X5X5X5X0X5X5X5X5X*.^ @.W W ^ W ^ Q ^ =.0XqXuXl O = = % = = = 6 = = = = = = = = = = = = = = = = = = = = = = * = = = = = = = * * , , , , , , = 4 + 4X$.<.{ q H v x r r x l x r l r z b l x c z z H K ,.=.1.2.2.,.| G v m c c c c z J t I ,.:.$.E w q K $.^ #.G z c c c c z z z G I >.2.1.2.2.2.<.t z z z m z r z r t U >.,.$.G z l l z t z z l x z c x t $.*.@.| r r r l r r L <.>.&.1.=.%.U t t z z v c x x n v I -.*.:.t z z z l l c c x B e O % = & & = = * = X k N v K $.1.,.H r r t $.@.:.L v n n x v G Y >.>.$.G t l r r q w 4XrX5X5X6X0X0X0X5X5X5X5X5X5X5X5X5X5X5X5X5X5X5X5X5X5X5X5X5X5X5X5X5X5X5X5X5X5X5X5X5X5X5X5X5X5X5X5X5X5X5X5X5X5X5X5X0X6XeXuX;XC x.T yXeXuX;Xx.v.+XuXwX6X6X0X0X5X0X5X5X5X5X5X5X5X5X5X5X5X5X5X5X5X5X5X5X5X5X5X5X5X5X5X5X5X5X5X5X5X5X5X5X5X5X5X5X5X5X5X5X5X5X5X5X5X5X5X5X5X5X5X5X5X5X5X5X5X5X5X5X5X5X5X5X5X5X5X5X5XeXuX#Xk.F.P.L.H.H.L.L.H.H.H.H.H.H.H.H.H.H.H.H.H.H.H.H.H.H.H.H.H.H.H.H.H.H.H.H.H.L.G.G.G.I.!.).~._.).).).).).).).).).).).).).).).).).).).).).).).).).).).).).).)._._._.^.^.^./.R.c.c.z.z.z.z.v.v.n.v.v.v.v.v.v.v.v.v.v.v.v.v.v.v.v.v.C T uXqX6X6X6XrX9Xx.c.C &XeX3.0XqX3.eX&Xm.z.z.v.v.C &XeX6X0X0X7XuX3XC b.v.z.z.z.z.z.z.v.v.b.b.b.b.b.c.R.pX~.).^.^.).).)._.).).).).).).).).).).).).).).).).).).).).).).).).).).).).).).).).).).).).).).).).).).).).).).).).).).).).).).).).).).).).).).).).).).).).).).).).).).).).).).).).).).).).).).).).).).).).).).).).).).).).).).).).).).).).).).).).).).).).).).).).).).).).).).).).).).).).",
"H.H.H.H.H.H.H.H.H.H.H.H.H.H.H.H.L.L.L.L.L.L.H.H.G.H.H.H.G.G.G.G.H.H.H.H.H.H.H.H.S.G.G.H.H.G.G.S.H.H.L.L.H.H.J.U.D.A.N.Z vXmXnXvXZ n.b.z.v.Z.z.V V V V V V V A.v.v.b.z.x.C &X%X3X%X%X%X-X+Xz.v.v.v.z.x.&X%X%X%X%X3X-X#Xx.x.x.z.+XC -XeX5X5X0X6X0X0X0X0X0X0X0X5X0X5X5X5X5X5X5X5X5X5X5X5X5X0X5X5X5XwX,.,.3.3.3.3.,.,.>.6X6X0X4XuXl X * # # > > * = = = = = = = = = = = = = = = = = = = = * * * * * = = = = = = = = = * * * = = * 4 + 4X$.,.} w G G | R | I t m G  .R | K v z x l n t v I L I K K K K v z M n z z z z N r H } K I I U Y W -.*.$.H z c c c m m x l l G K K K K K K K r l z x m z G K } I I K I K v z z H } I I G c z c N n v $.-.%.X.Y I U R I I I I K K / *.-.*.U I I L G G m x z t U -.*.:.t z z x z z m c c N l 0 k k 4 - = * * = % k N z c K K K U U | U -.( #.I v c x x z z G K H K I U U R <.| | qX0X6XrX5X0X0X5X5X5X5X5X5X5X5X5X5X5X5X5X5X5X5X5X5X5X5X5X5X5X5X5X5X5X5X5X5X5X5X5X5X5X5X5X5X5X5X5X5X5X5X5X5X5X5X5X5X6XeXeX;XC v.C &X;X;XZ.l.c.C uX7X6X6X0X6X5X0X5X5X5X5X5X5X5X5X5X5X5X5X5X5X5X5X5X5X5X5X5X5X5X5X5X5X5X5X5X5X5X5X5X5X5X5X5X5X5X5X5X5X5X5X5X5X5X5X5X5X5X5X5X5X5X5X5X5X5X5X5X5X5X5X5X5X5X5X5X5X5XeXuX#Xk.F.P.L.H.L.L.L.H.H.H.H.H.H.H.H.H.H.H.H.H.H.H.H.H.H.H.H.H.H.H.H.H.H.H.H.G.S.Q.!.!.!.~.).~._.).).).).).).).).).).).).).).).).).).).).).).).).).).).).).).).).`.`.~.~.^.|./.R.R.R.A.v.Z.b.z.v.v.v.v.v.v.v.v.v.v.v.v.v.v.v.v.b.+X+XT uXeXeXrXwXrXeXC Z.C -XuX7XwXwX7XeX&XC z.b.b.b.C &XuX7XwXwX6XuX-XC +Xn.b.l.b.b.b.z.z.z.v.v.v.b.b.c.R.pX~.).^.^.).).)._.).).).).).).).).).).).).).).).).).).).).).).).).).).).).).).).).).).).).).).).).).).).).).).).).).).).).).).).).).).).).).).).).).).).).).).).).).).).).).).).).).).).).).).).).).).).).).).).).).).).).).).).).).).).).).).).).).).).).).).).).).).).).).).).).).).).).",
"H.H.H.H.H.H.H.H.H.H.H.H.H.H.H.H.H.H.H.H.H.H.H.H.H.H.P.J.H.H.H.H.L.L.L.L.L.L.U.U.U.U.L.L.L.L.G.G.S.G.G.H.G.H.J.U.D.A.N.Z vXmXnXvXZ n.Z.v.v.Z.l.h g h h h a g c.v.z.z.b.+XT yXrXrXrXrXrXuX+Xx.z.v.l.x.T yXrXrXrXrXwXeX;XC b.x.v.+XC -XeX5X5XwX6X0X0X0X0X0X5X6X5X0X5X5X5X5X5X5X5X5X0X0X5X5X5X5X5X5XrX6X0XrXrXrXrXrXrX0XrX6XqX9XuXl X , 6 6 , = * * = = = = * * = = = = = = = = = = * * * * * * * * = = = = = = = = = = = = = = = % +  .Q ` I t m t :.=.>.U q z G #.2.2.R G v c x m l r z r l r r e z z l n M n n x n N l z z w G $.,.) &.=.) :.G r m x z x c c c x l b r r l r v v v m m c c G L >.2.>.K w t c z c G I ,.>.:.L G c n z z t | %.o.! &.&.2.1.1.>.| w r t I #.*.=.=.*.,.I G v m m c w U =._ >.t x c c n c m c c N m z J N 7 - = = < 4 X k N l l b r q W 1.,.%.&.&.-.I t c x x n l l M r c $.,.=.7XrXrX0XrX6X5XrX6X5X5X5X5X5X5X5X5X5X5X5X5X5X5X5X5X5X5X5X5X5X5X5X5X5X5X5X5X5X5X5X5X5X5X5X5X5X5X5X5X5X5X5X5X5X5X5X5X5X5X8X5X6XeXeX;XC c.c.Z.C x.c.c.v.C uXwX6X6X0X0X5X0X5X5X5X5X5X5X5X5X5X5X5X5X5X5X5X5X5X5X5X5X5X5X5X5X5X5X5X5X5X5X5X5X5X5X5X5X5X5X5X5X5X5X5X5X5X5X5X5X5X5X5X5X5X5X5X5X5X5X5X5X5X5X5X5X5X5X5X5X5X5X5XeXuX#XD.F.P.P.H.L.H.H.H.H.H.H.H.H.H.H.H.H.H.H.H.H.H.H.H.H.H.H.H.H.G.L.L.L.L.P.L.S.~.}.|.).|.).~._.).).).).).).).).).).).).).).).).).).).).).).).).).).).).).).).).).).~.~._.|.|.).pX^.Z.z.Z.b.x.z.v.v.v.v.v.v.v.v.v.v.v.v.v.v.v.n.n.x.@XuXeX6X8X5XrX4XC v.C <XuX8X6X8X8XuX&XC z.b.b.z.C ,XuX8X8X6X6XeX*XC v.Z.Z.n.v.b.b.b.b.b.z.v.v.b.b.c.R.pX~.).^.^.).).)._.).).).).).).).).).).).).).).).).).).).).).).).).).).).).).).).).).).).).).).).).).).).).).).).).).).).).).).).).).).).).).).).).).).).).).).).).).).).).).).).).).).).).).).).).).).).).).).).).).).).).).).).).).).).).).).).).).).).).).).).).).).).).).).).).).).).).",
"H.H.H.H.H.H.H.H.H.H.H.H.H.H.H.H.H.H.H.H.H.H.H.H.G.G.L.L.L.H.G.H.G.G.G.G.G.G.G.G.L.H.G.G.G.H.P.P.H.U.U.U.H.H.J.U.D.Z.N.Z xXmXnXvXZ n.Z.b.Z.Z.l.a g g g V h V Z.Z.v.n.n.x.T yXeX8X6X6XeXyX+Xl.n.Z.l.x.C yXrX7X7X0X6XyX+Xm.A.c.n.b.C -XeX5X5XwX5X0X0X0X0X0X5X6X5X5X5X5X5X5X5X5X0X0X5X0X5X5X0X5X5X5X6X6X6X0XeX5X5X5XqX6X0X6X0XeXuXl   & * $ $ * = 6 = = = = = * = > = = = = = = = = * * = = = = = , = = = = = = = = = = = = = = = 4 + <.3.3.I r r t -.1.2.Q t m D $.#.:.{ t z v v x N b z r m c J J z N m n c z m c c c c c z w G <.-.( ( ) ) >.G l n l l l l x m N z c z z n x J G N N x z r q G :.^ #.K r l n b x w K ,.=.$.D v c z z v D $.=.1.&.-.=.=.) &.,.| w c G | 3.=.) ) W <.K q r l b z t I >._ ,.v n c c n z z x z c m m m N 7 X % % = 4 O l { J m c x t U -.-.%.) =.>.I t z n n m x z x l G $.>.Q >.6X6XwX5X6XwXwX6X6X0X5X5X5X5X5X5X5X5X5X5X5X5X5X5X5X5X5X5X5X5X5X5X5X5X5X5X5X5X5X5X5X5X5X5X5X5X5X5X5X5X5X5X5X5X5X5X5X5X5X0X6XeXeX;XC n.Z.Z.m.x.c.Z.Z.+XuXwX6X6X0X0X5X0X5X5X5X5X5X5X5X5X5X5X5X5X5X5X5X5X5X5X5X5X5X5X5X5X5X5X5X5X5X5X5X5X5X5X5X5X5X5X5X5X5X5X5X5X5X5X5X5X5X5X5X5X5X5X5X5X5X5X5X5X5X5X5X5X5X5X5X5X5X5X5XeXuX#XD.F.P.P.H.L.H.H.H.H.H.H.H.H.H.H.H.H.H.H.H.H.H.H.H.H.H.H.H.H.H.L.L.G.G.U.G.M.~.|.|.).|.~.~._.).).).).).).).).).).).).).).).).).).).).).).).).).).).).).).).).|.).~.~._._.`.`.pX/.c.m.x.x.C x.z.v.v.v.v.v.v.v.v.v.v.v.v.v.v.v.l.x.T eXwXwXwXwXrX9XC z.C =XrXrXwXrXwXuX;XC z.l.z.z.C ;XuXwXrX7XrXrX3XC x.z.Z.Z.v.v.b.b.b.b.b.v.b.b.b.c.R.pX~.).^.^.).).)._.).).).).).).).).).).).).).).).).).).).).).).).).).).).).).).).).).).).).).).).).).).).).).).).).).).).).).).).).).).).).).).).).).).).).).).).).).).).).).).).).).).).).).).).).).).).).).).).).).).).).).).).).).).).).).).).).).).).).).).).).).).).).).).).).).).).).",
"H.H.H.H.H.H.H.H.H.H.H.H.H.H.H.H.H.H.H.H.H.H.L.H.S.G.U.U.U.U.U.U.H.H.H.H.H.G.G.G.H.G.G.G.H.H.H.G.L.L.P.P.J.J.J.U.D.A.N.Z xXmXnXvXZ n.Z.b.v.Z.A.h g g g V h Z v.v.x.b.Z.x.T uXrX6X7X3.wXuXT m.b.b.x.x.C yXrX7X7X7XwXuX#Xm.#Xz.x.+XC -XeX5X5X0X5X0X0X0X0X0X5X6X5X5X5X5X5X5X5X5X5X0X5X5X5X5X0X5X5X5X5X0X0X0X0X5X5XeX6X6XrX6XrX6XeXH   & X . % 9 & . & * - - = = = = = = = = = = = = = = = = = = = = = = = = = = = = = = = = = = * 4 0  .<.| K K G L :.$.:.R G c t <.#.>.{ t c H c N z z G G J q l b r J m c c z m z c v H H m c G | :.*.#.*./ :.H N z m J J m n b b r H H H b l n n B b z c J G L | #.-.K t G c r l t K ,.@.<.D z m m H J G | $.*.-.:.:.#.^ / *.R G G G R ,.U Q -.^ @.Y G H m l l z I -.*.>.v x c c n l z n z z n x n N 4 . , > < = 4 k b l z c J G $.>.=._ _ *.#.I t c m z c c c m l t $.=.Q 3.qXqX6X6X0X0X6X6X5X0X5X5X5X5X5X5X5X5X5X5X5X5X5X5X5X5X5X5X5X5X5X5X5X5X5X5X5X5X5X5X5X5X5X5X5X5X5X5X5X5X5X5X5X5X5X5X5X5X5X0X6XeXuX;XC v.C +XT @Xx.z.l.+XuXwX6X6X0X0X5X0X0X5X5X5X5X5X5X5X5X5X5X5X5X5X5X5X5X5X5X5X5X5X5X5X5X5X5X5X5X5X5X5X5X5X5X5X5X5X5X5X5X5X5X5X5X5X5X5X5X5X5X5X5X5X5X5X5X5X5X5X5X5X5X5X5X5X5X5X5X5X5XeXuX#Xk.F.P.P.H.H.H.H.H.H.H.H.H.H.H.H.H.H.H.H.H.H.H.H.H.H.H.H.H.H.L.P.G.S.G.I.I.U.!.~.~.~._.~.~._.).).).).).).).).).).).).).).).).).).).).).).).).).).).).).).).)._.)._._.~.~._._.^./.R.c.Z.v.l.z.v.v.v.v.v.v.v.v.v.v.v.v.v.v.v.b.b.+XT 9X6X0XeXeXeX9X+X#XT =XeXqX0XeX8XeX;Xx.#X+X+X#Xx.;XeX8XrXeXeXiX-XT +Xx.x.x.z.v.v.n.b.b.v.v.b.b.b.c.R.pX~.).^.^.).).)._.).).).).).).).).).).).).).).).).).).).).).).).).).).).).).).).).).).).).).).).).).).).).).).).).).).).).).).).).).).).).).).).).).).).).).).).).).).).).).).).).).).).).).).).).).).).).).).).).).).).).).).).).).).).).).).).).).).).).).).).).).).).).).).).).).).).).",
"H.H.H.H.H.H.H.H.H.H.H.H.H.H.H.H.H.H.H.H.L.L.L.U.!.~.}.}.}.}.|.|.|.|.|.|.|.|.|.|.|.|.|.pX|.~.I.U.H.H.J.J.J.J.H.G.D.A.N.B xXmXnXxXB n.Z.z.l.A.A.h g g g V a Z Z.b.v.n.Z.m.T yXeX6X0X3.0XuX+Xc.Z.n.Z.z.C iXeX6XqX0X6XuX+XC Z.z.z.b.C -XeX5X5XwX6X0X0X0X0X0X5X6X5X5X5X5X0X0X5X5X5X5X5X5X5X5X5X5X5X5X6X0X0X6X6X6X0XrX0X6XrX6XwX6XuX6XrXrXrXrXuXyXJ O 4 - - * * - = = = = = = = = = = = = = = = * * * , = = = * * = = = = = = = = = * @ 2 X O t <.:.4XO . & & . X O  .#.,.} t z m z n v K :.4X .q O o 7 b b z m z M b m z m z x n j c l l r r t J e b v I :.>./ I v t U #.>.#.K v c x n v G R ,.#.) 2./ ,.*.*.3./ L H v K >./ <.D t z v c b e n l v c l l b l r M b l b r z H w G $.-.3.` *.,.| L v t I -._ >.v x c c N x n m n z x z c N 7 % < > 2 & . < X X 7 k N l r l r b l l n l l n n z v v x n b v ,.2.~ 3.0X6X5X5X0X6X6XrXrX5X5X5X5X5X5X5X5X5X5X5X5X5X5X5X5X5X5X5X5X5X5X5X5X5X5X5X5X5X5X5X5X5X5X5X5X5X5X5X5X5X5X5X5X5X5X5X5X5X5X0X6XeXuX;XC +X#XyXuXuX;Xx.l.+XuXwX6X6X0X0X5X0X0X0X5X5X5X5X5X5X5X5X5X5X5X5X5X5X5X5X5X5X5X5X5X5X5X5X5X5X5X5X5X5X5X5X5X5X5X5X5X5X5X5X5X5X5X5X5X5X5X5X5X5X5X5X5X5X5X5X5X5X5X5X5X5X5X5X5X5X5X5X5XeXuX#Xk.F.P.P.H.H.H.H.H.H.H.H.H.H.H.H.H.H.H.H.H.H.H.H.H.H.H.H.H.H.G.L.G.G.Y..X}.|.~.|.).).|._.~._.).).).).).).).).).).).).).).).).).).).).).).).).).).).).).).).)._._._.|.).).].|.~.pX|.^.dXR.c.Z.v.v.v.v.v.v.v.v.v.v.v.v.v.v.v.n.n.n.m.Z.l.c.c.l.C b.k.R.m.v.v.m.c.c.l.b.l.k.Z.z.z.Z.k.l.b.m.c.k.l.A.A.l.Z.n.z.z.z.v.n.n.v.v.z.z.b.b.b.c.R.pX~.).^.^.).).)._.).).).).).).).).).).).).).).).).).).).).).).).).).).).).).).).).).).).).).).).).).).).).).).).).).).).).).).).).).).).).).).).).).).).).).).).).).).).).).).).).).).).).).).).).).).).).).).).).).).).).).).).).).).).).).).).).).).).).).).).).).).).).).).).).).).).).",
"H.H.H.H.H.H.H.H.H.H.H.G.G.H.J.H.H.H.G.G.G.L.U.G.U.}.}.~.|.).~.|.).).).).).)._._.).~.).}.}.!.Y.G.L.P.P.P.H.H.J.U.D.A.n.Z vXmXMXvXC N.z.z.n.n.A.h a V g V g g Z.b.z.A.l.C T yXuX8X7X3.7XeXC l.A.A.b.x.T iXeX7X3.7X0XuX#Xm.A.Z.z.b.C -XeX5X5X0X6X0X0X0X0X0X5X5X5X5X5X5X0X0X5X5X5X5X5X5X5X5X5X5X5X5X6X6X6X6X5X5X5X0X5X5X6X6X6XrX0X5X0X6XwX7XrXuXJ O 6 = 8 = 4 4 6 % * , * * * = , = = = = = = = = = = = = = = = = = = = = = = = = = , * & o t ,.>.:.O % , & * % o  .^ *.| w G m x J v L :.#.<.q O 4 7 N l m c x c c z x n z z n b b n B x x x x x z t K >.` $.L t m G <.#.,.G v v c x N q  .3.! @.X.@.( 1.! ( $.v n z K #.=.-.L x n l z m z l b l m x c n n x x x c c m l M t G <.-.` ` ( ,. .v z v I -.>.$.G b z c c c x x m m z c m N 4 % 2 2 , < = % * 4 7 N x m c c c c n n b n z z v z z m c z m v $.%.W >.rX5XwXwX0X0XrX0X6X5X5X5X5X5X5X5X5X5X5X5X5X5X5X5X5X5X5X5X5X5X5X5X5X5X5X5X5X5X5X5X5X5X5X5X5X5X5X5X5X5X5X5X5X5X5X5X5X5XqX0X5XeXyX;XC b.T uX0XeX;XC Z.x.uXwX6X5X0X5X5X5X5X5X0X0X5X5X5X5X5X5X5X5X5X5X5X5X5X5X5X5X5X5X5X5X5X5X5X5X5X5X5X5X5X5X5X5X5X5X5X5X5X5X5X5X5X5X5X5X5X5X5X5X5X5X5X5X5X5X5X5X5X5X5X5X5X5X5X5X5X5X5XeXuX#Xk.F.P.P.H.L.L.L.H.H.H.H.H.H.G.H.H.H.G.H.H.H.L.L.L.L.L.L.L.L.L.L.I.M.I.}.|.~._._._._.).).}.).).).).).).).).).).).).).).).).).).).).).).).).).).).).).).).).).).).^._.).).).).~.~.~.|.].R.c.v.b.v.v.v.v.v.v.v.v.v.v.v.v.v.v.v.Z.z.n.z.v.Z.z.z.v.c.v.Z.v.n.n.n.n.v.v.z.z.v.v.l.l.n.v.z.v.v.v.v.v.v.v.v.v.v.b.b.b.b.v.v.v.b.b.b.v.Z.b.c.R.].).)._.`.}.}.`.`.).|.).).).).).).).).).).).).).).).).).).).).).).).).).).).).).).).).).).).).).).).).).).).).).).).).).).).).).).).).).).).).).).).).).).).).).).).).).).).).).).).).).).).).).).).).).).).).).).).).).).).).).).).).).).).).).).).).).).).).).).).).).).).).).).).).).).",
"L.L.L.L.H.H.H.H.P.P.P.P.L.L.H.G.S.G.L.G.G.G.S.M.I.|.}.~.|.).~._.).).).).).)._._.|._.~.~.~.'.U.M.G.G.G.G.G.H.P.U.D.A.n.Z vXnXnXvXZ Z.v.v.v.c.l.a a a a h h h A.v.n.n.n.+XT eX0X7XwXwXrXuX+Xb.n.n.b.+X+XyXeXrXwXrXwXeX;XC b.b.b.+XC -XeX5X5X0X5X0X0X0X0X0X5X5X5X5X5X5X5X0X5X5X5X5X5X5X5X5X5X5X5X5XeX0X6X6XqXqX6X6XeX0X0X0X0X0X6X6X0X6X0XqXeX9Xn o .   . . % $ $ 3 = < , , < = * * = = = = = = = = = = = = = = = = = = = = = = = = * * = 7 J qX6X9X7 - & & % 7 0 $X0X6X| t q r r N v L >.*.<.q X % X b l n l l b n n m m m c c c x c c c c x x n n r K <.#.<.H q q L -.( ,.G l b n q t t I >.] 2.2.1.1.3.1.2.:.G G w I ,.,.$.D w z m z c c c m c H c c n x x x x x l n l m G L >.1.2.2.>.,.| G r w I *.=.^ v x z c m m x x b l r z r b X . & # $ & > 2 3 # 4 B k l n z x c c c m c m H m z z n c z x v $.=.^ >.rX6X0X5X6X6X6X6X5XrX5X5X5X5X5X5X5X5X5X5X5X5X5X5X5X5X5X5X5X5X5X5X5X5X5X5X5X5X5X5X5X5X5X5X5X5X5X5X5X5X5X5X5X5X5X5X5X5X0XwX7XrXuX;XC +XT yXeXuX;XC z.C eXwX6X5X0X5X5X5X5X5X0X0X5X5X5X5X5X5X5X5X5X5X5X5X5X5X5X5X5X5X5X5X5X5X5X5X5X5X5X5X5X5X5X5X5X5X5X5X5X5X5X5X5X5X5X5X5X5X5X5X5X5X5X5X5X5X5X5X5X5X5X5X5X5X5X5X5X5X5XeXuX#Xk.F.P.L.H.L.L.L.H.H.H.H.H.H.P.P.P.L.H.H.L.H.H.H.L.L.L.L.L.L.H.H.L.S.I. X|.|._._._._.).).).).).).).).).).).).).).).).).).).).).).).).).).).).).).).).).).).).).).^._.).).).).~.~.~.|.].R.c.z.v.v.v.v.v.v.v.v.v.v.v.v.v.v.v.v.b.z.b.b.b.Z.x.Z.b.b.b.b.z.b.b.z.v.z.b.b.b.b.b.b.b.b.b.b.b.b.z.v.v.v.v.v.v.v.b.b.v.v.v.v.v.b.b.b.x.b.x.c.R.|.|.|._.).}.}.).^.^.^.).).).).).).).).).).).).).).).).).).).).).).).).).).).).).).).).).).).).).).).).).).).).).).).).).).).).).).).).).).).).).).).).).).).).).).).).).).).).).).).).).).).).).).).).).).).).).).).).).).).).).).).).).).).).).).).).).).).).).).).).).).).).).).).).).).",
"L.L.L.L.H.H.H.H.G.G.G.H.H.H.G.G.G.Y.!.!.'.'.'.'.'.|.|.~._._.~._.).).).).).).).)._.).~.).}.~.!.I.!.I.U.U.H.P.J.U.D.A.n.B vXmXnXvXZ N.n.n.n.c.A.V l.l.V l.k.l.#XZ.c.z.A.Z.+X<X&X*X;X;X;X&XC A.z.v.c.n.v.>X;X;X;X;X;X;X+Xl.z.l.n.#XC -XeX5X5X0X5X0X0X0X0X0X5X5X5X5X5X5X5X5X5X5X0X0X5X0X5X5X5X5X5X5X5X5X6X6X5XrXrX5X6X6X6X5XwX7XwXwXrX7X7X6X0XeX .G J J J J ..k % 5 * = % % = * % , = = = = = = = = = = = = = = = = = = = = = = = = * # * X 0 N x B X & * 6 * % O k v j G | K { M l c L :.#.<.0 X % 7  .I R J z n n z x z z x x x x x c c c c x c c t K =.) =.Q Y Y U %.( ,.G l n c I I I I I I I I I K I K I K t z z J } K I I I | J t v v c z z z x x n x x x x x z m l m z G } I I I I I } I I I $.#.=.$.v n m z m x z x M v G } I  .e e k e 4 = % , , O 0  .| } H z v z c x n b b l l z z c G G m G -.) ~ =.rX0X0X0X0XwXwXwXrX6X5X5X5X5X5X5X5X5X5X5X5X5X5X5X5X5X5X5X5X5X5X5X5X5X5X5X5X5X5X5X5X5X5X5X5X5X5X5X5X5X5X5X5X5X5X5X5X5X5XwX6X0XeX;XC z.x.&X&X<X#Xb.z.+XeXwX6X5X0X5X5X5X5X5X0X0X5X5X5X5X5X5X5X5X5X5X5X5X5X5X5X5X5X5X5X5X5X5X5X5X5X5X5X5X5X5X5X5X5X5X5X5X5X5X5X5X5X5X5X5X5X5X5X5X5X5X5X5X5X5X5X5X0X5X5X5X5X5X5X5X5X5X5XeXuX#Xk.F.P.L.H.L.L.H.H.H.H.H.H.H.G.G.G.G.G.G.L.L.G.G.G.G.G.G.G.G.H.G.H.M.U.}.~.~.)._._._.).).).).).).).).).).).).).).).).).).).).).).).).).).).).).).).).).).).).).).^._.).).).).~.~.~.|.].R.c.z.z.v.v.v.v.v.v.v.v.v.v.v.v.v.v.v.v.c.n.v.c.v.l.v.z.n.n.n.v.Z.Z.Z.A.n.v.n.b.z.z.z.z.z.v.b.n.v.v.Z.v.v.v.v.v.v.v.v.v.v.v.v.v.v.b.b.b.#Xz.c./.|.}.}.).).).).^.^.^.^.~.).).).).).).).).).).).).).).).).).).).).).).).).).).).).).).).).).).).).).).).).).).).).).).).).).).).).).).).).).).).).).).).).).).).).).).).).).).).).).).).).).).).).).).).).).).).).).).).).).).).).).).).).).).).).).).).).).).).).).).).).).).).).).).).).).",
"L.L.L.L.L.L.H.H.H.H.H.P.P.P.P.P.G.!.}. X|.|.|.|.~.|._.~._._.^._.).).).).).).).).).~.~.|.|.|.}.{. X!.U.U.H.L.J.G.D.A.n.Z vXmXnXvXZ b.b.x.+X+X#Xb.Z.#XZ.#X#Xb.+Xx.n.n.n.N.m.n.m.l.k.c.c.n.l.c.n.n.x.Z.m.v.C l.k.m.z.b.v.Z.Z.x.b.b.C -XeX5X5X0X5X0X0X0X0X0X5X5X5X5X5X5X5X5X5X5X5X5X5X0X5X5X5X5X5X5X0X0X0XqX6X6X6X6X0X0X0X0XrX6X0XeXqXqXqXqX6XrXrXrXuXuXuXrXcXT O 4 , , , * = = % , = = = = = = = = = = = = = = = = = = = = = = = = < , & & & % X X & 3 * 6 # , * = . X q 6X-.,.K z z L :.*.<.0 X % 0 4X>.>.I v m m v G c m z z H J c x n n n n x x x K >.! &.&.-.>.%.&.( ,.G r z L 6X>.-.L q r e e r r r r l l r n z l q w G $.,.,.I w c c m x N m z x x x c x x c c m z n l l n l e r r q L $.2.2.^ / *.$.t z m x n z z m m G I ,.=.3.L H J l O - * < = O 0 <.,.,.H l M z c v H v J J N N n b l n l t <.=.) 2.rXqX6X6X3.qXqXqXeX6X5X5X5X5X5X5X5X5X5X5X5X5X5X5X5X5X5X5X5X5X5X5X5X5X5X5X5X5X5X5X5X5X5X5X5X5X5X5X5X5X5X5X5X5X5X5X5X5X5X0X6XeXuX;XC v.c.c.m.z.m.n.m.C eX7X6X5X0X5X5X5X5X5X0X0X5X5X5X5X5X5X5X5X5X5X5X5X5X5X5X5X5X5X5X5X5X5X5X5X5X5X5X5X5X5X5X5X5X5X5X5X5X5X5X5X5X5X5X5X5X5X5X5X5X5X5X5X5X5X5X5X0X0X5X5X5X5X0X5X5X5X5XeXuX#Xk.F.P.J.H.L.H.H.H.H.H.H.H.H.P.H.G.L.L.L.P.P.L.L.L.L.H.H.H.H.P.P.P.G.I.}.|.).).).).).).).).).).).).).).).).).).).).).).).).).).).).).).).).).).).).).).).).).).).^._.).).).).~.~.~.|.dXR.c.z.v.v.v.v.v.v.v.v.v.v.v.v.v.v.v.z.x.x.b.b.+X+X+X+Xv.Z.z.x.x.x.x.x.x.x.b.b.+Xb.b.Z.Z.b.b.+Xb.b.x.x.b.v.v.v.v.v.v.v.v.v.v.v.v.v.v.b.b.b.l.c.R.}.).~.).).)._.^.^.^._.).).).).).).).).).).).).).).).).).).).).).).).).).).).).).).).).).).).).).).).).).).).).).).).).).).).).).).).).).).).).).).).).).).).).).).).).).).).).).).).).).).).).).).).).).).).).).).).).).).).).).).).).).).).).).).).).).).).).).).).).).).).).).).).).).).",
"L.L.H.H.H.H.H.H.P.H.H.H.H.G.S.G.M.I.~.|.).).|.|.).|._.~._._.~._.).).).).).).).)._.~.~.~.).).~.~.|.'.M.S.G.H.J.U.D.A.N.Z vXmXnXvXV N.n.z.b.v.z.n.c.c.c.c.c.n.n.Z.x.x.x.Z.l.Z.z.A.l.A.m.n.l.A.Z.x.z.#Xl.Z.l.A.D.D.m.c.c.Z.Z.x.x.x.C -XeX5X5X0X6X0X0X0X0X0X5X5X5X5X5X5X5X5X5X5X5X5X5X5X5X5X5X5X0X5XwX7XrXrXwXrXrXrX7X0XwX5XrX6XrX0X6X0XwXwX7X6X7XwX7X8X7X6XvXJ   * . . * = = 1 * % = = = = = = = = = = = = = = = = = = = = = = = = = , , > , * % = & 1 = 6 % < & . 3 . 0 6X2.=.L t q J ,.,.6Xq X X u <.>.>.K w n x x J l z r r b l n x M M n x c c r K ,.) &.) ) ) 1.] ) >.H r z H >.` >.I w H H H c H c J J c G G t c H J E -.=.-.I t m z z r z l l z x c c c x n z n x m c c m z N J z t L $.>.) 1.1.2.>.D v c x n l z n z t K ,.W #.G v N l X & 3 3 % X 0 <.2.1.K c m z H r z l r l x x x x z c n v $.! ! 2.wXrXrXrX7X7X6X6X0X5X5X5X5X5X5X5X5X5X5X5X5X5X5X5X5X5X5X5X5X5X5X5X5X5X5X5X5X5X5X5X5X5X5X5X5X5X5X5X5X5X5X5X5X5X5X5X5X5X5XeX6XeXuX;Xm.Z.A.A.m.c.c.R.v.+XeXwX6X5X0X5X5X5X5X5X0X0X5X5X5X5X5X5X5X5X5X5X5X5X5X5X5X5X5X5X5X5X5X5X5X5X5X5X5X5X5X5X5X5X5X5X5X5X5X5X5X5X5X5X5X5X5X5X5X5X5X5X5X5X5X5X5X5X5X5X5X5X5X5X5X0X5X5X5XeXuX#Xk.F.P.P.H.L.H.H.H.H.H.H.H.H.P.H.G.H.G.G.S.G.S.S.G.G.S.S.F.F.S.S.G.S.I.~.}.|.).).).).).).).).).).).).).).).).).).).).).).).).).).).).).).).).).).).).).).).).).).^._.).).).).~.|.~.|.dXR.c.z.v.v.v.v.v.v.v.v.v.v.v.v.v.v.v.v.Z.z.z.n.n.n.c.c.c.A.c.l.v.v.n.Z.v.Z.n.c.z.l.l.c.c.l.l.z.c.n.Z.v.v.b.v.v.v.v.v.v.v.v.v.v.v.v.v.b.z.v.l.c./.|.|.|.).).`.).^.^.).`.).).).).).).).).).).).).).).).).).).).).).).).).).).).).).).).).).).).).).).).).).).).).).).).).).).).).).).).).).).).).).).).).).).).).).).).).).).).).).).).).).).).).).).).).).).).).).).).).).).).).).).).).).).).).).).).).).).).).).).).).).).).).).).).).).).",
"H.H.H.H.H.H.H.H.J.G.G.P.P.U.U.I.U.'.~.).~.~.~.~.|.|.~.~.~.~.~._._._.).).).).).).).).~.~.~.~.~.~.|.'.U.U.P.J.J.U.D.A.n.Z vXmXnXvXV Z.Z.c.Z.c.l.#Xm.m.z.m.b.b.l.c.Z.v.v.n.m.Z.n.x.m.v.x.#Xm.c.Z.n.Z.Z.l.b.x.C m.m.+X#Xc.c.A.c.c.b.C -XeX5X5X0X6X0X0X0X0X0X5X5X5X5X5X5X0X5X5X5X5X5X5X5X5X5X5X5X0X5XrX5X6X0X0XrXrXrXrXrXeX6XrX7XrX6XrXrXrXrXrXrXeXeXrXeXrX5X9XJ O O 8 . & * & < = = = = = = = = = = = = = = = = = = = = = = = = = = # # = , = = = 6 & , , 6 * < X 6 o O j 4X4X .K t G K | $.<.0 % X + <.*.>.K w m x z x r M H v M l z c z z c c G G c K ,.*.>.-.>.>.>.>.$.| L t t D <.:.<.I v m v v G J x B b l m z m n b N w <.-.-.I t m r J v G z z z x x c c c m z z n m m m J c t v c v K <.-.*.$.$.$.$.G x c c n x z m t t K >.#.:.G l N l O , # & % 7 e $X4X4XK c n l J t t r r n m v z c G G m v $.( 2.7XeXuX,.rXrX7X0X6X5X7X5X5X5X5X5X5X5X5X5X5X5X5X5X5X5X5X5X5X5X5X5X5X5X5X5X5X5X5X5X5X5X5X5X5X5X5X5X5X5X5X5X5X5X5X5X5X5X5X5X0X6XeXuX;XC b.C #XT +Xx.z.l.C uXwX6X5X0X5X5X5X5X5X0X0X5X5X5X5X5X5X5X5X5X5X5X5X5X5X5X5X5X5X5X5X5X5X5X5X5X5X5X5X5X5X5X5X5X5X5X5X5X5X5X5X5X5X5X5X5X5X5X5X5X5X5X5X5X5X5X5X5X5X5X5X5X5X0X0X5X5X5XeXuX#Xk.F.J.P.H.L.H.H.H.H.H.H.H.H.G.F.S.L.P.U.U.U.U.U.U.U.L.L.U.U.L.G.I.U.I.~.!.~.).).).).).).).).).).).).).).).).).).).).).).).).).).).).).).).).).).).).).).).).).).^._.).).).).^.|.~.|.dXR.c.z.v.v.v.v.v.v.v.v.v.v.v.v.v.v.v.v.Z.Z.c.c.c.m.b.b.l.x.l.x.z.m.l.c.n.Z.c.c.z.x.x.b.b.b.+Xz.c.c.Z.v.v.b.v.v.v.v.v.v.v.v.v.v.v.v.v.v.b.Z.v.Z.E.^.R.^.^.).}.`.^.^.`.}.).).).).).).).).).).).).).).).).).).).).).).).).).).).).).).).).).).).).).).).).).).).).).).).).).).).).).).).).).).).).).).).).).).).).).).).).).).).).).).).).).).).).).).).).).).).).).).).).).).).).).).).).).).).).).).).).).).).).).).).).).).).).).).).).).).",
"H.H.H.H.H.H.H.H.L.L.Y.!.|.).).|.~._.|.|.).|.|.).).~.~.~.~.~.~.).)._.).).).).).).~.~.~._._._.|.|.|.~.!.].!.P.J.U.D.A.n.Z vXmXnXxXZ b.#Xb.#XC T 3XeXeXuX5XeX9X+X+Xz.b.b.+XT 9XqX4.lXnXnXcX#Xm.b.m.x.x.T 3XeXeXeXrX5XeX#Xx.Z.z.x.+XC -XeX5X5X0X6X0X0X0X0X0X0X5X0X0X5X5X0X5X5X5X5X0X5X5X5X5X5X5X5XqX4XK v c v t t t r r t G 4X4XeX .q l q r z z x z w D 6XwXrXrXqXyX:X7 4 6 & = > < = = = = = = = = = = = = = = = = = = = = = = = = 2 2 , = - % = % 9 , * * - 4 7 :XvXuXT + + + I <.| I L v { 7 % = 0 4X:.<.K t J c c H v I $.#.| L G c z z z c c c r r H t t r z v t v v H U $.:.$.w t G z l b b n l b 7 4 = 4 b b N e X 7 +  .*.>.I t H v | $.:.| v z z z x x c m z c m z x n l l n n m z v G t t t v v J r n x c c c c m z t Y ,.=.>.G z N l X , 9 3 3 $ . 6 X % * $ - 0  .^ =.2.%.:.| L z b b b l t <.@.$.G + O u %XeX6XeXqXqX6X5X5X5X5X5X5X5X5X5X5X5X5X5X5X5X5X5X5X5X5X5X5X5X5X5X5X5X5X5X5X5X5X5X5X5X5X5X5X5X5X5X5X5X5X5X5X5X5X5X0X6XeXuX;XC b.#XyX9XyX;Xx.v.x.uXwX6X5X0X5X5X0X5X5X0X0X5X5X6X5X5X5X5X5X5X5X5X5X5X5X5X5X5X5X5X5X5X5X5X5X5X5X5X5X5X5X5X5X5X5X5X5X5X5X5X5X5X5X5X5X5X5X5X5X5X5X5X5X5X5X5X5X5X5X5X5X5X5X5X5X5X5X5XeXuX#XD.F.P.P.H.L.H.H.H.H.H.H.H.H.P.L.P.!.}.}.~.|.).).).).|.|.}.}.}.~.}.~.~.|.).|.).).).).).).).).).).).).).).).).).).).).).).).).).).).).).).).).).).).).).).).).).).^._.).).).).^.|.~.|.dXR.c.z.v.v.v.v.v.v.v.v.v.v.v.v.v.v.v.b.x.+Xx.Z.+XT =XuXeXeXeXeX9X;X+X#Xx.+Xx.T %X9X9XeX9X9X9X%XT x.#Xx.b.v.v.v.v.b.b.b.v.b.v.v.v.b.v.v.z.b.x.l.Z.c.c.N.^.).}.`.^.^.`.}.).).).).).).).).).).).).).).).).).).).).).).).).).).).).).).).).).).).).).).).).).).).).).).).).).).).).).).).).).).).).).).).).).).).).).).).).).).).).).).).).).).).).).).).).).).).).).).).).).).).).).).).).).).).).).).).).).).).).).).).).).).).).).).).).).).",
"L.L.H.H.H.H.H.H.G.G.Y.}.|._.~._.|.|.).~.~.|.|.~.~.~.).|.~.~.~.).)._.).).).).).).~.~.~.~.~.~.~.~.|.~.|.pX}.Q.J.U.D.A.n.B vXmXnXxXZ n.Z.n.n.x.;XuX0X7XwX7XrX9Xx.z.c.v.n.x.T yXuX,.i.bXmXnXT V b.+Xb.x.T yXrXwX3.7XwXuX#Xm.Z.Z.z.+XC -XeX5X5X0X6X0X0X0X0X0X0X0X5X0X5X5X5X5X5X5X5X0X0X5X5X5X5X5X5XqXeXK q z z z z l b r t G eXeXeXI q M z c m z n n l v eXwX3.7XrXeXvX0 X 6 * * * = = = = = = = 4 = = = = = = = = = = = = = = = = = * * % % & & - = = % = 6 6 O O yX0XuX&Xo X O U >.3.U t e A 4 % % u <.#.:.K t J c m c w I ,.>.$.D z n z M z z c z n r M r b l x l l n l t R 2.*.R t M l l n z z c m N 8 % $ = b x N 0 X 4 O  .#.>.I t G D >.2.>.R G z z z b n x m v c m z z z z c z z m z z n l b l b r n l n z c c c m m b t K #.( *.D r N b X * * * 6 6 % 1 $ > 3 $ X 7 <.=.) =.#.<.| L t c J c z G -.) ,.L o X o :XuX8X7X7XrXwX5X5X5X5X5X5X5X5X5X5X5X5X5X5X5X5X5X5X5X5X5X5X5X5X5X5X5X5X5X5X5X5X5X5X5X5X5X5X5X5X5X5X5X5X5X5X5X5XqXeX5XeXyX;XC +XT uX5XrX;XC Z.x.uXwX6X5X0X5X5X0X5X5X0X0X5X5X5X5X5X5X5X5X5X5X5X5X5X5X5X5X5X5X5X5X5X5X5X5X5X5X5X5X5X5X5X5X5X5X5X5X5X5X5X5X5X5X5X5X5X5X5X5X5X5X5X5X5X5X0X0X5X5X5X5X5X5X6X5X6X6X5XeXuX#XD.F.P.P.H.L.H.H.H.H.H.H.H.H.L.G.I.!.}.|.~._._._._._._._._._.).~.|.~.).|.~.).).).).).).).).).).).).).).).).).).).).).).).).).).).).).).).).).).).).).).).).).).).^._.).).).).^.^.~.|.dXR.c.z.v.v.v.v.v.v.v.v.v.v.v.v.v.v.v.v.z.n.A.A.m.C 3XuX7X7X7XrXeX;Xm.c.A.Z.l.C 4XrXrX7X7XrXrX%XC l.Z.n.v.v.v.v.b.b.b.b.b.b.v.v.v.b.b.v.b.Z.z.z.Z.v.l.n.dX^.}.`.^.^.|.|.).).).).).).).).).).).).).).).).).).).).).).).).).).).).).).).).).).).).).).).).).).).).).).).).).).).).).).).).).).).).).).).).).).).).).).).).).).).).).).).).).).).).).).).).).).).).).).).).).).).).).).).).).).).).).).).).).).).).).).).).).).).).).).).).).).",
"J.P.J.F.F.G.F.F.F.S.P.!.}.}.}.|.).).).).).).).).).).).).).).).).).).).).).).).).).).).).).).).).~.~.).).!.U.M.M.R.c.Z.V vXbXnXvXZ n.Z.l.Z.z.T eX8X8X8X8X0X9XC c.v.Z.c.#XT yX4XX.t.nXmXNXA l.>Xn.x.x.C yXuX7X7X7X6XuX#Xm.Z.c.n.b.C -XeX5X5XwX6X0X0X0X0X0X5X6X5X0X0X0X5X7X5X5X6X5X5XrXrXrXrXwXrXqXtXL 0 k k l r r r e q L tXkXuXI l e l l l l b l q v 9XeX0X6X6X9X9X7 o $ $ $ > 5 > 2 > . % . , . * , : # , , * = * * = , , = * * = , * * - - * = % 8 $ & % o O %XeXuX .o - 7 | 7X2.^ G c B 7 $ X 0 4X6X>.K q r r n G w I #.W 6XE L J m m r m z H H H K K H H n b b M t G #.7X3.>.L H H H H H H H K J e % X 7 n { { e O 4 O %X:.,.K r 0 D / 3.2./ t n l x H v r l r z l n G v m b b b b q n l z m m l z n c c m z z z t z M t E 2.( $.H 0 n k $ 3 = = * * - = 4 4 , 5 X 7 ,.3.3.3.3.2.,.G q x l l b z :.=.3.L X 6 O 9XeX0X6X6XqXeX5X5X5X5X5X5X5X5X5X5X5X5X5X5X5X5X5X5X5X5X5X5X5X5X5X5X5X5X5X5X5X5X5X5X5X5X5X0X0X0X5X5X5X5X5X5X5X5X0X0X6XeXuX;XC +XT uXrXuX;Xx.n.x.uXwX7X5X6X0X5X5X0X0X0X0X6X6X6X6X5X5X5X5X5X5X5X5X5X5X5X5X5X5X5X5X5X5X5X5X5X5X5X5X5X5X5X5X5X5X5X5X5X5X5X5X5X5X5X5X5X5X5X5X5X5X5X5X0X0X0X0X0X0X0X0X0X0X0X0X0X0X0XeXyX#XV.B.W.B.G.U.L.L.G.G.J.H.S.S.S.M.G.'.}.}.].}.}.}.).).).).).).).).).).).).).).).).).).).).).).).).).).).).).).).).).).).).).).).).).).).).).).).).).).).).).).).).^._.).).).).~.~.~.).].R.c.b.z.v.v.v.v.v.v.v.v.v.v.v.v.v.v.v.n.n.n.n.n.C 3XrX3.0X6X6XeX;XC n.n.n.N.m.%XuXqXqXqX3.wX:.m.c.m.m.m.x.x.x.m.m.m.m.m.m.x.x.x.m.m.m.x.x.b.b.b.b.Z.c.dX].}.).).`.`.`.).).).).).).).).).).).).).).).).).).).).).).).).).).).).).).).).).).).).).).).).).).).).).).).).).).).).).).).).).).).).).).).).).).).).).).).).).).).).).).).).).).).).).).).).).).).).).).).).).).).).).).).).).).).).).).).).).).).).).).).).).).).).).).).).).).",
"G.G.S.U.Q.!.'.'.!.'.!.).|.~.~._.).).).).).).).).).).).).).).).).).).).).).).).).).).).).).).).).~.~._._.|.!.'.!.R.c.N.Z xXbXmXvXC N.n.v.Z.l.T cXhXkXeX4XeXyXx.n.x.#XA.Z.N cXkXkXkXkXu.cXC x.Z.C Z.x.C iXeX5X6XrX6XuX#Xm.Z.z.x.+XC -XeX5X5XwX5X0X0X0X0X0X5X6X5X5X6X5X0XwX0X0X6X0XeXqX .| | $.6X2.6XU I R I K I I I I I R K K T K K I I I I K K K I I eX0X6X5X0XeXeXL x A k % % , & & % 6 A B A 7 % 2 2 2 5 6 = = = = = = * * * * , , = = = = , = = 6 % s N v G 9XqXuX .O - X J I { { r b N 0 % 4 7 ..K L I I } K v m t } ,./ <.0 e k l n x N e e e k e e e l n z x n n x G G J m 0 e e e e e k e e k 8 > * 6 k e k 7 % 4 O  .^ ( | K K I I } } K v m c c G v G I K K m z v v v v v J } I { v z z G v v z z z x z c G v z M t L ,.^ :.I L | v X = = = - * * * * * * < . - N J m m c v L K K K H v m t #.( ,.L X 6 + 9XeX6XqXwX7X7X5X5X5X5X5X5X5X5X5X5X5X5X5X5X5X5X5X5X5X5X5X5X5X5X5X5X5X5X5X5X5X5X5X5X5X5X5X5X5X5X5X5X5X5X5X5X5X5X6X0X6X0XeX;XC b.+X<X*X-X#Xb.v.x.yX0X6X6X6X5X5X5XeXeX0X0X0X0XeX0X5X5X5X5X5X5X5X5X5X5X5X5X5X5X5X5X5X5X5X5X5X5X5X5X5X5X5X5X5X5X5X5X5X5X5X5X5X5X5X5X5X5X5X5X5X5X5X5X5XqX5X5X5X5X5X5XqX0XqXqX0X0X0XeXeX-X#X>X>XD.M.U.H.J.J.J.J.J.J.P.!.'.'.~.|.}.~.}.).).).).).).).).).).).).).).).).).).).).).).).).).).).).).).).).).).).).).).).).).).).).).).).).).).).).).).).).).).^._.).).).).~.~.~.).].R.c.z.z.v.v.v.v.v.v.v.v.v.v.v.v.v.v.z.x.x.x.v.n.C 3XeX6X0X6XeXeX;XC Z.l.z.c.C %XrX5XrX0X6XrX3XZ.R.R.R.R.R.R.R.R.R.R.R.R.R.R.R.R.R.R.R.Z.c.c.v.v.v.n.c.^.|.).).).~.).).).).).).).).).).).).).).).).).).).).).).).).).).).).).).).).).).).).).).).).).).).).).).).).).).).).).).).).).).).).).).).).).).).).).).).).).).).).).).).).).).).).).).).).).).).).).).).).).).).).).).).).).).).).).).).).).).).).).).).).).).).).).).).).).).).).",
"Y.L.U.'.|.pX|.|.|.).).|._.~.~._.).).).).).).).).).).).).).).).).).).).).).).).).).).).).).).)._.~.~._._.|.~.).pXR.c.N.C xXnXnXxXZ l.b.b.#XC { CXNXNXkX,.wXeXC z.l.n.n.C B HXNXNXkX-.<.yX+Xn.n.z.Z.x.C iXeX5X5XrX5XuX+Xm.v.z.x.x.C -XeX5X5X0X5X0X0X0X0X0X5X6X5X5X5X5X0X0XqX6X6X7XrXqXG r r G #.Q &.! ) 1.1.=.;.-.1.1.,. .+   o r ,.1.1.2.1.1.2.2.&.^ wX7X7X6X0X0XrX5XrXcXT O O % = % O l uXuXyXl % , < 5 s 5 , * = , , = = = = = = = % * % % * % 6 % X B vXuX5XuX6XuX .O % o b m r l r b N 0 X - O N l w U -.2.:.v l t K >.#. .+ X % 7 b b b 4 . & & & . X k N N c n N k 7 X . . & & & & & # & & $ 3 2 1 i > > $ $ & & % O  .<.=.1.1.2.$.D q r r z c c x x v K ,.>.>.K z n n z H D I ,.*.| G v z J c m m m N N c z c m m M t K <.@.-.=.=.7XI O 6 = = = = = = = = 6 6 * $ 6 % $ @ $ % 0  .4X4XI v B v :.:.,.J X 5 O 9XuX6X6XeX8XeX5X5X5X5X5X5X5X5X5X5X5X5X5X5X5X5X5X5X5X5X5X5X5X5X5X5X5X5X5X5X5X5X5X5X5X5X5X5X5X5X5X5X5X5X5X5X5X5X5X5X6X0XeX;XC n.m.c.C x.l.n.c.+XeX0X5X6X6X5X5X0X5X5X0X0X0X0X0X5X5X5X5X5X5X5X5X5X5X5X5X5X5X5X5X5X5X5X5X5X5X5X5X5X5X5X5X5X5X5X5X5X5X5X5X5X5X5X5X5X5X5X5X5X5X5X5X5X0X0X0X5X5X5X5X5X0X0X0X0X0X0X0X5XwXwX6XuXyX#XC.Y.L.G.D.D.D.L.U.I. X|.~.).|.~.~.).).).).).).).).).).).).).).).).).).).).).).).).).).).).).).).).).).).).).).).).).).).).).).).).).).).).).).).).).).).^._.).).).).~.~.~.).pXR.c.b.z.v.v.v.v.v.v.v.v.v.v.v.v.v.v.z.A.z.v.c.v.C 3XrX6X0X6XeXuX;XC Z.c.c.A.l.;XuXeXeXeXeXuX<X/.[.{. X}.}.|.|.}.}.}.}.}.}.}.}.|.|.}.|.>XZ.n.Z.Z.b.Z.R.^.|.}.).).^.^.^.~.).).).).).).).).).).).).).).).).).).).).).).).).).).).).).).).).).).).).).).).).).).).).).).).).).).).).).).).).).).).).).).).).).).).).).).).).).).).).).).).).).).).).).).).).).).).).).).).).).).).).).).).).).).).).).).).).).).).).).).).).).).).).).).).).).",
"L.S.S.I.|.|.~.~.|.).~.).).~.~.|.).).).).).).).).).).).).).).).).).).).).).).).).).).).).).).)._.^._._._.|.~.).pXR.c.N.C cXnXmXxXZ Z.>XZ.N.V A HXzXnX6.;.wXuXC A.Z.+XZ.C b NXnXnXjX;.wXuX+Xb.z.A.v.x.T iXrX7X3.7XwXeX@Xm.z.v.v.b.C -XeX5X5X0X6X0X0X0X0X0X5X6X5X5X0X6XqX0X6X7XrXwXrXeXG 0 r H ,.2.>._ ) ] ] ] _ ^ ) ] 3. .X $ % T >.` ! ` / ` ) ) =.( rXwXrX0X0X6X6X6XrXcXT X % > 9 & . e uXuXyX0 X * < 5 s 5 = * , = , * * * = = = - = 4 4 , * & 9 %   b uXuX6X6X6XuX .o 4 X b J t H H J N e . & O N b r R 1.1.-.v l v K >.2. .+ X % 0 J J N 7 X , 1 = X O k J G G G J N 7 X & - % * * * * & * * & * 2 p p 1 * $ & 9 = X + | -.) ! ) 3.-.G r b b z x l n b v I 2.2.>.K q l n r m w I ,.-.$.E v m l r l z l x n x l n b b r w I <.X.W ! ( ,.K o & & 3 3 3 > > > = - 4 4 X - X - - - O + <.3.2.I w v G *.1.1.Y + + + 9XrX7X7X7X6XrX5X5X5X5X5X5X5X5X5X5X5X5X5X5X5X5X5X5X5X5X5X5X5X5X5X5X5X5X5X5X5X5X0X0X0X0X5X5X5X5X5X5X5X5X0X5X5X5X5X0X6XeXeX;XC Z.Z.Z.l.v.c.Z.l.T eXwX7X7X5X0X5X5X5X5X6X6X6X6X5X5X5X5X5X5X5X5X5X5X5X5X5X5X5X5X5X5X5X5X5X5X5X5X5X5X5X5X5X5X5X5X5X5X5X5X5X5X5X5X5X5X5X5X5X5X5X5X5X5X0X0X0X0X5X5X6X6X0X0X0X0X0X0X0X0X7X7X5XuX1Xc.j.B.Q.K.L.L.S.F.K.Q. X|.^._._.~.).|.).).).).).).).).).).).).).).).).).).).).).).).).).).).).).).).).).).).).).).).).).).).).).).).).).).).).).).).).).).^._.).).).).^.~.~.|.pXR.c.b.v.v.v.v.v.v.v.v.v.v.v.v.v.v.v.v.A.A.Z.c.z.T 9XrX3.7X7XrXuX;XC v.b.b.b.C  .rX3.3.7X7XrX-X>X`.`.`.`.}.|.|.|.|.}.}.|.|.|.|.|.|.|.^.>Xv.l.z.x.m.l.c.^.|.}.(.)._.^.^.).).).).).).).).).).).).).).).).).).).).).).).).).).).).).).).).).).).).).).).).).).).).).).).).).).).).).).).).).).).).).).).).).).).).).).).).).).).).).).).).).).).).).).).).).).).).).).).).).).).).).).).).).).).).).).).).).).).).).).).).).).).).).).).).).).",
"L.G.U.'.|.~.!._.~.~.~.~.).).}.|.).).).).).).).).).).).).).).).).).).).).).).).).).).).).).).).).~._._._.].~.~.^.R.c.N.Z xXnXmXvXZ v.z.l.A.C ..NXNXCXjX6.tX9XC A.l.l.Z.C T cXNXNXkX,.qXyX+XZ.z.Z.x.x.+XyXeXrXrXuXqX9X#Xx.b.b.b.b.C -XeX5X5X0X5X0X0X0X0X0X5X6X5X5X0X5X5X5X7XrX0X6XeXeXI G G L *.` / _ ^ W _ / U @.-.#.:.I + + + w $.%.W @.@.@.^ U *._ 5X8XeX5XrX6X0X0X6X9XJ X X X . . o 0 4XeXyXl X * < 1 5 5 , , , * > > = = - = * - - = = = & & X X O l 4X0X0XrX5XuX .o < - k x N J N B B e X X 7 N b r U -.( $.w v G I :.4X$X+ 4 4 0 N n b 7 4 % 4 = % 7 k N c J c N B 7 % - * = 4 = 4 < < = 4 6 = < 5 p 5 < , % , 4 7 0  .4X3.3.2.7X,.I L J H G G c m m v L | / | K t J J q c w { $.@.| D c x r z H G l l x x m n l m G D I $.1.3.3.>.4XK + o X X X . . . . . . . % @ % $ 6 % X O 0 <.<.$.I D w L | <.<.K O X 7 :XyX6X7XrX3.0X0X5X5X5X5X5X5X5X5X5X5X5X5X5X5X5X5X5X5X5X5X5X5X5X5X5X5X5X5X5X5X5X5X5X5X5X5X5X5X5X6X6X5X5X5X5X6X6X5X0X6XeXuX;XC b.C x.C +Xx.v.l.+XeXwX7X5X7X5X5X5X5X5X0X0X5X5X5X5X5X5X5X5X5X5X5X5X5X5X5X5X5X5X5X5X5X5X5X5X5X5X5X5X5X5X5X5X5X5X5X5X5X5X5X5X5X5X5X5X5X5X5X5X5X5X5X5X5X5X5X5X5X6X6X6X5X5X5X5X5X5X5X5X6XqX6XuX1XZ.D.Y.P.S.G.S.G.P.G.'._.^.~._._._.).|.).).).).).).).).).).).).).).).).).).).).).).).).).).).).).).).).).).).).).).).).).).).).).).).).).).).).).).).).).).^._.).).).).^.~.~.|.].R.c.v.v.v.v.v.v.v.v.v.v.v.v.v.v.v.v.v.z.x.b.x.b.+X3XeXuXuXeXuXyX;XC b.z.x.x.C ;XeX6X8X5X8X9X<X>X].~.~.~.^.^.^.~.~.~.~.~.~.~.~.^.^.^.^.R.c.c.Z.n.v.c.N.^.|.}.(.).^.^.^.).).).).).).).).).).).).).).).).).).).).).).).).).).).).).).).).).).).).).).).).).).).).).).).).).).).).).).).).).).).).).).).).).).).).).).).).).).).).).).).).).).).).).).).).).).).).).).).).).).).).).).).).).).).).).).).).).).).).).).).).).).).).).).).).).).",
"!.(.~.|.|._.~.|.~.~.).).).).).).).).).).).).).).).).).).).).).).).).).).).).).).).).).).).).).).~.|._.).].~.~.^.R.c.N.Z xXnXmXvXC >Xn.c.Z.m.x.>XC Z.m.m.+X#Xm.Z.Z.b.n.n.m.#XC C #Xx.+X#Xz.n.n.b.Z.v.l.#XT T C C #X#Xv.c.Z.z.z.x.C -XeX5X5X0X5X0X0X0X0X0X5X6X5X5X5X5X0X0X6XqX .H G K U R | $.>.=.o.6.u.r.y.u.u.xXD t G } 0.lXw.a.e.t.e.u.u.kX6.X.-.^ ,.*.-.>.wX6X6X6X7XrXrX6XeXeXeXeXqX6XrX5XyX0 X * < 1 5 p 1 5 5 5 5 5 5 < < < - = = = = * % O yXyX4XeXrX7X6XqX6XuX .o < $ 8 7 4 - 4 4 7 k b b r N x t U -.W @.| | | I G m N o - & - 6 - 6 & > 2 2 2 & $ < 4 % - % 4 6 = * 2 > * : : > 2 2 , , 5 2 2 2 1 p 1 5 s s 2 # . 8 O X - & - - & & - 4 B b z x n z c J H L I R $.| v J t } :.#.| G x z R | $.R H x m c c v v  .$.R I G z n 7 O 7 x 9XuXeX5XeXeXeX0X0XyXR.S.T.S.H.S.L.S.Y.T.V a O 0 J 4X<. .0 4 6 f S.Y.j.Y.D.A.#XyX9X6X0X5X5X5X5X5X5X5X5X5X5X5X5X5X5X5X5X5X5X5X5X5X5X5X5X5X5X5X5X5X5X5X5X5X5X5X5X5X5X5X5X5X5X5X5X5X5X5X6X0X6XeXuX;XC x.#XyX3XyX#Xx.l.+XyX0X6X6X6X5X5X5X5X5X5X5X5X5X5X5X5X5X5X5X5X5X5X5X5X5X5X5X5X5X5X5X5X5X5X5X5X5X5X5X5X5X5X5X5X5X5X5X5X5X5X5X5X5X5X5X5X5X5X5X5X5X5X5X5X5X5X5X5X5X5X5X5X5X5X5X5X5X5X6X0X0X6XwX0X4X3XyX#Xc.D.I.!.^./.dX^._.).).).).).).).).~.).).).).).).).).).).).).).).).).).).).).).).).).).).).).).).).).).).).).).).).).).).).).).).).).).).).).).).).^._.).).).).^.|.~.|.].R.l.z.v.v.v.v.v.v.v.v.v.v.v.v.v.v.v.v.x.x.Z.v.c.l.#X+XC C C +X#Xz.z.Z.Z.v.A.c.R.aXdXdXdXdXdX].~.}.}.|.).)._.^.~.~.~.~.~.~.~.~._.^.).^.|.!.!.|.dX/./.^.|.}.).).^.^.^.^.~.).).).).).).).).).).).).).).).).).).).).).).).).).).).).).).).).).).).).).).).).).).).).).).).).).).).).).).).).).).).).).).).).).).).).).).).).).).).).).).).).).).).).).).).).).).).).).).).).).).).).).).).).).).).).).).).).).).).).).).).).).).).).).).).).).",
").|._.~.~.~./.~.).|.).).~.)._.~.).).).).).).).).).).).).).).).).).).).).).).).).).).).).).).).).~.|._._.|.|.).|.R.c.N.Z xXnXmXvXZ v.x.x.#Xn.c.m.c.N.c.N.l.v.l.x.x.z.z.Z.c.n.l.l.c.c.l.z.c.v.Z.z.c.n.c.c.l.A.k.c.m.l.c.c.c.v.v.b.C -XeX5X5X0X5X0X0X0X0X0X5X6X5X5X7X0X0X5X5XeX .u r t :.6X>.2.&.W P t.lXp.p.r.w.xX{ r 0 H lXa.p.9.r.p.p.p.a.u.6.P o.Q &.Q Q %.wX7XqXqX6X7XwXrXwX7XrXrXrXwXrX4XhX0 X = < 5 5 p 5 5 s s s s 5 1 = * = = 4 , , = - O uXrXwXrXwX7XwXwX6XtX .o 6 $ = % 3 & & $ X k J G J N l t U >.! ( -.*.>.I w r A 7 = = * - . = % < < , = < * * = * & & * % % = = = 6 4 < 6 p p p p p 5 p 5 5 p 6 5 5 , > 2 # 9 & & * = = = , = = 8 N c v c n l l n r w R =.2.#.v m t | >.-.$.t z t | >.3.@.G r l z v v G :.6X>.} w l B * & . e uXrXrXrXrXrXrXrXwXuX>XM.Q.Q.Q.Q.Q.Q.K.Y.T.i $ o t ,.&.<.X . $ d !.Q.Q.Q.j.V.x.yXeX5X5X5X5X5X5X5X5X5X5X5X5X5X5X5X5X5X5X5X5X5X5X5X5X5X5X5X5X5X5X5X5X5X6X6X6X5X0XwX0XrX0X0X0X0X0X0X0X0X0XwX7XrXuX;XC x.T uXeXuX;XC n.x.uXwXwX7X7X7X7X7X5X5X5X5X5X5X5X5X5X5X5X5X5X5X5X5X5X5X5X5X5X5X5X5X5X5X5X5X5X5X5X5X5X5X5X5X5X5X5X5X5X5X5X5X5X5X5X5X5X5X5X5X5X5X5X5X6X6X6X5X5X5X0X0X5X5X5X5X5X5X5X5X6X0X6X5XwX7XrXuX>XD.J.Q.`.sX`. X).|.|.).~.).).).).).~.~.).).).).).).).).).).).).).).).).).).).).).).).).).).).).).).).).).).).).).).).).).).).).).).).).).).).).).).^._.).).).).^.|.~.|.].R.l.z.z.v.v.v.v.v.v.v.v.v.v.v.v.v.v.v.b.z.Z.c.A.k.c.l.A.A.c.c.c.c.c.v.#Xx.b.c.R. X{.[.{.[.(.(.).^.^.^._.|.|.|.|.|.|.|.|.|.|.|.|.|.|.|.|.).}. X}.).|.|.}.}.~.~.^.^.~.).).).).).).).).).).).).).).).).).).).).).).).).).).).).).).).).).).).).).).).).).).).).).).).).).).).).).).).).).).).).).).).).).).).).).).).).).).).).).).).).).).).).).).).).).).).).).).).).).).).).).).).).).).).).).).).).).).).).).).).).).).).).).).).).).).).",
"_.|._.~._.|.).).).|.~.(.~.~.)._.).).).).).).).).).).).).).).).).).).).).).).).).).).).).).).).).~.|._.~.~.].).pXR.n.n.Z xXMXmXvXZ N.n.b.n.n.Z.A.A.x.x.#Xl.Z.Z.n.n.#Xl.A.z.x.Z.A.v.>Xx.z.Z.c.Z.z.m.+Xb.Z.m.#Xn.v.+X+X#Xb.x.x.z.b.C -XeX5X5XwX6X0X0X0X0X0X5X6X5X5X5X5XeXeXrXuX .q M q R ( ~ ` Q W F 6.jXi.r.r.r.lX{ l l M lX9.u.u.e.e.e.w.u.jX3.Y ' / >._ *.>.rXrX7X5XeX6X6XeX0XqXqXqX6X6X5X4XvX0 X * < 1 5 p 5 5 5 5 5 1 , * . . . . . $ . . . o uXeX6XqX6X6XrX6X6XtX .O 6 = 6 = > $ 5 4 X k { z m l l v U 3.1.2.3.1.3.^ L m N 7 % = = < & 6 % 6 = % & = - % = , - 6 = % - - = = * * * , 5 p p p s p s 5 1 s 2 p s > # < % $ . & . $ @ . @ . . 4 { J G G m m H H J G >.3.3.#.r b r } =.=.$.D v t I $.2.^ G r n n m z v | >._ | D K J X .   0 hX6X6X5X6X5X7X7XwXyXR.M.L.S.P.S.G.L.L.D.C.@ & o D 7X1.qXO . . p E.M.J.K.J.R.#XuXrXwX5X5X5X5X5X5X5X5X5X5X5X5X5X5X5X5X5X5X5X5X5X5X5X5X5X5X5X5X5X5X5X5X7X7XwXwXwXwXwXrXwXwXwXwXwXwXwXwXrXrX7XrXuX;XC x.T uX0XuX;XC #Xx.uXwXwXwXwXrXrXrXrXrXrXwXrXrXrXrX5X5X5X5X5X5X5X5X5X5X5X5X5X5X5X5X5X5X5X5X5X5X5X5X5X5X5X5X5X5X5X5X5X5X5X5X5X5X5X5X5X5X5X5X5X5X5X5X7X7XwXwXwXwXwXwXwXwXwXwXwXwXwXwX3.wXwXwXwX3.wXeX>Xk.M.S.R.dX!.!.~.).).~.~.).|.|.).).).).).).).).).).).).).).).).).).).).).).).).).).).).).).).).).).).).).).).).).).).).).).).).).).).).).).).).).).^._.).).).).^.|.~.|.].R.l.z.z.v.v.v.v.v.v.v.v.v.v.v.v.v.v.v.v.m.b.x.Z.b.#X+Xz.b.b.x.b.b.x.x.x.m.x.m.R.pX^._._._.^.^.|.].].~.~.~.~.~.~.~.~.~.~.~.~.~.~.~.~.~.^.~.}.).!.~.|.|.|.|.~.~.~.).).`.).).).).).).).).).).).).).).).).).).).).).).).).).).).).).).).).).).).).).).).).).).).).).).).).).).).).).).).).).).).).).).).).).).).).).).).).).).).).).).).).).).).).).).).).).).).).).).).).).).).).).).).).).).).).).).).).).).).).).).).).).).).).).).).).).).",
").).~.~.).).).).).).).).).).).).).).).).).).).).).).).).).).).).).).).).).).).).).).).).).).).).~.).`.).~.~._.^.R.c.N.Z xXMXnXvXZ n.v.v.b.v.b.v.v.v.v.v.z.v.b.b.v.b.b.b.b.b.b.b.v.v.v.v.b.b.b.b.b.b.v.b.v.v.z.z.v.b.b.b.b.b.b.z.C -XuX5X6X0XeX5X0X6XqXwX7X6XqXqXqX3.rXR <. .| I Y E 4.5.;.;.+.+.+.t.u.u.u.r.w.lX{ q z t zXd.e.y.r.p.r.u.u.u.i.+.7.5.P _ _ 2.7X6X-.rX0XqX5X5X7X5XqXqXwX6X0XqXvX0 X * < 1 5 p 5 5 5 5 > s $ k C e k k k k k k r t eXqX0X2.wX0X0X0X6XuX .o 6 % , 1 , : > , 6 s k k e J v G I I R R K K J x l e e 7 = = = = = = = = = = = = = = = = , = = * - , , > 5 5 p p 5 5 5 5 1 p 5 1 1 1 p p p , # 5 o A k e k k k k k e N l e k k k k k l l r 0 J K J H I Y L I @.>.<.v x q Y ,.^ :.t n v c b z D $.( ,.K u b 7 V g a C eX7XqXwX7XrXeX .-X1XD.H.L.H.J.J.J.L.L.T.S.g h a B J { l Z g h g S.Y.K.J.D.A.#X,X<X-XeXwX6X7X3.3.qX6XqXqXqXqX6X5X5X6X6X6X6X6X6X6X6X6X6X6X6X6X6X6X6X6X7X7XrX6X .-X3X3X4X4X4X4X4X4X3X3X4X3X3X=X*X;XT T #X&X<X<X#Xx.x.+X3X4X4X4X4X4X4X4X4X4X4X4X4X4X4X%X&X-XuX3.7XwX6X6X5X5X6X6X6X7X7X7X6X6X6X6X6X6X6X6X6X6X6X6X6X6X6X6X6X6X0X6X6XqXqXqXeXeX5X6X0XrX0X5X3.7XeX4X;X-X*X:X-X-X-X-X-X-X-X-X3X3X3X=X=X-X1X1XZ.R.R.'.). X}.).).).).).).).).).).).).).).).).).).).).).).).).).).).).).).).).).).).).).).).).).).).).).).).).).).).).).).).).).).).).).).).).).).).).).).).).).~.).|._.~.!.'.I.R.c.n.n.v.v.z.b.v.v.v.v.z.b.x.b.v.v.z.x.b.b.b.v.v.b.b.z.l.Z.R.R.R.R.R.R.R./././.^.^.~.^.).).).).~.~.~.~.).).).).).).).).).).).).).).).).).).).).).).).).).).).).).).).).).).).).).).).).).).).).).).).).).).).).).).).).).).).).).).).).).).).).).).).).).).).).).).).).).).).).).).).).).).).).).).).).).).).).).).).).).).).).).).).).).).).).).).).).).).).).).).).).).).).).).).).).).).).).).).).).).).).).).).).).).).).).).).",
").).).).).).).).).).).).).).).).).).).).).).).).).).).).).).).).).).).).).).).).).).).).).).).).~.).`.).~.~._.^.R.c.N.Z xXMXnXvXZ n.n.v.b.v.b.v.v.v.z.z.z.z.z.v.v.v.v.v.v.v.v.v.Z.Z.b.b.b.v.v.v.v.v.v.z.v.v.b.b.v.b.b.b.b.b.b.b.C <XuXrX7X7X5X5XeXeXeXeXeXeX5X6XrXeXeXw q w K ,.,.X.lXa.y.a.a.a.y.a.y.r.r.r.r.lX{ q r y zXw.r.r.e.e.e.e.r.y.a.a.lXjXO.*.@./ ^ Q / 5X5X6X5X5X0X5X6X6XwX6X5X9XvXe % > 5 5 p s 6 5 < 1 = 4 O { vXuXuXuXuXuXuXuXuXuX0X5XrX7XwX,.6X6X6XuX .O 4 = 2 2 s s s 1 2 = % % 4 A k k l l b k o % & $ @ # # $ = = = = = = = = = = = = = = = = = , = - = < 2 , 5 5 5 5 5 5 5 5 6 6 6 6 1 1 5 6 8 1 * 6 + 9XuXuXuXuXuXuXuXeXuX:Xo % $ $ & . & & & @ $ # . 7 %X,.-.>.2.>.| G G v I <.*.<.t z x c N H D $.#.4XN O O : E.sXaXaXuX8X5XqX5XyX,Xk.M.M.J.L.H.H.H.J.H.J.F.Q.Q.Q.Q.D.V : ; i F.{.Q.Q.P.G.Q.Q.B.B.B.B.B.j.yXeX6XeX0X5XuXeX5X7X5X5X7X7X7X5X5X5X5X5X5X5X5X5X5X5X5X5X5X5X5X5X6X6XeX%XC c.l.k.l.l.k.k.k.k.k.c.m.m.m.c.c.c.c.c.c.c.z.z.c.c.c.c.k.k.k.k.k.k.k.k.c.k.c.c.k.k.k.c.x.#XeX,.6X0XeXeX5X5XqXqXqX5X5X5X5X5X5X5X5X5X5X5X5X5X5X5X5X5X5X5X5X5X5X5X6X6X5X5X6X5X5X6X5XwXwXrXeXyX1XZ.M.K.B.B.B.B.B.B.B.B.B.B.OXOXOXB.B.B.B.M.(.[.}.`.|._./.^.^.).).).).).).).).).).).).).).).).).).).).).).).).).).).).).).).).).).).).).).).).).).).).).).).).).).).).).).).).).).).).).).).).).).).).).).).~.~.).|.|.|.|.^.dXZ.n.v.v.b.x.z.z.v.v.v.v.v.z.v.Z.v.b.b.b.v.v.v.Z.Z.Z.n.Z.R.|.).pXpXdXdX|.|.^.^.~.^.).).).).).).).~.~.).).).).).).).).).).).).).).).).).).).).).).).).).).).).).).).).).).).).).).).).).).).).).).).).).).).).).).).).).).).).).).).).).).).).).).).).).).).).).).).).).).).).).).).).).).).).).).).).).).).).).).).).).).).).).).).).).).).).).).).).).).).).).).).).).).).).).).).).).).).).).).).).).).).).).).).).).).).).).).).",
").).).).).).).).).).).).).).).).).).).).).).).).).).).).).).).).).).).).).).).).).).).).).).).).~.).`.).~.~._.^.R.c.N.Z xXMXnXvXZ n.n.v.b.v.b.v.v.v.v.v.z.v.v.v.v.v.v.v.v.v.v.v.z.v.v.v.v.v.v.v.Z.b.b.v.v.v.v.b.b.b.b.b.b.b.b.z.C *XeXwX3.3.3.wX7X7X6X5XrXrXwX7X6XeXuXG r t I >.` Q y.p.r.r.y.r.e.e.w.9.r.r.u.lX{ q j H xXe.r.e.r.r.p.r.r.9.9.w.p.u.} Q ^ _ =.%./ 6XqXqXeX0X0X0X0X6XwX0XrXuXuX0 X # = 1 p p p p s 2 # . o J uX8X6X8X8X8X8X6X6X6XqX6X0X6X6X,.rXrXrXuX .O % : 5 5 1 5 5 5 1 > # X 7 J J H H c N b % = 2 3 > 1 5 , = = = = = = = = = = = = = = = = # * = * * = > * 1 1 5 5 5 5 5 5 5 5 5 5 5 5 5 5 9 9 . . O 9XrX8X5X5X5X5XrXeXuX .O = - * = % - * > 1 < < o + ,.) ! ! ! @.} t t y Y 1.1.>.w r M n x z t $.$.4XN O % ; Y.XX/.>XuX3.3.3.wXuX1Xc.H.Q.J.H.H.H.H.H.L.L.F.K.K.F.Q.E.g @ . 2 S.!.P.G.D.M.G.L.H.G.J.J.B.k.9XwXqXqXwX6X6X6X0X0XeXeX0X5X0XqX0X0X0X0X0X0X0X0X0X0X0X0X0X0X0X0XwXwXrX3XC A.c.n.n.v.n.n.n.n.n.n.n.v.v.v.v.v.v.v.Z.v.l.z.b.Z.Z.Z.Z.v.v.v.v.v.z.z.z.z.l.z.z.z.v.v.C #XuX6X0X0XqX0X0X5X0X0X0X0X0X0X0X0X0X0X0X0X0X0X0X0X0X0X0X0X0X0X0X0X0X0XqXqXqXqX6XeX0X0X6X6X6XqXwXqXyXZ.k.Q.Q.Q.Q.Q.U.U.U.U.U.J.Q.Q.Q.J.K.K.K.F.'.`. X_._.).~.|.).).).~.).).).).).).).).).).).).).).).).).).).).).).).).).).).).).).).).).).).).).).).).).).).).).).).).).).).).).).).).).).).).).).).).).).).).).).~.~.~.|.|.dX>Xn.c.z.z.b.x.b.z.v.v.v.v.v.v.z.x.x.x.b.x.z.z.z.x.x.x.l.c.R.|. X|.~.~.~.~.~.~.~.).).).).).).).).).).~.~.).).).).).).).).).).).).).).).).).).).).).).).).).).).).).).).).).).).).).).).).).).).).).).).).).).).).).).).).).).).).).).).).).).).).).).).).).).).).).).).).).).).).).).).).).).).).).).).).).).).).).).).).).).).).).).).).).).).).).).).).).).).).).).).).).).).).).).).).).).).).).).).).).).).).).).).).).).).).).).",
").).).).).).).).).).).).).).).).).).).).).).).).).).).).).).).).).).).).).).).).).).).).).).).).~.).).).~.~._.^.R.c.N.Z xXnXnXvXZ n.n.v.b.v.b.v.v.v.v.v.z.v.v.b.b.b.b.b.b.b.b.b.b.b.b.b.b.b.v.b.x.z.z.z.z.x.x.x.z.z.z.z.z.z.z.+X@XiXuXrXwXrXeXeX7X7X6X6XqX0X6X6X6X5XuXG n c I >.` ~ t.e.i.q.e.e.y.r.e.e.y.e.i.lXy 0 w D u.i.u.r.w.r.a.r.a.a.a.y.a.jXO.%.=.=.) =.^ 6X0X6X5X6X5X6X7X6XrXrX9XuXyXB % > 2 < 5 p 5 p 2 # 6 O 7 T yX4XeX0X5X7XwXwXwX0X0X5XrXwX0X5XuX6XeXuX..7 7 4 6 6 p 5 5 5 5 < > 4 7 n J H H G J N O 4 = * % = = % = = = = = = = = = = = = = = = = # > 2 > * * * * 1 1 5 5 5 5 5 5 1 p p p 5 5 5 5 : < = X 7 $XeX6X6XqX6X6X6X6XuX .X = = < 6 6 6 4 . % 4 4 O 0 6X2.3.3.7X7X,.I L E *.6X,.:.L t t r r z D $.@.,.J O 7 : R.pX/.>XyXeXtXqX0X9X1Xx.c.M.U.J.J.F.H.H.L.L.L.Y.U.S.S.C.g @ $ 2 k.L.F.J.J.Q.F.K.L.U.I.I.U.c.yXeX4X6XwX3.wX5X7X7X5X5X5X5X8X8X5X5X5X6X5X5X5X5X5X5X5X5X5X6X8X6X6X5XrX3XC Z.n.n.b.z.b.b.x.x.b.b.x.b.b.b.b.x.x.z.z.v.v.v.z.z.x.b.b.b.b.b.b.b.b.b.b.b.b.b.b.b.b.b.m.#XuX5X5X5X6X6X5X5X5X5X5X5X5X5X5X5X5X5X8X8X8X5X5X5X5X5X5X5X5X5X5X5X5X5X6X6X6X6X6X6X0X0X6X5XwX5XrXeXyX#Xc.U.D.D.U.U.T.D.T.T.T.T.D.D.D.S.S.S.S.M.R./.^.~.).).(. X).).).).).).).).).).).).).).).).).).).).).).).).).).).).).).).).).).).).).).).).).).).).).).).).).).).).).).).).).).).).).).).).).).).).).).).).|.).~.~.~.~.~.~.E.N.c.n.n.b.b.b.z.z.v.v.v.v.v.v.z.x.b.b.z.z.v.Z.v.v.z.z.c.R.dX^.~.(.~.).).|.}.}.).).).).).).).).).).).~.).).).).).).).).).).).).).).).).).).).).).).).).).).).).).).).).).).).).).).).).).).).).).).).).).).).).).).).).).).).).).).).).).).).).).).).).).).).).).).).).).).).).).).).).).).).).).).).).).).).).).).).).).).).).).).).).).).).).).).).).).).).).).).).).).).).).).).).).).).).).).).).).).).).).).).).).).).).).).).",
").).).).).).).).).).).).).).).).).).).).).).).).).).).).).).).).).).).).).).).).).).).).).).).).~.).).).~.~._.^.R.c.N.Z xXnXnXvXZ n.n.v.Z.b.b.v.v.v.z.z.z.z.z.z.b.b.b.b.b.b.b.b.Z.Z.b.b.b.v.v.z.b.b.b.b.b.Z.Z.Z.b.b.b.b.b.b.b.n.k.D.R.D.D.R.D.l.=XeX5X5X7X7X5X5XrXeXuXj r t K ,.-.Q u.a.e.r.r.r.y.r.e.r.r.e.e.lXu.0.0.0.lXr.r.r.e.u.kXX.X.-.@.X.X.;.P W ^ ( W %.( wXrX0XrX0X0XqX0XqXuX .7 7 8 > s d s p 5 6 , 4 4 0 9X<.$.6XrXwX6X6X6X6XqXqXqXqX6X6X5X6X6X4X9X0 7 8 6 % 5 1 5 5 s s 1 1 1 1 1 1 = 9 < 6 6 7 6 6 < 5 5 1 2 < < , = = = = = = = = = = = = = = = , p s s s 5 1 1 1 5 5 5 5 5 5 5 1 2 2 1 5 6 6 6 4 O N 9X<.| rXtXrXwXrXrX0X0X6XuX .o % * , 2 , 2 , s 5 s & 3 > 8 a 7 4 6 , 5 # 2 - X 7 7 0 K | | R c H G $.Q ,.J O % $ R.sX)./.>X>X>XR.R.R.Y.G.P.L.L.H.G.J.J.J.H.H.M.G.U.U.I.I.D.M.S.j.P.Q.G.J.K.K.J.J.H.G.G.K.B.M.R.R.Z.>X9XqXqXqX0XqXqX0X0XwXwXwX0X0X0X0X0X0X0X0X0X0X0X0X0X0X0X0XqXqXeX3XC A.l.v.z.z.v.v.z.v.n.n.c.c.l.l.l.z.v.b.l.v.Z.Z.v.z.b.b.l.c.c.c.c.c.v.v.n.n.v.c.c.c.v.v.z.#XuX6X0X0X6X6X0XwX0X0XwXwX0X0X0X0X0X0X0X0X0X0X0X0X0X0X0X0X0X0X0X0X0X0X0X0X0X0X0X6X0X0X6X0XqX3Xc.T.Y.F.F.K.J.J.F.F.F.F.G.K.K.K.J.J.J.J.Q.(.(.(.).|.].~.^.^.~.^.).).).).).).).).).).).).).).).).).).).).).).).).).).).).).).).).).).).).).).).).).).).).).).).).).).).).).).).).).).).).).).).).).).).).).).).).|.).).).).).|.|.|./.R.E.R.c.v.v.v.v.v.v.z.z.v.v.n.n.n.n.n.c.R././.!./.R.R.^.pX^.).`.`.).).).).).).).).).~.~.~.~.).).).).).).).).).).).).).).).).).).).).).).).).).).).).).).).).).).).).).).).).).).).).).).).).).).).).).).).).).).).).).).).).).).).).).).).).).).).).).).).).).).).).).).).).).).).).).).).).).).).).).).).).).).).).).).).).).).).).).).).).).).).).).).).).).).).).).).).).).).).).).).).).).).).).).).).).).).).).).).).).).).",
").).).).).).).).).).).).).).).).).).).).).).).).).).).).).).).).).).).).).).).).).).).).).).).).~.).).).~.~._.^.R.c.N.Z xXnXnXvXZ n.n.v.Z.b.b.v.v.v.v.v.z.v.b.b.z.z.z.z.z.z.v.v.z.l.z.z.v.v.v.v.Z.Z.b.z.z.z.n.b.b.b.b.b.b.b.b.n.c.D.F.B.B.W.W.j.&X9XeX6XqXqX9XeX6XeXuXG c v L :./ P t.y.e.r.r.r.e.e.e.y.y.e.e.y.a.a.a.r.a.r.r.y.r.u.kXP Q / _ _ Q =.( 2.>.=.%.@./ 6XqX6X0X5XeXqX5XeXuX .o @ & 1 f f s 5 5 1 > =   7 uXuXrXrXrX8X5X5XeXeX0X0X0X0XrXrXrXeXeXyXyXO . & 2 2 s 5 1 5 2 2 2 1 5 p p p 2 # @ $ $ $ # $ 1 s 5 , , = * % = = = = = = = = = = = = = = = , s d f d s p 5 p 5 5 5 5 p p 5 5 1 1 5 5 5 5 , 4 o J kXuXrXrX6X5X,.6X0X6X6X6XeX .O 4 6 5 s p s s , % s p d s @ $ 3 & & $ , % = * & 3 . O <.7X1.Q t c t $.-.3.J o = ; /.XX(.`.).{.[.Q.W.W.Q.B.P.L.L.L.H.J.J.J.J.J.Y.P.G.G.G.J.Q.'.!.J.P.G.S.T.I.Y.I.U.D.D.L.L.J.Q.B.B.j.R.iXqX6X6X7X6X5XqXqX0X0X5XqX0XqXqX0XqX0X0X0X0XqX0XqXqX0X0XwX5XrX4XC #Xb.+Xb.b.b.b.b.+X+X+Xb.b.Z.Z.b.b.b.b.b.b.v.v.b.b.b.b.#X#X#XZ.b.b.b.b.b.b.z.z.b.b.#X#Xx.#XuX6X7X5X6X6X7X7X7X7XqX7X5X5X0X0XqX0XqXqX0X0XqX6XqXqX0X0X0X0X0X0X6X6X0XqXqXqX0X6XqX0XqXeXeX-Xk.B.Q.P.U.D.D.D.L.L.H.P.P.P.P.I.L.L.G.D.I.~.pX|.|.|.].~.~.|.~._.).).).).).).).).).).).).).).).).).).).).).).).).).).).).).).).).).).).).).).).).).).).).).).).).).).).).).).).).).).).).).).).).).).).).).).).).).).).|.|.|.|.). X}.|.pXR.c.n.v.v.v.v.v.z.v.z.v.v.v.v.b.v.c.R.|. X[. X X).}.}.~.).).~.~.~.~.~.~.~.~.~.~.~.~.~.~.).).).).).).).).).).).).).).).).).).).).).).).).).).).).).).).).).).).).).).).).).).).).).).).).).).).).).).).).).).).).).).).).).).).).).).).).).).).).).).).).).).).).).).).).).).).).).).).).).).).).).).).).).).).).).).).).).).).).).).).).).).).).).).).).).).).).).).).).).).).).).).).).).).).).).).).).).).).).).).).).).).",
").).).).).).).).).).).).).).).).).).).).).).).).).).).).).).).).).).).).).).).).).).).).).).).).~.)._.).~.~._.^.R.c.N.Z xXnXnXvXZ n.n.v.b.v.b.v.v.v.b.v.Z.b.b.b.v.v.v.v.v.v.v.v.l.l.l.z.v.v.v.b.z.z.z.l.l.m.m.m.b.b.v.b.b.b.b.b.Z.A.D.H.P.Q.Q.N.iXrXrX8X7X7X6X6X6X6X9Xw v G I >._ Q jXa.y.u.y.y.u.u.a.a.y.y.e.q.w.e.e.e.e.r.r.r.r.y.jXX.%.( ) ) ( =.( 2./ ( ^ W Q 3.6X3.6X3.6X6X6X8XrX .O 6 : s d d p 1 5 1 2 2 * O yX4X6X6X6X6X6X6X6X6X6X6X6X6X6X6X2.8X6XeXuX7 % # > 2 1 5 5 p 5 5 5 5 5 6 5 5 5 , = , = , < 2 2 2 2 , = = - = - = = = = = = = = = = = = = = , p d f d s 1 5 5 5 5 5 5 5 5 5 5 5 p p p p p 2 , X N eX>.6X6X,.6XrXrXrXrXrXrXkX$Xo = > 2 2 2 5 1 s 6 s , 5 * % X . . & . % X . . . $ . O <.3.1.U w z G $.@.,.J o X @ R.|.~.|.~.~. XP.U.S.U.M.D.D.L.H.H.J.H.H.H.H.S.F.S.H.H.F.F.G.G.F.J.J.J.P.F.F.Q.J.J.H.H.G.G.L.L.Y.M.>XeXwX7X7X3.6X6X6X6X6X8X8X8X8X8X8X8X8X8X8X8X8X8X8X8X8X8X8X8X8X8X%XC c.c.N.l.l.k.k.l.l.l.l.m.m.x.v.n.v.c.c.c.l.l.l.c.c.c.c.c.c.c.c.m.m.l.l.c.c.c.c.c.c.n.v.m.@XuX8X8X8X6X6X6X6X6X8X6X6X8X8X8X8X8X8X8X8X8X8X8X8X8X8X8X8X8X8X6X6X6X6X3.3.3.3.6X6X5X0X5XrXrXyXk.K.J.J.L.L.P.L.S.S.F.S.G.G.G.G.J.J.G.M.I.!.].!.(.|.~.!.|.|.~.~.).).).).).).).).).).).).).).).).).).).).).).).).).).).).).).).).).).).).).).).).).).).).).).).).).).).).).).).).).).).).).).).).).).).).).).).).).).).~.~.~.~.~.(.`.^.pXR.c.n.v.z.z.v.v.v.v.v.v.x.x.x.b.z.c.R.pX~.).|.|.~.~.}.(.].~.~.).|.|.|.|.).).).).).).).).).).).).).).).).).).).).).).).).).).).).).).).).).).).).).).).).).).).).).).).).).).).).).).).).).).).).).).).).).).).).).).).).).).).).).).).).).).).).).).).).).).).).).).).).).).).).).).).).).).).).).).).).).).).).).).).).).).).).).).).).).).).).).).).).).).).).).).).).).).).).).).).).).).).).).).).).).).).).).).).).).).",
").).).).).).).).).).).).).).).).).).).).).).).).).).).).).).).).).).).).).).).).).).).).).).).).].)._.).~.~._.^.R.c.N.Z xXnXnXvXZ n.n.v.b.v.b.v.l.l.x.x.x.x.x.x.b.b.b.b.b.b.b.b.#X#X#X+Xb.b.b.b.x.z.#X#X>X>X#X#Xb.b.z.z.z.z.z.v.n.A.G.J.S.H.K.M.&X4X3X4XeXtXtXtXqXtXuXt z t L ,.*.Q u.p.e.e.e.e.y.e.9.9.9.r.y.r.y.y.e.r.e.y.r.e.e.q.t.~ &.&.&.%.%.@.Q *.U #.,.,.,.tXtXtXtXqXtXtXqXqXkX .o * $ d d f s p p p 2 2 . O cXtXtXqXtXtXtXtXtXtXtXtXtXtXtXtXqXtXtXtXvX+ % 5 p p 5 p s 1 1 1 1 5 5 5 p s 2 , 1 , % , 6 : p p p 5 6 , = = = = = = = = = = = = = = = = = , 2 s f d s 1 5 5 5 5 5 5 5 5 5 5 1 5 1 5 5 5 , - o N vX9XtXtXtXuXqX:.:.:.:.:.4XT O < 2 1 1 1 5 5 5 1 p p p : f 5 s 5 s 1 d s s s 5 s s 7  .U | K G K E R Y | N 7 s i ].pX~.|.~.~.pXI.Y.I.Y.J.Q.K.J.J.J.H.H.L.S.L.G.H.H.H.G.G.J.P.L.G.Q.K.F.J.G.P.G.G.G.J.J.J.S.U.G.U.M.R.yX4X4X4XeXtXtXtXtXtXtXtXtXtXtXtXtXtXtXtXtXtXtXtXtXtXtXtXtXtXuX3XC z.x.+X#X#X#X#X#X#X#X#X#X#XZ.v.z.v.b.+X+X#X#X#X#X#X#X#Xx.x.b.Z.#X#X#X#X#X#Xb.b.z.x.x.x.C #XuXwXtXtXqXtXtXtXtXtXtXwXtXtXtXtXtXtXtXtXtXtXtXtXtXtXtXtXtXtXtXeXtXtXtXtXtXtXeXeXtXeX4X4X4X*Xk.P.P.K.F.J.Q.K.P.J.U.L.L.H.H.H.L.U.U.U.I.].|.~./._.|._.|.|.~.~.~.).).).).).).).).).).).).).).).).).).).).).).).).).).).).).).).).).).).).).).).).).).).).).).).).).).).).).).).).).).).).).).).).).).).).).).).|.).).~.~.).|.|.~.).^.dXR.c.v.z.b.b.v.v.v.v.n.n.v.b.Z.Z.n.N.R.pX~.~.^.^.^._. X`.~.~.~.~.~.~.~.~.).).).).).).).).).).).).).).).).).).).).).).).).).).).).).).).).).).).).).).).).).).).).).).).).).).).).).).).).).).).).).).).).).).).).).).).).).).).).).).).).).).).).).).).).).).).).).).).).).).).).).).).).).).).).).).).).).).).).).).).).).).).).).).).).).).).).).).).).).).).).).).).).).).).).).).).).).).).).).).).).).).).).).).).).).).",
").).).).).).).).).).).).).).).).).).).).).).).).).).).).).).).).).).).).).).).).).).).).).).).).|._.).`.|._.).|.R.l.n.Z cXnXnXvXZ n.n.b.b.v.z.a h g h h h g c.l.c.c.v.x.T uXrXrXrXwXrXtXT z.v.n.n.C B NXBXMXxX5.6.tXT z.A.l.z.b.c.D.U.J.F.F.H.J.W.B.B.V.NXmXMXMXMXmXCXy z v L -./ P jXa.y.e.e.t.kXX./ ~ O.jXu.e.e.u.u.u.i.u.jX;.Y / / ( #.#.` =.>.:.v l u ..CXMXmXMXMXMXMXMXMXmXMXMXBXhX  - & 1 d g d 6 , p 1 1 . o ZXf.f.mXf.mXMXMXMXMXMXMXMXmXMXMXMXMXMXmXJX4 % i d f g f s p 5 5 5 5 5 5 5 5 p p p p 5 5 5 5 5 5 5 < = = = * - - = = = , , , < * * , = = = * > 2 5 5 5 5 5 1 5 5 5 5 1 1 5 5 5 5 = - * * , 4   ..BXMXf.MXMXZX..  . X . . . . s 2 1 1 2 p 6 = * $ % 1 $ p IXsXsXsXsXsXsXsXsXsXsXsXsXsX; &   l 9X:.4X+ X . V.sXpXpX X|.).~.~.~._._.).|.~.U.L.L.H.H.H.H.H.H.H.H.H.H.H.H.H.H.H.H.H.H.H.H.H.H.H.H.H.H.H.H.H.H.H.H.S.P.K.W.W.B.h IXCXMXf.MXMXmXmXMXMXMXMXMXMXMXMXMXMXMXMXMXMXMXMXMXmXMXBXhXV v.T yXrXwXwXwXrXrXwX6.rX4XC v.Z.x.b.x.T uXrX3.rXwXwXeXC Z.x.;XuXrX3.wXwXuX*XC b.Z.x.#XC &XCXMXf.f.f.MXMXMXMXMXMXMXMXMXMXMXMXMXMXMXMXMXMXMXMXMXMXMXMXMXMXMXMXf.MXMXMXMXf.f.MXHXT.B.W.B.J.H.H.H.H.H.H.H.H.H.H.H.H.H.H.H.S.!.|._._.).~.).).).).).).)._._.).).).).).).).).).).).).).).).).).).).).).).).).).).).).).).).).).).).).).).).).).).).).).).).).).).).).).).).).).).).).).).).).).).).).).).).).).).).).).).).).).).).pXR.c.v.b.Z.v.z.z.z.v.n.n.b.c.R.pXXX[.}.}.).).`.}.`.).~.^.~.).).).).).).).).).).).).).).).).).).).).).).).).).).).).).).).).).).).).).).).).).).).).).).).).).).).).).).).).).).).).).).).).).).).).).).).).).).).).).).).).).).).).).).).).).).).).).).).).).).).).).).).).).).).).).).).).).).).).).).).).).).).).).).).).).).).).).).).).).).).).).).).).).).).).).).).).).).).).).).).).).).).).).).).).).).).).).).).).).",
").).).).).).).).).).).).).).).).).).).).).).).).).).).).).).).).).).).).).).).).).).).).).).)._.^.^.^.~.~.~._.pXR.c.N.Z cXnXnXxXZ n.v.b.z.z.A.h V V h g h Z v.b.b.n.n.m.T yXeXqX6X6XqXeX+Xv.n.n.b.x.b NXmXnXjXX.6XuX+Xn.Z.A.z.l.A.A.U.J.J.J.P.P.Q.B.F.C.NXf.s.f.f.bXNXy z G I 2.) ! t.q.9.r.y.u.xXO.Q P +.lXa.r.r.r.r.r.w.a.a.+.Q _ &.%.-.@.o.&.-.$.G z u ..BXbXbXbXf.f.f.f.s.s.s.f.mX0.  % : g s d s 1 s s 2 > . 4 CXMXbXbXs.bXzXzXbXzXzXzXzXzXbXbXbXbXzXzXNX+ % 2 s d f d s 1 5 5 5 5 5 5 5 5 5 5 5 5 5 5 5 5 1 1 5 < % * = % = = = = = = = = , * = = = = = * 2 1 1 5 5 5 5 5 5 5 5 5 5 5 5 p 5 5 < = * = , 6   ..NXmXf.f.s.NXgXo - = % < , 1 1 2 p p s p : $ 8 < - - . 2 aX].`.`.~././.~.~.~.`.(.sXaX; X o z $.%.qXu O $ g sX].|.~.~.~.).)._._._.~.|.~.U.G.L.H.H.H.H.H.H.H.H.H.H.H.H.H.H.H.H.L.L.H.H.H.H.H.H.H.H.H.H.H.H.H.L.G.I.U.G.G.D.V DXNXs.s.f.s.bXbXbXzXzXzXzXzXzXbXbXzXzXzXbXzXzXzXzXbXf.mX0.Z m.+XyXeXqXqXqX0XqXqXqXrX3Xx.c.n.c.b.x.T yXeX7XwX5XwXeXC c.C ;XuXrX3.3.0XuX*XC l.A.c.Z.V &XNXbXf.f.s.zXzXzXzXzXzXzXzXs.zXzXzXbXzXzXzXzXzXzXzXzXzXzXzXzXbXzXzXs.f.f.zXbXf.f.MXNXC.j.P.Q.H.H.H.H.H.H.H.H.H.H.H.H.H.H.H.H.S.!.|._._.).~.).).).).).).)._._.).).).).).).).).).).).).).).).).).).).).).).).).).).).).).).).).).).).).).).).).).).).).).).).).).).).).).).).).).).).).).).).).).).).).).).).).).).).).).).).).~.~.~.dXR.c.v.z.b.z.x.b.b.b.n.n.x.l.Z.^.|.).^.^.^.^.).).).).^.^.^.).).).).).).).).).).).).).).).).).).).).).).).).).).).).).).).).).).).).).).).).).).).).).).).).).).).).).).).).).).).).).).).).).).).).).).).).).).).).).).).).).).).).).).).).).).).).).).).).).).).).).).).).).).).).).).).).).).).).).).).).).).).).).).).).).).).).).).).).).).).).).).).).).).).).).).).).).).).).).).).).).).).).).).).).).).).).).).).).).",
").).).).).).).).).).).).).).).).).).).).).).).).).).).).).).).).).).).).).).).).).).).).).).).).)._.^.~.].|. XpXR.n.N.Z cXmXmXvXZ Z.n.v.z.z.A.h g V g g h V b.b.z.z.b.x.T yXeX0X5X5X7XeX+Xv.b.v.z.Z.B cXNXnXjX;.;.uX+Xm.v.Z.b.Z.c.D.U.P.J.L.U.U.S.S.T.A.NXmXMXSXmXnXNXy r r L <./ X.u.r.r.y.y.u.jX+.X.X.4.lXlXu.y.r.r.y.e.lXlX5.X.=.1.1.1.2.2.2.1.-.K J e ..CXbXMXMXMXMXMXMXMXMXSXSXBXhX- - $ s g g d p 9 & - 4   + MXMXmXmXnXMXMXMXMXMXMXMXMXMXMXMXf.MXMXMXAX8 - 2 s d f d p 1 1 1 1 5 5 5 5 5 5 5 5 5 5 5 5 5 1 1 5 < * , 2 , = = = = = = = = = * = = = = , * 5 5 5 5 5 5 5 5 5 5 5 5 1 1 5 5 p 5 < = - - - 4 4 ..CXBXSXSXSXJX..- - = - = * 2 5 5 6 < 6 6 % 6 .   . . # i E./.`.`.).].~.).).)././.dXdX: % O 0 9X<. .u o $ h aX/.~.~.~.~.).|.|._._.~.|.~.G.G.L.H.H.H.H.H.H.H.H.H.H.H.H.H.H.H.H.H.H.H.H.H.H.H.H.H.H.H.H.H.H.H.H.F.L.S.S.S.T.V IXJXSXMXmXMXMXMXMXMXMXMXMXMXMXMXMXMXMXMXMXMXMXMXMXMXbXBXhXC x.+XyXuXrXrXwX7X7X7XrXeX3X+Xz.z.x.x.C ;XyX5X5XrX5XwXeX+Xx.T *XuXeXwXrXeXuX*XT x.Z.x.A.A 2XNXMXMXmXMXnXMXMXMXMXMXMXMXMXMXMXMXMXMXMXMXMXMXMXMXMXMXMXMXMXmXmXMXMXMXMXMXmXSXMXmXNXA.C.D.L.H.H.H.H.H.H.H.H.H.H.H.H.H.H.H.H.S.!.|._._.).~.).).).).).).)._._.).).).).).).).).).).).).).).).).).).).).).).).).).).).).).).).).).).).).).).).).).).).).).).).).).).).).).).).).).).).).).).).).).).).).).).).).).).).).).).).).~.~.~.dXR.c.v.z.b.v.v.b.b.n.n.n.v.c.R./.^.~.^.^.^.^.~.).).).~.^.).).).).).).).).).).).).).).).).).).).).).).).).).).).).).).).).).).).).).).).).).).).).).).).).).).).).).).).).).).).).).).).).).).).).).).).).).).).).).).).).).).).).).).).).).).).).).).).).).).).).).).).).).).).).).).).).).).).).).).).).).).).).).).).).).).).).).).).).).).).).).).).).).).).).).).).).).).).).).).).).).).).).).).).).).).).).).).).).).).",
").).).).).).).).).).).).).).).).).).).).).).).).).).).).).).).).).).).).).).).).).).).).).).).).`.`._.^.~.Y.U.I.R.v.n.Z xXmXmXvXZ #Xn.b.b.Z.A.a h V g V h V b.b.x.z.b.x.T yXuX5XrX8XrXeX+Xz.z.z.v.#XC yXhXkXkXlXlXcX#XC z.b.z.n.c.D.D.H.J.J.P.P.J.K.Q.M.aXA.A.2XtXtXkXw t G I ,._ $.jXu.u.i.;.;.5.o.&.( @.,.;.O.t.u.y.t.;.-.3.@.Q *.U L G J l 0 e e 4 8 X N vXqXtXtXtXtXtXtXtXhXe e e k > d p s 2 1 2 , 1 7 J 3X%X .kXtXtXtXtXtXtXtXtXtXtXtXtXtXtXtXtXtXtXtXcX7 4 2 s d f d p 1 5 5 5 5 p p 5 5 5 5 5 5 5 5 5 5 5 5 p p p s s 1 , = = = = = = = = * = , 2 5 s p p 5 5 1 5 5 5 5 5 5 1 1 2 2 , < 1 5 , = * * > 2 . 8 S e 8 e 8 S k X 6 = , , , i i p 6 = 6 = p A.R.R.R.R.T.D.pX`.`.`.|.|.].].].].!.|.^.pXD.D.R.k.7 0 Z A.D.Y.I.sX|._.).).).).)._.^._.~.|.!.G.G.H.H.H.H.H.H.H.H.H.H.H.H.H.H.H.H.H.H.H.H.H.H.H.H.H.H.H.H.H.H.H.H.H.J.G.L.L.S.Y.j..XE.A.&X9XtXtXtXtXtXtXtXtXtXtXtXtXtXtXtXtXtXtXtXtXtXtXkX3XC n.l.#X#X#X#X#X#X#X#X#X#X#Xz.n.Z.v.v.z.x.#X#X#X#X#X#X#Xc.c.z.#X#X+X#X#X#X#X#Xz.z.n.Z.v.C #XvXtX6.tXtXtXtXtXtXtXtXtXtXtXtXtXtXtXtXtXtXtXtXtXtXtXtXtXtXtXtXtXtXtXtXtXtXhX&XA.A.2XS.K.Q.Q.J.H.H.H.H.H.H.H.H.H.H.H.H.H.H.H.S.!.|._._.).~.).).).).).).)._._.).).).).).).).).).).).).).).).).).).).).).).).).).).).).).).).).).).).).).).).).).).).).).).).).).).).).).).).).).).).).).).).).).).).).).).).).).).).).).).).).)._._.dXR.c.v.b.v.v.Z.Z.n.c.c.R.E.R./.|.}.).).~.^.^.~.).).).).).).).).).).).).).).).).).).).).).).).).).).).).).).).).).).).).).).).).).).).).).).).).).).).).).).).).).).).).).).).).).).).).).).).).).).).).).).).).).).).).).).).).).).).).).).).).).).).).).).).).).).).).).).).).).).).).).).).).).).).).).).).).).).).).).).).).).).).).).).).).).).).).).).).).).).).).).).).).).).).).).).).).).).).).).).).).).).).).).).).",
").).).).).).).).).).).).).).).).).).).).).).).).).).).).).).).).).).).).).).).).).).).).).).).^.^./.^.pX}.P.M.S.D.c.#XB xXMXmXxXZ n.z.x.b.Z.A.h g V h g g V A.n.b.b.n.m.T yXqX6X6X6XwXeX+Xc.n.n.A.b.C yX8X:.4.NXbXNX#XV v.Z.v.c.A.D.L.F.F.J.J.P.J.J.Q.B.Q.M.M.>XiX8XeXG j v Y >.! ~ t.a.jX5.U / / W ` ' / / Q Y 6.u.u.6.Q Y ' ' ^ ,.| v l k 8 . & & @ # X B uX6X8X8X8X8X8X8X8XyXO @ @ i h g d s 5 8 1 = > O  .uXuXrX7X6X8X8X8X8X8X8X8X8X8X8X8X8X8X8X8X8X8X4XuX0 4 2 s d f s p 2 p 5 p p p p p p 5 5 5 5 5 5 5 p p 1 p s d f d 1 , = = = = = = = = * > > 2 s f f s p 5 1 5 5 5 5 5 5 5 < , * * * , , = = * * > > > : $ . . @ . @ # # s 5 s p s d p p s s 1 ; g sX XsXsXXXsX`.sX X).).).~.~.~.~.).!. X(.pX XsXsXD.@ 2 i aXsXsX`.`. X|.|.|.).).~.~.^.^.~.|.!.G.G.H.H.H.H.H.H.H.H.H.H.H.H.H.H.H.H.H.H.H.H.H.H.H.H.H.H.H.H.H.H.H.H.L.L.G.U.I.G.Q.B.Q.j.k.n.iX8X8X8X8X8X8X8X8X8X8X8X8X8X8X8X8X8X8X8X8X8X8X5X4XC n.k.l.l.m.m.k.c.c.k.k.l.z.l.c.Z.b.n.n.l.c.l.l.c.k.k.k.c.v.v.c.l.l.k.k.c.c.c.c.n.n.b.n.m.@XuX8X8X8X8X8X8X8X8X8X8X8X8X8X8X8X8X8X8X8X8X8X8X8X8X8X8X8X8X8X8X8X8X8X8X8X8XyX>XM.j.Q.W.Q.L.S.L.H.H.H.H.H.H.H.H.H.H.H.H.H.H.H.S.!.|._.).).~.).).).).).).)._._.).).).).).).).).).).).).).).).).).).).).).).).).).).).).).).).).).).).).).).).).).).).).).).).).).).).).).).).).).).).).).).).).).).).).).).).).).).).).).).).).`.`.).pXR.c.v.z.z.v.Z.v.v.c.A.>XpX).`. X}.`.`.).~.~.~.~.).~.).).).).).).).).).).).).).).).).).).).).).).).).).).).).).).).).).).).).).).).).).).).).).).).).).).).).).).).).).).).).).).).).).).).).).).).).).).).).).).).).).).).).).).).).).).).).).).).).).).).).).).).).).).).).).).).).).).).).).).).).).).).).).).).).).).).).).).).).).).).).).).).).).).).).).).).).).).).).).).).).).).).).).).).).).).).).).).).).).).).).",
").).).).).).).).).).).).).).).).).).).).).).).).).).).).).).).).).).).).).).).).).).).).).).).^.|.~.`.XX[.Q.B.F.D.k.R.V xXnXnXxXZ n.z.z.v.v.l.h h g h h h g A.c.Z.v.b.x.T eXrXwXwXrXrXeX+Xz.z.v.A.x.T uXrX3.q.BXMXmX..C x.z.v.Z.c.D.G.J.H.H.L.U.S.T.T.D.D.D.k.>XtX6.4.H q l K <.U } e.a.zXt.X.) ^ ^ *.>.>.>.=.Q t.a.zXu.O.~ 3.1.) 2.@.E G J k O 7 6 , 6 X N kX0XwX3.wXrXwX3.wXkX0 - * 9 d d d 2 5 p < = > X  .tX,.6X6XqXqXqXtXqXqXqXqXqXqXqXqXqXtXqXqXqXtX9XvX0 = 2 s d f d s p 5 5 5 p 5 p 5 5 5 1 1 1 5 5 5 5 p 1 1 s f f s , = = = = = = = = , , , > 2 d f f s 5 5 1 5 5 5 5 5 5 6 < , * * * * = - - - - - - - - & % - 4 9 9 * s s % < % % % - - - & . . h aX/.~.]./.|.!.]./.].].).`._._.`.`.].|.~.~./.^.].g . * @ C.E.R.|._.~.~.).).).).~.~._._.~.|.!.G.G.H.H.H.H.H.H.H.H.H.H.H.H.H.H.H.H.H.H.H.H.H.H.H.H.H.H.H.H.H.H.H.H.H.P.J.J.J.H.Y.F.B.Y.D.#XyXtX3.qXqXqXqXqXqXqXqXqXqXqXqXqXqXqXqXqXqX0X0XeX3Xm.Z.A.A.b.+X+X#X#X+X+Xz.l.c.l.l.z.x.z.+Xb.#Xb.b.b.b.b.+X+X+X+Xb.Z.Z.c.A.z.l.l.z.Z.z.x.x.C #XeX3.6.qXtXqXqXqXqXqXqXqXqXqXqXqXqXqXqXqXqXqXqXqXqXqXqXqXqXqXqXqX6XwXwXwX6.uX,XC.M.H.G.P.D.D.L.H.H.H.H.H.H.H.H.H.H.H.H.H.H.H.S.!.|.).).).~.).).).).).).)._._.).).).).).).).).).).).).).).).).).).).).).).).).).).).).).).).).).).).).).).).).).).).).).).).).).).).).).).).).).).).).).).).).).).).).).).).).).).).).).).).).).}.~.].R.c.z.x.x.z.z.z.b.m.v.>X|.).(.`.).).).~.~.~.^.^.^.^.^.^.^.).).).).).).).).).).).).).).).).).).).).).).).).).).).).).).).).).).).).).).).).).).).).).).).).).).).).).).).).).).).).).).).).).).).).).).).).).).).).).).).).).).).).).).).).).).).).).).).).).).).).).).).).).).).).).).).).).).).).).).).).).).).).).).).).).).).).).).).).).).).).).).).).).).).).).).).).).).).).).).).).).).).).).).).).).).).).).).).).).",
").).).).).).).).).).).).).).).).).).).).).).).).).).).).).).).).).).).).).).).).).).).).).).).)._.`.(.(.!.R.N.Z.R.c.R.V cXnXnXvXV Z.v.v.v.l.l.V V V g V V V Z.z.z.l.Z.+XT iX4XeX9X4X4X3X+Xn.z.x.z.b.C yX3X9X9XxXxXcX&X+Xx.x.x.l.c.A.U.J.J.H.J.P.J.P.U.I.G.I.D.>XyXqX<.I L L K U :.$.kXt.jX6.X.o.%.=.^ %.%.%.&.~ 6.t.t.6.o.%.;.Y W :.R G z k 8 = = * $ -   b 9X,.rX6X4XiXyXiXyXyX7 X - 6 f d g s i 5 - - 2 X  .rX6XrX6X5X6X8X8XrX7X8X5X5X5X5X7X5X8X8X0X6X0X9XyX0 4 2 s s d s s 5 5 5 5 5 1 1 1 1 5 1 5 5 5 5 5 5 5 1 1 p s s s > = = = = = = = = = = = > > p d s p 5 1 1 5 5 5 1 < < < , = = = = - * = , , , < < 2 2 2 1 1 2 2 > 1 8 = $ f f d p s p p p 5 p g E.].).|.~. X).|.]././.~.~././.~.~.).`. X~.^./.pXR.i h h ].aX^.~./.~.~.~.).).).~.~._._.~.|.!.G.G.H.H.H.H.H.H.H.H.H.H.H.H.H.H.H.H.H.H.H.H.H.H.H.H.H.H.H.H.H.H.H.H.L.L.L.J.J.L.L.L.H.P.M.#XiXuX5XeXeX5X5X8X5X0X0X5X7X5X5X5X5X5X5X8X8X6X5X5X3XC n.Z.Z.z.v.l.l.k.l.x.#X+X+X+X#X#Xb.z.Z.v.v.v.v.z.b.+Xx.x.z.c.c.n.z.C #X+X#Xx.m.z.n.c.Z.l.#XuX7X7X6X5X6X7X7X5X5X7X7X5X5X5X5X5X5X8X5X8X8X0X0X5X7X5X5X5X5XeX5X7XwXeX4X4XyX>XD.I.I.P.Q.Q.Q.J.H.H.H.H.H.H.H.H.H.H.H.H.H.H.H.S.!.|.).).).~.).).).).).).)._._.).).).).).).).).).).).).).).).).).).).).).).).).).).).).).).).).).).).).).).).).).).).).).).).).).).).).).).).).).).).).).).).).).).).).).).).).).).).).).).).).).}.].dXR.c.v.z.v.v.l.n.Z.Z.N.R.|.(.~.).~.~.}.).).).~.^.~.^.^.^.).).).).).).).).).).).).).).).).).).).).).).).).).).).).).).).).).).).).).).).).).).).).).).).).).).).).).).).).).).).).).).).).).).).).).).).).).).).).).).).).).).).).).).).).).).).).).).).).).).).).).).).).).).).).).).).).).).).).).).).).).).).).).).).).).).).).).).).).).).).).).).).).).).).).).).).).).).).).).).).).).).).).).).).).).).).).).).).).).).",
").).).).).).).).).).).).).).).).).).).).).).).).).).).).).).).).).).).).).).).).).).).).).).).^./.^.~.E.,XiXuXuX%XT x.Z cXnXnXvXZ Z.n.b.Z.b.#Xz.#X#XZ.Z.Z.z.#Xx.x.z.Z.N.k.Z.l.m.c.m.m.#Xc.N.n.+Xx.Z.k.A.k.c.k.m.Z v.m.N.Z.Z.Z.n.v.A.U.J.H.H.F.F.J.J.S.L.B.P.B.F.B.M.R.1XuXuX3.1.] / >.Y ^ _ Q >.) =.^ %.%.( 2.` / W Q W / >.:.t o . . . $ # > 1 p p 6 6 X N uX9X1XZ.j.B.W.OXM.S.i 3 & , f d f : p s < = 2 X  .tX6XrX6XqX6X0X6XqX5X5X5X5X5X5X5X5X6X5XwX6XeXeXyX7 % % > 2 1 1 1 < 5 6 6 1 < < , , 5 1 5 5 5 5 5 5 5 1 5 5 5 5 5 > = = = = = = = = = = = % * < 5 , 5 5 1 1 5 5 5 < * * * * * * = = = < 1 5 5 5 6 6 9 1 6 8 5 5 8 9 - = @ i ].sXsXsXsXsXsXsXsXsXXXsX).!.].!.`.(.).~.).).`.`._._._._.pX/.|.~..X!.XX).sXpXpXpX_._.~.|.).).|.|.|.).~.~._._.~.|.!.G.G.H.H.H.H.H.H.H.H.H.H.H.H.H.H.H.H.H.H.H.H.H.H.H.H.H.H.H.H.H.H.H.H.L.S.L.Q.Q.J.F.H.J.P.k.#XyXeX3.6X0X6X6X6X5X5X5X6X6X6X6X6X6X6X6X6X6X5XrXqX3XC b.Z.c.b.b.Z.v.b.#X4XrXrXrXrXrXyX;XT x.x.z.Z.v.c.n.Z.z.Z.v.c.v.#X+XT yXeXuX=XT x.Z.v.n.l.#XuX5XqXqXtXqX6X6XqX5X6X6XqXqX6X6X6X6X5X6X6X5X5X5X6X6X6X6X6XqX0X0XqXeX<XR.k.F.W.B.J.S.D.D.S.J.H.H.H.H.H.H.H.H.H.H.H.H.H.H.H.H.S.!.|._.).).~.).).).).).).)._._.).).).).).).).).).).).).).).).).).).).).).).).).).).).).).).).).).).).).).).).).).).).).).).).).).).).).).).).).).).).).).).).).).).).).).).).).).).).).).).).).)._.~.dXR.c.v.v.n.c.c.R.aXpX~. X|.).^._.~.).|.).`.`.).).}.).).).).).).).).).).).).).).).).).).).).).).).).).).).).).).).).).).).).).).).).).).).).).).).).).).).).).).).).).).).).).).).).).).).).).).).).).).).).).).).).).).).).).).).).).).).).).).).).).).).).).).).).).).).).).).).).).).).).).).).).).).).).).).).).).).).).).).).).).).).).).).).).).).).).).).).).).).).).).).).).).).).).).).).).).).).).).).).).).).).).).",
").).).).).).).).).).).).).).).).).).).).).).).).).).).).).).).).).).).).).).).).).).).).).).).).].].~.dX>XyX9XeX<Xm.n.C vXmXmXvXZ n.+Xx.x.b.z.n.Z.Z.z.z.x.+Xm.#Xb.m.x.Z.l.Z.v.Z.Z.Z.C Z.n.Z.Z.x.z.x.b.m.b.x.b.z.Z.x.b.x.x.Z.v.v.A.D.D.G.J.J.H.G.H.H.H.H.H.H.L.H.J.M.z.iXuX0X3.~ #.' -.( -.^ %.^ -.>.*._ ^ %.-.@.@.%.^ *./ >.,.w X < > * 2 2 1 , 6 6 < 4 o n uX9XyXx.M.Q.I.P.Q.Y.i % % 5 d g d s 6 4 1 # = X  .uX6X6XrXqX9XeX0X3.7X0X5X5X0X0XqXqX6XrX6X6X5X9XyX7 % = < < 5 s 5 1 1 5 5 p 5 < , , , 5 5 5 5 5 5 5 1 5 5 1 5 5 < * $ - - % = = = = = * % * = < 6 5 5 5 5 5 5 5 5 5 = = = = = = = * = , 1 1 5 5 5 5 6 6 5 5 p 5 5 1 8 % = $ E.].}.`.].].~.~.~.^.~.~.~.`.|._._._.~.|.~./.|._._.|._. X|._.)._.).~.~.~._._._._.).).).).).).).).).).)._._._.~.|.!.G.G.L.H.H.H.H.H.H.H.H.H.H.H.H.H.H.H.H.H.H.H.H.H.H.H.H.H.H.H.H.H.H.H.H.H.H.H.H.H.H.H.H.H.M.Z.yXeX6X0X0X0X5X5X5X5X5X0X5X5X5X0X0X0X0X0X0X0X6XrX3XC Z.v.z.z.Z.c.c.l.C 4XrX6X6X6XeXuX;XC b.n.n.v.b.z.b.v.v.x.z.z.z.A.m.C yX8XuX*XC v.n.v.z.m.#XuX7X7X5X0X0X5X5X0X0X0X0X0X5X6X6X6X5X5X5X5X5X0X0X0X0X0X0X0X0X5X5XwXqXyXx.D.J.G.U.G.G.U.U.L.H.H.H.H.H.H.H.H.H.H.H.H.H.H.H.H.H.S.!.|._.~._.).).)._._._.).).)._.).).).).).).).).).).).).).).).).).).).).).).).).).).).).).).).).).).).).).).).).).).).).).).).).).).).).).).).).).).).).).).).).).).).).).).).).).).).).).).).)._.`.`.dXR.l.n.n.z.x.z.Z._. X_._.).).).).).).).).).).).).).).).).).).).).).).).).).).).).).).).).).).).).).).).).).).).).).).).).).).).).).).).).).).).).).).).).).).).).).).).).).).).).).).).).).).).).).).).).).).).).).).).).).).).).).).).).).).).).).).).).).).).).).).).).).).).).).).).).).).).).).).).).).).).).).).).).).).).).).).).).).).).).).).).).).).).).).).).).).).).).).).).).).).).).).).).).).).).).).).).).).).",
").).).).).).).).).).).).).).).).).).).).).).).).).).).).).).).).).).).).).).).).).).).).).).).).|.|.~.dX>XyX0XrX=XC A.C vXmXmXxXV n.Z.l.l.l.l.Z.m.l.V l.l.A.k.c.Z.n.N.n.m.n.m.m.m.m.V n.m.N.Z.Z.Z.Z.#Xz.Z.v.#XZ.Z.z.Z.b.z.b.z.v.A.A.D.H.J.J.H.G.H.H.H.H.H.H.L.H.G.M.#XiXuXeX3.o.1.&.1.! ! Q %.^ ^ / ( *.*.*.&.( ( ( ) >./ ,.qXG O 6 = * : : 5 5 6 6 = 4 O N vXuXyX#XD.L.S.S.G.Y.i * % 6 d d s s p 1 p = 7 +  .uX0XwXwX3.,.qX0XrX0X5X5X5X5X5X5X5XwXwXwXrXeXuXhX0 X # * 2 1 p 1 1 p p 1 5 5 < * = , < 5 1 1 5 5 5 5 5 5 5 5 5 1 1 > < = * = = * = - = , 2 2 1 5 5 5 5 5 5 5 5 5 5 = = = = = = = = = < < 1 5 5 p p s p p 1 p p p s . $ @ ; R.].).).~.~.~._._._._. X}.|.|.~.~.~.~.~.~.~.).~.~.).!.~.~.~.~.^.~.].|.|.~.).).).).).^.^.).).).).).).)._._._.~.|.!.G.G.L.H.H.H.H.H.H.H.H.H.H.H.H.H.H.H.H.H.H.H.H.H.H.H.H.H.H.H.H.H.H.H.H.H.H.H.H.L.L.J.J.H.M.Z.yXeX6X0X0X0X5X0X5X5X5X0X0X5X5X5X5X0X0X0X0X0X6XrX3XC Z.n.v.z.Z.z.Z.v.+X3XeXrXrX0XeXyX;XT +Xb.b.v.b.b.v.n.n.Z.b.b.x.b.x.T yXeXuX*X+Xv.n.z.z.m.#XuX5X7X5X0X0X5X5X0X0X0X0X0X5X6X6X5X5X5X5X5X5X0X0X0X0X0X0X0X0XwXwXqXeXyX#XD.S.G.G.H.H.L.L.J.J.H.H.H.H.H.H.H.H.H.H.H.H.H.H.H.H.S.!.|._.~._.).).)._._._.).).)._.).).).).).).).).).).).).).).).).).).).).).).).).).).).).).).).).).).).).).).).).).).).).).).).).).).).).).).).).).).).).).).).).).).).).).).).).).).).).).).).~.|.|.|.pXR.l.z.v.z.c.l.R.^.|.~.].~.).).).).).).).).).).).).).).).).).).).).).).).).).).).).).).).).).).).).).).).).).).).).).).).).).).).).).).).).).).).).).).).).).).).).).).).).).).).).).).).).).).).).).).).).).).).).).).).).).).).).).).).).).).).).).).).).).).).).).).).).).).).).).).).).).).).).).).).).).).).).).).).).).).).).).).).).).).).).).).).).).).).).).).).).).).).).).).).).).).).).).).).).).).).).).).).).).",
").).).).).).).).).).).).).).).).).).).).).).).).).).).).).).).).).).).).).).).).).).).).).).)._.^.^.!./.>XyX8XrX-XC n.C yXkXkXeXC n.b.x.b.x.+X<X-X3X3X3X3X<Xx.b.x.l.z.C C gXhXhXhXhXhXvXA.m.A.z.z.v.Z.V V V V V V V z.v.z.b.v.n.A.A.D.H.J.J.H.L.L.H.H.H.H.H.L.L.P.U.N.R.R.#XT G J L $.@.#.#.6X,.7X=.&.=.&.%.%.%.=.=.-.$.G H { 0 X $ $ * > > 1 s p p 1 1 * s T C C c.G.K.J.Q.P.!.i * % , s s s 1 9 2 1 = < X A.2XZ.,XuXrX7X7X5X5X5X5X5X5X5X5X5X5X6X6XeX .l k k % < 1 s d d s d s s p , , 6 , * = = , < < < 5 5 5 5 5 5 5 5 1 p s s s 1 * * * * = * 2 s s s p 5 5 5 5 5 5 5 5 5 5 * * = = = = , < < < 1 5 5 5 5 p 5 2 = = - - - % g R.k.k.|.pX~.~.^.^.^.^.^.~.).`. X|.|._._.pX X X_.).|.).).|._._.`.XX`.`.`._.).`.).).).).~.~.~.^.~.).).).).).)._._._.~.|.!.G.G.L.H.H.H.H.H.H.H.H.H.H.H.H.H.H.H.H.H.H.H.H.H.H.H.H.H.H.H.H.H.H.H.H.L.H.H.H.L.L.H.J.H.D.Z.yXeX6X0X0X6X6X6X6X5X5X5X5X6X6X6X6X6X6X5X5X0X6XrX4XC Z.v.v.z.Z.z.Z.v.x.#X;X#X#X;X#X#X+Xm.v.n.n.b.b.b.b.v.v.c.c.z.z.n.x.x.#X;X#X#Xl.c.Z.Z.Z.l.#XuX5X7X5X0X0X5X5X0XqX0X0X0X5X5X6X6X6X5X5X5X5X5X5X5X5X5X5X5XeXeX%X#XZ.E.D.S.F.P.L.J.F.L.L.H.H.H.H.H.H.H.H.H.H.H.H.H.H.H.H.H.H.S.!.|._.~._.).).)._._._.).).)._.).).).).).).).).).).).).).).).).).).).).).).).).).).).).).).).).).).).).).).).).).).).).).).).).).).).).).).).).).).).).).).).).).).).).).).).).).).).).).).).).~.).`.|.R.m.z.c.R.R.R./.|.`.~.~.~.).).).).).).).).).).).).).).).).).).).).).).).).).).).).).).).).).).).).).).).).).).).).).).).).).).).).).).).).).).).).).).).).).).).).).).).).).).).).).).).).).).).).).).).).).).).).).).).).).).).).).).).).).).).).).).).).).).).).).).).).).).).).).).).).).).).).).).).).).).).).).).).).).).).).).).).).).).).).).).).).).).).).).).).).).).).).).).).).).).).).).).).).).).).).).).).).).",
").).).).).).).).).).).).).).).).).).).).).).).).).).).).).).).).).).).).).).).).).).).).).).).^.dXdX/.E.>XyXeXrX:XC n.C 9X6X8X4XC Z.v.v.Z.x.;XuXuXrXrXrXrXeXT b.b.z.z.C N NXBXmXMXMXmXNXT l.Z.v.v.Z.A.V h h g h h h l.z.z.b.v.n.A.D.D.H.J.J.H.L.L.L.H.H.H.H.L.H.P.K.B.B.B.S.C.k B l | ,.:.6XrX0X0X@.@.@.@.@.@.-.( / #.| r l N 7 4 6 5 6 6 % , p 1 p 1 p 2 < s 7 p C.T.S.Y.Y.S.T.i % X = 1 p 1 1 5 6 6 % = @ j.Q.j.D.1XeX3.3.6XeX5X0XqXqXqX5X0X0XqXqXvXJ o . & 3 1 s s f f d d d f s > % = = * = * = = , < 5 5 5 5 1 5 5 5 1 p d d d s > = = = , > p d d d s p p 5 5 5 5 5 5 5 5 * * = = = = < 5 1 1 6 5 5 p p p p i > 2 5 5 , ; k.IX|.pX X|.~.|.|.^.^.]./.~.|.`.~.!./././.~.~.~.}.|.].~.~.]./.!.~.~././.~./././.].].~.).~.~.)._.).).).).).).)._._._.~.|.!.G.G.L.H.H.H.H.H.H.H.H.H.H.H.H.H.H.H.H.H.H.H.H.H.H.H.H.H.H.H.H.H.H.H.H.L.H.H.H.L.L.H.H.H.D.Z.yXeX6X0X0X6X6X6X6X5X5X5X5X6X6X6X6X6X6X6X5X0X5XrX4XC Z.n.v.Z.Z.x.z.z.m.x.m.m.c.l.c.c.c.c.Z.n.n.b.b.z.z.b.b.x.b.#X+Xb.Z.n.v.z.x.z.Z.Z.b.x.x.m.#XuX5X7X5X0X0X5X5X0XqX0X0X0X5X5X6X6X6X5X5X5X6X6X6X6X6X5X5X6XeXyX>XM.B.Q.B.K.P.J.J.J.F.L.D.G.L.L.H.H.H.H.H.H.H.H.H.H.H.H.H.H.H.S.!.|._.~._.).).)._._._.).).)._.).).).).).).).).).).).).).).).).).).).).).).).).).).).).).).).).).).).).).).).).).).).).).).).).).).).).).).).).).).).).).).).).).).).).).).).).).).).).).).).).).}.[.pX>Xb.b.n.pXpX X X X_.~.~.).).).).).).).).).).).).).).).).).).).).).).).).).).).).).).).).).).).).).).).).).).).).).).).).).).).).).).).).).).).).).).).).).).).).).).).).).).).).).).).).).).).).).).).).).).).).).).).).).).).).).).).).).).).).).).).).).).).).).).).).).).).).).).).).).).).).).).).).).).).).).).).).).).).).).).).).).).).).).).).).).).).).).).).).).).).).).).).).).).).).).).).).).).).).).).).).).).",
").).).).).).).).).).).).).).).).).).).).).).).).).).).).).).).).).).).).).).).).).).).).).).).`.oX[.(./.>X1XeXuX=XC b.C 9XqXeX9XC A.v.z.A.C T uX6X6X3.qXeXyXx.c.n.n.N.m.B DXnXs.s.s.bXNXC m.Z.n.n.v.Z.V h g g g h h l.Z.v.b.b.n.c.A.D.H.J.H.H.L.L.L.H.H.H.H.L.L.F.J.Q.Q.P.D.C b m D ! [ ~ ` rXwXwX) -.2.=.=.( &.=._ >.| r l b 8 . & & $ . # 2 p 1 p 5 5 5 p k Z a D.Y.G.Q.P.J.Y.i # % = < 5 1 p p 1 5 % 4 @ V.Y.S.Z.yXwX3.3.wXeX0X0XqXqX0X5X5X7XwX6XuXT O 4 2 p 1 i p d f d d f f s > % * = * = * - = = < 5 5 5 5 1 5 p p 1 p d f f s > = - = < * p d f d s p p 5 5 5 5 5 5 5 5 * * = * * = < 5 5 5 5 5 5 5 1 1 s 6 % . . . o . h aX!. X!.]./.pX^.~.).).). X X`.pX X|. X}.}. X`.`.`.`.}. X X X`.XXXX|.|. X`._.~.~.~.).).~.~.~.).).).).).).).)._._._.~.|.!.G.G.L.H.H.H.H.H.H.H.H.H.H.H.H.H.H.H.H.H.H.H.H.H.H.H.H.H.H.H.H.H.H.H.H.L.H.H.H.H.H.J.J.H.D.Z.yXeX5X0X0X6X6X5X5X5X5X6X6X5X5X5X5X6X6X6X5X5X6XrX4XC Z.n.v.n.b.x.z.Z.c.n.c.n.Z.Z.v.v.b.v.b.b.b.b.b.b.b.v.v.Z.b.z.l.l.c.c.c.c.c.c.n.n.v.b.b.m.#XuX5X7X5X0XqX0X6X0XqX6X6X0X5X5X5X6X6X5X5X5X5X5X6X6X5X5X6X6XqXuX&XM.Q.Q.J.L.U.U.U.H.F.L.L.P.J.H.H.H.H.H.H.H.H.H.H.H.H.H.H.H.H.S.!.|.).~._.).).~._._._.).).)._.).).).).).).).).).).).).).).).).).).).).).).).).).).).).).).).).).).).).).).).).).).).).).).).).).).).).).).).).).).).).).).).).).).).).).).).).).).).).).).)._.].|.}.].R.x.z.l./.|.|.).].^.~.^.~.).).).).).).).).).).).).).).).).).).).).).).).).).).).).).).).).).).).).).).).).).).).).).).).).).).).).).).).).).).).).).).).).).).).).).).).).).).).).).).).).).).).).).).).).).).).).).).).).).).).).).).).).).).).~.).).).).).).).).).).).).).).).).).).).).).).).).).).).).).).).).).).).).).).).).).).).).).).).).).).).).).).).).).).).).).).).).).).).).).).).).).).).).).).).).).).).).).",
").).).).).).).).).).).).).).).).).).).).).).).).).).).).).).).).).).).).).).).).).).).).).).).).(.`.>X>X>XiX4XuX*XC +XC 9X6XrX9XC n.n.n.n.m.T uX5X6X6X6XwXeXx.c.l.z.n.l.N HXNXzXbXbXbXNXC l.Z.v.z.z.Z.Z h g g g g Z l.#Xb.b.z.v.A.A.D.H.J.H.H.L.L.L.H.H.H.H.L.L.G.G.P.H.U.D.k.V C j #.1.( -.0X6XrX#.@.@.W &.^ ( *._ >.R G v m e 4 % 4 4 4 8 < $ 1 5 5 5 5 s k Z h D.U.M.U.S.L.T.i , , < 6 6 p p i 1 1 # < $ C.Y.S.R.iXeX4XeXrX8X5X5XqX0X5X7X5X5X5X6XuXT O 6 > p s s s d d d d d d s 1 2 1 2 * = = = * * < 5 5 1 5 5 5 5 5 5 p s s d p > * = = , # 2 s d s p 1 p 5 5 5 5 5 5 5 5 , , , = * * < 5 p p p p 5 1 < < . = 5 , * , = # k.pX!.}.~.|.~._.).).}.).~.pXdXR.~.!.{.{.!.).pXpX^.^.^.pXpX/.!.~.^./.R.R.`.XX`.`.^.^._._.~.~.).).).).).).).).)._._._.~.|.!.G.G.L.H.H.H.H.H.H.H.H.H.H.H.H.H.H.H.H.H.H.H.H.H.H.H.H.H.H.H.H.H.H.H.H.L.H.H.H.L.H.J.J.H.D.Z.yXeX5X0X0X0X0X0X0X5X5X5X5X5X5X5X0X5X5X5X5X0X6XrX3XC Z.v.v.n.b.x.b.v.Z.Z.v.z.b.z.x.x.x.x.x.z.b.v.v.v.v.n.n.c.c.l.z.#X+X+X+X+X+Xx.m.c.Z.Z.#Xl.#XuX6X7X5X0XqX0X0X0XqX6X6X6X5X0X0X5X0X5X5X0X5X5X5X5X5X5X5X5X0XeX;Xk.J.H.S.D.D.U.U.H.H.H.J.J.H.H.H.H.H.H.H.H.H.H.H.H.H.H.H.H.H.S.!.|.).~._.).).~._._._.).).)._.).).).).).).).).).).).).).).).).).).).).).).).).).).).).).).).).).).).).).).).).).).).).).).).).).).).).).).).).).).).).).).).).).).).).).).).).).).).).).).)._.~.).(.~.R.n.Z.c./.~.).~.).|._._._.).).).).).).).).).).).).).).).).).).).).).).).).).).).).).).).).).).).).).).).).).).).).).).).).).).).~.).).).).).).).).).).).).).).).).).).).).).).).).).).).).).).).).).).).).).).).).).).).).).).).).).).).).).).).~.~.).).).).).).).).).).).).).).).).).).).).).).).).).).).).).).).).).).).).).).).).).).).).).).).).).).).).).).).).).).).).).).).).).).).).).).).).).).).).).).).).).).).).",
").).).).).).).).).).).).).).).).).).).).).).).).).).).).).).).).).).).).).).).).).).).).).).).^.>X1X9X0X6XrX7XuX:XC #XC 9X6XrX3XC n.n.n.Z.x.T uXeX0X0X6XwXeXC c.Z.Z.Z.C b NXnXbXs.f.f.NXC z.Z.n.b.v.Z.V g V g g g a l.Z.z.v.v.n.A.D.D.H.J.J.H.L.L.L.H.H.H.H.L.L.U.G.F.F.K.Q.J.P.H.C.yXeXqXqXqX4XtXH r t L $.$.@.qXwXrXrXwXrXrXrXrXrXuXeXeXyXN 7 % , 5 5 2 s s s 6 8 k k 6 . @ . < < 1 p 5 5 p p 6 6 5 : 2 ; V.Q.Q.F.D.k.k.>XyX0X5X5X0X5X5X5XqXqX0XeXuXT X 1 p f d d s p 1 1 1 1 p s s s s p > 2 = = * > < 5 5 1 5 5 5 1 5 p p p p s < * = = * , * 2 5 s p 1 1 5 5 5 5 5 5 5 5 5 < 1 6 , * * 2 5 5 5 5 p 5 1 1 1 i C.aXsXXXsXsXsX(.|.).~.|.|.`.`._.}.|.]./.dX#XB t w y D y F P ! o.o.! o.X.F D D y r r B R././.].].].)._.^._.`.`.).).).).).).)._._._.~.|.!.G.G.L.H.H.H.H.H.H.H.H.H.H.H.H.H.H.H.H.H.H.H.H.H.H.H.H.H.H.H.H.H.H.H.H.L.H.H.H.L.L.J.J.H.M.Z.yXeX0X0X0X0X0X0X0X0X0X0X0X0X0X0X0X0X0X0X0X5X6XrX3XC Z.z.b.n.n.b.v.v.v.v.z.l.c.v.n.v.Z.Z.v.v.v.v.v.b.b.b.b.x.+XT *XuXrXwX0XeXuX%XT x.x.x.b.m.#XuX5XqX0X0XqX0X0X0X0X6X0X0X5X0X0X0X0X0X0X0X0X0X0X0X0X0X0X0XeXuX&Xk.Q.K.P.H.P.J.P.H.H.J.J.H.H.H.H.H.H.H.H.H.H.H.H.H.H.H.H.H.H.F.!.|.).~._.~.).)._._._.).).)._.).).).).).).).).).).).).).).).).).).).).).).).).).).).).).).).).).).).).).).).).).).).).).).).).).).).).).).).).).).).).).).).).).).).).).).).).).).).).).).).)._.|.}. X_.^.pX^.^. X_.`.}.}.)._.).).).).).).).).).).).).).).).).).).).).).).).).).).).).).).).).).).).).).).).).).).).).).).).).).).).).~.~.).).).).).).).).).).).).).).).).).).).).).).).).).).).).).).).).).).).).).).).).).).).).).).).).).).).).).).).~.).).).).).).).).).).).).).).).).).).).).).).).).).).).).).).).).).).).).).).).).).).).).).).).).).).).).).).).).).).).).).).).).).).).).).).).).).).).).).).).).).).).).",
").).).).).).).).).).).).).).).).).).).).).).).).).).).).).).).).).).).).).).).).).).).).).).).~.R.>XyXrX6XwX8XuX<Xm.Z.C 9XqXrX3XC Z.v.b.Z.m.T yX4XeXeX8X0XeXC n.v.z.v.C b NXcXxXzXbXbXNXC l.v.z.b.m.Z.V Z V g g V h l.Z.v.v.Z.n.A.D.D.H.J.J.H.L.L.L.H.H.H.H.L.L.J.G.T.S.U.I.S.G.K.c.yXeX0XwXrXeXuXK t t K ,.#.^ qX0XwX7XwXrX0X6XwXwXrX0XtXuXN o < > s p > s d d f a Z k 8 X - % 9 5 p p 5 6 < 5 6 5 s > < @ k.T.P.F.P.F.M.dXuX3.7X0XqXqX5X5XqXqXqXeXuXT O 5 p s d d s 1 2 1 8 1 2 s f g f p > 2 , = * * < 5 5 1 5 p 5 1 1 p p 1 < 5 < = , , , , = , 1 5 5 1 5 5 5 5 5 5 p p 5 5 5 5 5 < * * < 5 5 5 p p 5 1 < < @ C.aXsX(.oXXX).pX/.].R.^.^._.`.!.). X).^.dX#Xk N z M M t L $.2.1.] ) ,.| G v G G G z N >XpX`.`.}.).`._.~.^.^.^.).).).).).).)._._._.~.|.!.G.G.L.H.H.H.H.H.H.H.H.H.H.H.H.H.H.H.H.H.H.H.H.H.H.H.H.H.H.H.H.H.H.H.H.L.H.H.H.L.L.J.H.J.D.Z.yXeX5X0X0X0X0X0X0X0X0X0X0X0X0X0X0X0X0X0X0X0X6XrX3XC Z.x.b.v.n.b.b.v.v.b.b.+Xb.b.Z.v.v.z.x.z.z.v.v.b.b.b.b.b.b.C ;XuX5X7X7X6XuX&XC l.Z.n.n.l.#XuX6X7X0X0XqX0X0X0X0X6X0X0X6X0X0X0X0X0X0X0X0X0X0X0X0X0X0X0XqXuX&Xk.Q.U.P.F.F.J.H.L.H.J.J.H.H.H.H.H.H.H.H.H.H.H.H.H.H.H.H.H.H.S.!.|.).~.^.~.).)._._._.).).)._.).).).).).).).).).).).).).).).).).).).).).).).).).).).).).).).).).).).).).).).~.).).).).).).).).).).).).).).).).).).).).).).).).).).).).).).).).).).).).).).).~.~.~.~.|.).`. X`.~.dX^./.}.}.].~.~.).).).).).).).).).).).).).).).).).).).).).).).).).).).).).).).).).).).).).).).).).).).).).).).).).).).).).).).).).).).).).).).).).).).).).).).).).).).).).).).).).).).).).).).).).).).).).).).).).).).).).).).).).).).).).).).).).).).).).).).).).).).).).).).).).).).).).).).).).).).).).).).).).).).).).).).).).).).).).).).).).).).).).).).).).).).).).).).).).).).).).).).).).).).).).).).).).",
").).).).).).).).).).).).).).).).~.~.~.).`.`.).).!. X_.).).~.). X).).).).).).).).).).).).).).).^.>X1XqX7X3.3.3.0X=XT C T 4XwXwX6XC l.l.x.x.C T uXrXwXwXwXuX3X+Xm.m.n.v.C { NXBXMXMXf.VXnX..C Z.n.v.A.l.V h h h h h g k.A.A.b.b.v.c.D.D.G.J.J.P.L.H.H.H.H.H.H.J.J.G.G.J.J.H.H.S.G.Q.k.yX6XfX8X2.6X4XG 0 0 E R ' ~ 8X8X8X8X8X8X8X8X8X8X8X8X>.eXB o   - # s p p f f f Z f k 8 % = % 6 6 5 5 1 1 p p 5 5 1 , = @ V.Y.L.F.J.S.c.&XeXrX7X8X8X8XfXfX8X8X8X>.uXT O s 2 s f g d 1 1 5 p p p s d f d 1 3 # > % , 2 < 5 1 5 5 5 5 5 5 5 5 5 5 1 , * % * % * * , 5 5 5 5 < < 1 2 p p 1 1 5 1 1 1 5 2 , 1 2 < 1 5 5 2 8 % % . @ V E.pX`.`.].^.~._._._.}. X_.^.}.!.XXXX XsXA.Z B q l q 0 G R / ' ' U R | w t l l l r l E.[.(._._.|. X}.`.).}.|.~.^.~.~.^.^.^.^.|.~.~.|..XU.S.P.L.G.G.H.H.H.L.L.H.H.H.H.H.H.H.H.H.H.H.H.H.H.H.H.L.L.H.G.K.J.H.P.L.L.H.H.H.S.H.J.P.U.b.iX4X2.8X8X8X8X8X8X8X8X8X8X8X8X8XfX8X8XfX8X8X8X8X4XC Z.b.x.z.v.l.A.c.c.c.m.k.k.k.k.v.m.c.n.l.c.l.c.N.N.b.z.Z.l.T =XeXrXwXwXrXuX$XT C x.z.b.b.+XuX>.8X8X8X8X6X8X8X8X6X6X8X8X8X8X8X8X8X8X8X8X8X8X' 8X8X8X8X8X9X&Xk.Q.L.L.I.G.Q.K.S.S.J.J.G.L.S.G.G.J.H.J.J.J.J.H.G.H.S.S.S.S.M.I.~.).~.).|.~.).).).).).).).).|.|.~.~.].~.~.|.).).).).).).`._.).).).).).).).).).).).).).).).)._._.`.~.|.|.~.~.~.~.~.~.~.).`.`.).).).).~.~.~.).|.!.|.~.(.|.).|.~.].].~.~.~.~.^.~.~.~.~.~.~.~.).}.}.|.|.}.XX(.}.].!.|.~.].!.].|.).).).).).).).).).).).).).).).).~.~.).).).~.).).).`._._.)._.`._.).).).).).).).).).).).).).).).).!.`.`.).~./.~.|.~.~.~.~.).`.`.`.).).).).).).).).~.).).~.).|.).~._.|.~.~.|.).~.~.).).).).).).).~.~.~.~.).).`.).)._._.~.~.|.~.].].~.).).).).).).).).).).).).).).~.~.~.~.~.~.~.~.).~.|._._. X_.~.~.).).).).).).).).).).).).).).).)./.(._._._.|.`.~.~.~.~.~.~.~.~.~.).).).).).).).).).).).).).).).).).).",
"_._._._._._._._._._._._._._._._.).`.`.`.`.|.].~.|.].~.~.].~./.~.~.).).).).).).).).).).).).).).~.!.dXdX,X1X,X,X>XdXR.R.R.,X1X1X>XR.R.R.R.R.R.>X,X;X;X;X;X&X#X#XZ.z.A.c.l.C 1X1X2X&X&X:X2XA.z.#Xv.v.Z.Z.l.V l.l.l.V m.z.Z.v.b.b.v.A.A.D.G.H.P.L.S.S.S.S.S.S.S.H.G.H.G.G.G.S.S.G.J.Q.k.vXlXkXlXkXxXxX4.4.4.0.i.i.i.jXjXlXlXjXjXkXkXi.kXjXjXkXcXA.h V V 2 6 * 2 p p p d f f s % * * 5 5 5 p p p p p 1 s 1 = = $ k.Y.D.G.J.H.S.R.>X#X..vXvXkXlXjXjXjXjXu.cX..X s i d d d s 2 1 5 5 p p p p p p p p s 5 * 2 , 2 5 5 5 5 5 5 5 5 5 5 5 5 5 p p s 5 < , , < 5 p p 5 5 5 1 1 5 p < < 6 , < , 6 , > < , 1 5 1 = * = 1 C.C.k.R.|.|.(.(.~.~.~.]..X!..X.X~.^.].^.dXZ.l.#XT K | I ..4.} +.t.6.6.6.5.6.6.Y I U } U U I dX`.~.^.^.].].].].~.~._.).).).).).)._._._.~.). X~.U.G.P.L.H.G.H.L.L.L.H.H.H.H.H.H.H.H.H.H.H.H.H.H.H.J.J.G.J.H.H.L.L.S.S.L.P.P.P.L.L.J.J.P.D.A.vXvXkXxXkXkXkXkXkXkXkXkXkXjXjXlXkXkXkXkXkXkXkXxX9XC Z.b.z.z.z.z.b.z.+X;X%X%X%X-X;X=XT x.x.#X&X*X;X#Xm.l.l.Z.v.x.#X&X;X;X;X;X&X#Xx.b.n.b.Z.C #XcXu.jXkXkXkXjXjXkXkXjXjXjXjXjXjXjXkXjXjXjXjXjXlXi.lXkXkXkXkXcX1Xk.Q.J.S.I.P.L.H.T.T.J.J.H.L.H.H.P.P.P.P.L.L.G.H.P.P.Q.Q.'.'.'.~.|.).~.).).~.).).).).).).).).!.).!.).|.|.~._.).|.].].].].~.)._._._._._._._._._._._._._._._._.~.~.~.~.~.).~.~.).).).).~.~.~.).).).).).~.~.~.).).~.|._.~.|./._._._._._._._._._._._._._._._._._.^.R.R.R.'.`.).).|.~. X`. X(.`.).).).).).).).).).).).).).).).).).~.~.).).~.~.~.~.~.].].].].].].]._._._._._._._._._._._._._._._._.].].~.~.].~.~.~.).).~.~.~.~.~.~.~.).).).).).).).).).).~.).).)._._.|._.~._._._._._._._._._._._._.~.~.~.~.~.~.].].].].~.).|._.|. X).).).).).).).).).).).).).).).).).`.`.`.`.`.).).~.~.~.~.~.|.|.|._._._._._._._._._._._._._._._._.].].]./.~.].|.|.~.~.~.~.~.).).).).).).).).).).).).).).).).).).).).).",
"~.~.~.~.~.~.~.~.~.~.~.~.~.~.~.~.~.~.~.~.~.~.~.).).!.~.`.`.`.).).).).).).).).).).).).).).).).).).(.XX`.(.(.(.(.(.XXoXXXoXXX(.(.(.[. X X}.}. X!.k.k.c.l.l.l.l.l.c.Z.v.v.Z.m.l.m.m.c.m.m.l.m.c.Z.C x.b.Z.v.b.Z.#XZ.b.b.+X+Xb.z.b.v.c.D.D.G.F.J.H.G.P.P.L.L.L.L.P.P.P.P.L.L.L.P.Q.Q.K.C.cXmXf.MXMXMXmXMXSXBXmXmXmXmXMXMXMXMXMXMXMXMXSXmXMXf.f.CXIXD.{.T.i % . - 5 i i d d f s * * * 5 5 5 5 p p p p 1 s < = - $ k.Y.S.G.P.J.B.K.K.V.A DXNXbXMXf.f.MXf.f.CX..o 2 i f d d s 1 1 5 5 5 5 5 1 1 1 p d f s , , > 2 5 5 5 5 5 5 5 5 5 5 5 2 p s f f d s 1 1 5 5 5 p 5 5 5 5 5 5 5 , * * * = % , = * , * 5 p p 1 < ; i aXsXXXsXpX]./.].|.|.)._.^.^.^._._.`._.dX>XC q D F &.&.o.t.lXa.p.a.p.p.p.a.lXjXO.&.1.1.1.1.:.dX(.(.}.~.^.].].~.~._._.~.~.~.~.~.~.~.~.].~.].].!.G.S.L.L.L.L.L.L.L.H.H.H.H.H.H.H.H.H.H.H.H.S.H.H.J.J.J.G.J.H.P.L.P.L.G.S.S.H.H.S.G.J.K.T.V.A NXmXf.f.MXMXMXMXMXMXMXMXMXMXf.MXMXMXMXMXMXf.MXmXhXV v.Z.n.Z.Z.b.n.m.+X4XrXwXwXrXrXuX;X+X+XT 9XrXrX*Xx.A.Z.c.l.l.l.l.k.k.c.m.c.c.c.c.c.l.z.V &XNXMXMXf.MXMXf.MXMXMXbXbXMXMXMXMXMXMXMXMXMXMXMXMXMXmXMXMXMXMXCXgXV.Q.Q.K.S.G.H.H.S.S.F.K.J.J.S.S.S.S.L.D.S.S.T.S.S.S.S.!.}. X~.|.|.).~.).).~.).).).).).).).).|.|.|.|._.~.!.).).).).).).).).).^.^.~.~.~.~.~.~.~.~.~.~.~.~.^.^.|.|.)._.~.~._.).`.`.).).~.~.~.~.).).).).~.~.).).).).)._.~.).~.~.~.^.^.~.~.~.~.^.^.^.~.~.~.~.~.^.>Xn.l.l.R.dX^.^./.R.]./.~.R.]./.~.).).).).).).).).).).).).).).).~.).~.~.~.).).)._.).`.`.).).).).^.^.~.~.~.~.~.~.~.~.~.~.~.~.^.^.~.!.~.~.).`.).).).).~.~.~.~.~.~.~.).).).).).).).).).).).).).).).~.~.^.~./.^.^.~.~.~.~.~.^.~.~.~.`.`.`.`.).).~.~.~.~.~.).~.).!.(.).).).).).).).).).).).).).).).~.~.~.~.~.~.~.~.~.].].]./././././.~.~.~.~.^.~.~.~.^.^.~.~.~.~.~.~.~.|.~.~.~.~.~._.).).~.~.).).).).).).).).).).).).).).).).).).).).).).",
" X X X X X X X X X X X X X X X X X X X X X X X XsX|.pX|.].].].].~.).).).).).).).).).).).).).).~..X]./.!.!.!.~.].]./.sX}. X|..XpXpXpXXX X|.aXdXl.Z.#X#XZ.Z.b.+X#Xb.n.n.>Xb.b.m.Z.n.n.v.v.n.v.A.z.l.z.z.z.v.Z.b.b.#Xb.b.b.z.z.v.n.c.D.Y.Y.J.J.Q.Q.J.J.J.J.H.H.H.J.J.J.J.J.J.J.Q.Q.M.C.cXSXMXbXbXs.zXs.bXMXbXzXzXzXbXMXMXbXbXbXbXbXzXzXbXf.f.NX2Xj.(.P.; & * < s 5 p d f f s > > > 5 5 5 5 5 5 5 5 5 5 < = - $ V.Q.S.G.P.U.G.J.K.S.V HXCXbXnXs.bXMXMXMXCX..X 5 p f f f s 5 5 5 1 5 5 5 5 1 p s f f s > > : 2 s 5 5 5 5 5 5 5 5 5 5 2 p s f f d p 1 5 5 5 5 5 1 5 5 5 5 5 1 * % % % * $ = = * * * 8 8 8 - - . ; ].|.XX`.).~.).|. X`.XX XpXpX|. X[.XX(..XE.A k y F ,.Y Q 6.jXy.e.r.e.9.9.e.u.kXW W ( ! ! =.;X>X!.[.[.XXXXpXpX|.|. XpX X X X X X X X X X X X X(.I.P.I.H.P.P.H.L.L.H.H.H.H.H.H.H.H.H.H.H.H.H.H.H.H.H.H.H.H.G.P.G.J.Q.P.P.P.P.P.J.Q.Q.Q.Q.V.A.HXNXbXbXbXbXMXbXbXMXbXnXnXmXnXbXbXbXbXbXs.f.f.mXhXZ c.+Xn.A.A.n.n.l.C 4XrXqX7X7X5XuX;Xx.x.T 9XrXeX;XC l.n.#X#X#XZ.b.#X#X#X+X#X+X#X#X+X+X#XC &XNXf.f.f.bXbXbXbXbXbXbXbXbXbXbXbXbXbXbXbXbXbXbXbXbXbXs.zXzXnXCXgXg J.Q.P.H.P.Q.Q.J.J.J.J.J.J.J.Q.Q.Q.Q.Q.Q.J.(.P.Q.J.M.I..X|.~.).).~.~.|.|.~.).).).).).).).).|.|.|.).).`.|.sX|.|.|.|.|.|.|. X X X X X X X X X X X X X X X X XpXXX`. X(.~._.|.~.~.).).).).~.).).).).).~.~.).).)._.~.~.~.).|.|._. X X X X X X X X X X X X X XpXdXR.c.c.R.pXpXXX X XsXXX X'.|.~.~.).).).).).).).).).).).).).).).~.~.~.~.~.~.).|.|.|.|. X|. X|. X X X X X X X X X X X X X X X X XsX`.sXpX`.`.`. X~.~.~.).~.).).).).).).).).).).).).~.~.).).~.).|. X`.pXpX XpXpX_. X X X X X X X X X X X X X X X X}. X XpX~.|.~.~.~.).).).).).).).).).).).).).).).).).).`.`.`.`.`.`.`.XXsXXXXXXXXX X X X X X X X X X X X X X X X X`.`.`. X|.}.`.`.`.`.~.~.~.~.~.~.).).).).).).).).).).).).).).).).).).",
" X X X X X X X X X X X X X X X X X X X X|.|. X X X].].~.`.XX`.`.).).).).).).).).).).).).).).).^.~.|.^.^._.`._.pXsX'. X(.XXXX XpXpX`. X`.~.pXdXZ.Z.n.Z.Z.Z.Z.N.n.Z.Z.Z.z.l.#XA.Z.z.Z.Z.Z.A.n.n.Z.v.b.v.z.v.v.v.z.v.z.v.v.l.z.Z.n.R.N.U.P.H.J.P.P.Q.Q.P.P.P.I.P.Q.Q.Q.Q.P.Y.Y.P.I.Y.C.vXNXzXbXmXzXnXbXbXbXnXnXnXbXbXbXbXbXbXbXbXbXf.f.mXbXMXNXgXC.D.C.# * 2 1 5 6 p d d d p > 2 , < < < 6 5 5 5 1 1 5 6 - - $ V.Q.J.L.U.U.D.I.Y.C.A cXnXbXnXbXnXnXs.zXNX..o 8 2 s d d s p 5 5 < 5 5 5 p 5 p d d d s > , , 1 s 5 5 5 5 5 5 5 5 5 5 1 5 p s d s p 1 5 5 5 5 1 1 1 1 5 5 5 1 2 2 2 1 5 < 6 , * , * 5 i p : , p h ].}. X X|.pXsXsXXX X|.|.`.`. X}.}.|.pXdX>Xx.C B G $.$.O.6.u.u.q.u.u.u.u.y.u.t.O.} $.>./ 4X;X>XdXdX/.`.`.`. X}.}.}. X X X X X X X X X}.}. X}.(.'.Q.P.G.P.P.H.L.L.G.H.H.H.H.H.H.H.H.H.L.L.H.H.H.H.H.H.H.H.H.Y.L.D.Y.Y.'.'.Q.Q.I.Y.P.Y.Y.C.2XHXNXnXmXmXnXnXnXnXnXnXnXnXs.nXnXnXnXbXnXbXnXnXNXhXV v.n.l.z.x.+X+Xb.+X4X8XrXeXrXeXuX;XT +X;XyXuXyX&X+X+X#Xb.Z.Z.n.N.Z.+Xn.#Xb.v.n.Z.n.n.Z.V 2XNXs.f.s.nXzXnXbXbXbXnXnXnXbXbXbXbXbXbXbXbXbXbXbXnXnXnXNXzXNXHXgXC.P.P.I.U.I.Q.Q.Y.Y.Y.Y.I.Y.Y.Y.Y.Y.Y.Y.T.T.S.j.Q.Q.M.Q.).~.~.~.~.~.).|.|.~.).).).).).).).).~.~.`.`.`.XX X'. X X X XXXXXXXXX X X X X X X X X X X X X X X X|.].].R.sX|.).~.~.~.~.).).).).).).).).).).).).).).~.).~._.~.~.|.I.). X X|. X X X X X X X X X X X|.dXR.A.R.R.dX]..X|.].~.).sX`. X_.).).).).).).).).).).).).).).).).~.~.~.~.).`.`. X`.|.}. X XXXXX X X X X X X X X X X X X X X X X XpX].E.R.).XX).|.~.~.).).).).).).).).).).).).).).).~.~.|.).~.). XsX`. X X`. X|._. X X X X X X X X|.|.|.|.|. X X X X X X`.'.sX`.`.).).).).).).).).).).).).).).).).).).).).`.`.`.).sX~./.].].].|.|. X X X X X X X X X X X X X X X|.|.aX].].E..XpX X`.`.).~.~.~.~.~.).).).).).).).).).).).).).).).).).).",
"X X X X X . X X X X X X X . X X X X X X X X X X o . . : k.|.~.|.~.).).).).).).).).).).).).).)._.`.`.`.`.`.).~.].V # - o & X     o X & & . & & . & . . X X % & $ X = % % i l.c.c.c.v.z.z.z.v.v.n.Z.b.v.v.v.v.v.v.v.v.v.v.z.z.v.x.C 8 X X - & % % X X X X $ X X X X X X % X $ # ; ; @ 4 7 O k 9X<.6X6X6X6X6X6X6X6X6X6X6X6X6X6X6X6XeXiX<Xc.k.U.M.j.Q.T.: = , : < * * 5 p p 1 2 5 < , = , < 5 5 1 1 2 5 , = - $ k.Y.H.H.L.L.L.U.L.J.j.Q.M.k.,XiXiX4XeXqXkX{ o 6 * 1 p s 5 1 5 5 1 5 5 5 5 1 p s d d d 1 5 5 5 s 1 1 5 5 5 5 5 5 5 5 5 5 5 p p p 5 5 5 5 5 5 1 2 , , , < , 1 s s s d d d f 5 > , * , = 6 % . %   - % . . . . . . . o X X X X X X X + <.*.=.) o.O.7.lXt.q.y.a.y.r.y.y.e.9.r.r.a.q.y.lX5.Q o.o.$.| <.H O X . & X X % X X X X X . . . . . X X X . . . @ C.P.P.G.L.L.G.L.H.H.H.H.H.H.H.H.L.L.L.L.H.H.J.J.P.H.S.D.g ; # $ $ . . . . . X $ # @ . = . . . . . . . . . . . o 0 %X9X6X6X6X8X8X6X3.eX%XC n.n.b.n.v.z.Z.C.C.Z.#XC C l.l.A.a @ # . % % % $ @ @ . . X X X % % % X & . . & & . % 4 % Z uX,.6X8X8X8X6X6X,.6X6X6X6X6X6X6X6X6X6X6X6X6X5X6X6X6X6X4X+ o o o . # . - - 4 % % . . . X X $ $ $ % % $ X . . 2 ; C.].!.|.|.^.).).).|.|.|.).~.).).).).).).).).pX_.).).].aXC.: % X X o o o o o X X X X X . X X X X X X X X X X # : i R.E.~.~.|.).).).).).).).~.).).).).).).).).!._.~.pX~.~.].k.$ . X X X X . X X X X X X X X X % $ % $ % % $ $ # $ @ h E.~.|._.).).).).).).).).).).).).).).).)._._.~.~.~./.E.E.$ X . X X o o o X X X X X . X X X X . X X X X X $ $ % : k.pX~.|.~.~.`.`.~.~.~.~.~.).).).).).).).).~.~.|.).~.).].V % % X   X X % X X X X X . . X X X X X X X X X X X % , i R.E.].~.).).).).).).).).).).).).).).).^.^.~.~.].].].E.E.d @ % $ $ % . X . X X X X . X X X X X X X X X $ $ . $ $ f E.R.~.).).).~.)._._.).).).).).).).).).).).).).).).).).).",
"% % % % % % % % % % % % % % % % % # # # % % % % - - X $ C.sX!.~.~.).).).).).).).).).).).).).).~./.].].]..X!.~.].C.$ - X : , * * X - - - - $ $ & 2 & & * & * * & & - - % : A.Z.Z.Z.b.b.b.Z.Z.Z.b.b.v.v.v.v.v.v.v.b.b.b.b.v.v.v.z.#Xa X % - % % % % - - % % - - - - - % % % - - % < . - .   k uXrX6XrX8X5X5X8XrX8X8X8X5X5X5X5X5X5X6XqX1Xk.M.K.J.Q.H.T.: = = % 2 * * 5 1 1 1 1 s 5 * * * < 5 5 5 1 * , = * - $ k.Y.S.H.H.H.L.L.J.F.Q.Q.B.k.#XuX5X7X8X6XuXK X p , s 1 1 1 1 5 5 1 p 5 5 5 2 1 s f f d 5 p p 5 p 1 1 5 5 5 5 5 5 5 5 5 5 5 5 5 5 5 5 5 5 5 5 1 , = * = = % > s f d f f f f p : = * - * = 6 = 8 - = % % - = * # > = = * & & & - X X 0 ,.! ] ] ! Q O.lXy.y.r.r.e.q.e.q.y.r.r.9.y.9.p.a.5.! &.! ` ) =.D O % & & - - % - % % % % % % % % % % % % - = & ; k.P.P.G.L.P.G.L.H.H.H.H.H.H.H.L.L.U.L.L.H.H.J.J.P.G.S.R.g # % - = 2 , , = - - - < < % > $ 3 $ # # % % # # # # % O 9XuX6X5X6X6X6X5X8XeX-Xm.Z.v.n.n.n.z.b.v.l.n.m.n.c.c.n.Z.a $ > & , % * * & - - % % * * > * > > > > > > > * = = . k uX6X7X7X5XeX8X0X0X0X6X5X5X5X5X5X8X8X8X8X7X7X6X6XrX8XuXyXX . . # > 8 % - X X - - - - = = = - - - - - - - - - % @ C.aX).`.`._._.).).|.|.).~.).).).).).).).).~././.~.~.].aXC.@ : % % % # # % % % % % % % % % % % % % % % % % % X % : E.].|.).`.).).).).).).).).~.~.~.~.).).).).~.).~.pX!.].aXg ; $ % * * % % % % % % % % % % % & % - % % - X - - = . d aX|.~._.).).).).).).).).).).).).).).).)._.^.~.~.).`.].].; ; # # : : : # % % % % % % % % % % % % % % % % - - X $ C.sX~.~.~.~.`.`.~.~.~.~.~.).).).).).).).|.~.~.|.).~.).aXC.; : , # * % = % % % % % % % % % % % % % % % % X - % $ ; E.|.|.).).).).).).).).).).).).).).).)._._.`.).).).).].aXg @ * - & - % % % % % % % % % % % % % % % % % - - - - . g aX].).`.`.).).)._._.).).).).).).).).).).).).).).).).).).",
"= = = = = = = = = = = = = = = = - = , 2 , < 1 2 * 4 % @ D.sX!.).).).).).).).).).).).).).).).).).`.`.).^.^.~.|.sXC.@ = = : , , < 2 p , % = 4 = 5 > > , < * * , > 2 , = % 4 C A.C m.C x.x.x.x.b.n.v.v.v.Z.Z.v.z.b.b.b.b.b.z.v.Z.z.Z.a % 6 < * > 1 = = = = , , = = * * , = * * = = - % 8 6 % Z uX8X8X8X8X8X8X8X8X8X8X8X8X8X8X8X8X8X7XeXyXz.D.J.S.S.L.Y.; * - % < * = 5 2 1 1 1 s 1 * * * , 5 5 5 < % - - * - ; k.Y.S.S.S.S.U.U.L.P.S.F.Q.D.&XuX3.wX7X6XuXT X 1 - 6 5 5 1 1 p 5 1 p 5 5 5 2 1 d d d s 1 p 1 1 p 5 p 5 5 5 5 5 5 5 5 1 1 1 5 5 5 5 5 5 p p p 5 2 * % - % $ * s d d d f g f 5 % = - - = & 9 X % * = , * , , * * > , , 2 2 = - < = 4 0 4XQ ( =.*.X.O.jXe.e.e.e.u.u.u.y.r.e.u.q.u.e.p.u.5.P X.@.#.>.3.L O > > , = 4 , > = - = = = = = = < - - * = < % @ V.P.L.S.L.P.G.L.H.H.H.H.H.H.H.L.P.P.L.L.S.S.H.H.P.G.S.E.g ; , 4 - - = , = = - - X < > > > 5 % 6 = = = - & & - 4 + uXtX3.wXwXwX6.wXwXrX4XC A.C A.v.v.z.z.x.z.Z.x.Z.z.z.z.Z.a X - & 2 % % 4 - 2 > = = = = - % % = = = = * * * = - . e uX8X8X8X8X8X8X8X8X8X8X8X8X8X8X8X8X8X8X8X8X8X8X8X8X] 8X9XX - 6 4 % 4 % < = = - & * * 2 2 - - = > , , , = - - 1 ; C.aX!._.|.|.~.~.~.~.~.~.).|.).).).).).).).).~.`. X(.!.aXC.$ 2 = = = = , = = = = = = = = = = = = = = = = = = 6 : i ].|.`.(.).~.~.~.~.).).).).).~.~.~.).).).).|._.~.pXI.].sXg : - = = = = = = = = = = = = = = * * < , * , > 2 : 6 @ f aX~.'.|.).).).).).).).).).).).).).).).)._._.~.~.`.`.].E.: * - - - = - - = = = = = = = = = = = = = = = , = 6 % $ C.sX(.).~.~.`.`.).~.).).).).).).).).).).|.~.~.|.).~.).aXC.$ # 5 , , * = = = = = = = , , = = , , 2 2 2 2 , 6 = : i E.|.~.).).).).).).).).).).).).).).).).^.^.~.~.~.).).~.aXh ; 5 < % = , = = = = = = = = = = = = = = = = * % < 1 @ g aX!.`.`.`.).~.~.^.^.).).).).).).).).).).).).).).).).).).",
"= = = = = = = = = = = = = = = = = = , = = = = = = * - @ C.sX/.~.~.).).).).).).).).).).).).).).).^.^.~.~.`.`.|.aXC.@ * = * = = - = = = = = = = = = = = = = = = = = * - % ; E.E.R.R.R.R.R.c.z.Z.x.b.b.n.v.v.v.v.v.v.v.b.b.b.b.v.z.Z.a % = = - , , = = - = = = = = - - = = - - - = * < * 5   e NXs.u.kXkXkXkXkXkXkXkXkXkXkXkXkXcX;X#X>XR.A.D.D.L.J.J.T.3 & = = = = = , , 2 < 5 5 1 2 1 1 1 5 8 5 , # * * = - @ V.!.H.H.H.H.L.L.H.H.S.H.U.D.R.>XdX>XkXi.xX..o 5 @ 5 5 5 5 5 5 5 5 5 1 p 5 2 i d f d s p 5 p 5 5 5 5 5 5 5 5 5 5 5 5 1 1 5 p p p p 1 s 1 , , , p f p p p s p p p p s p s 5 < = * % % = = = = = = = = = = = = = = = = - & 6 = , 6 % e <.! >.=.@.X.O.lXy.y.r.u.e.e.e.w.e.y.y.e.y.e.r.jX5.P -.! =.^ 6XG o = < * = = > > = = = = = = = = = , * = * = - @ C.].'.!.S.F.H.H.L.L.L.L.L.L.P.P.H.H.L.L.L.L.H.H.H.P.H.T.V @ 2 = > = = = = = = = = = = = = = = = > > > = - - 4 7 7 #X>X>X>X,X,X,X,X,X#X#X+Xx.n.n.b.x.v.v.b.z.z.z.z.v.b.v.Z.a $ = = = = = - - = = = = = = = = = = = * * = = * = 6 X k cXhXkXkXkXkXkXkXkXkXkXkXkXkXkXkXkXkXkXkXkXkXkXkXjXu.lXcXX ; , = = = = = = = = = = = = = = = = = = > = = - - = @ C.pX/.~.~._.).).).).).).).).).).).).).).).)._._._.).~.aXC.@ , = = , = = - = = = = = = = = = = = = = = = = = = > ; aX].].~.).).~.).).).).).).).).).).).).~.~.).~.).).~.].aXg $ = = * = , * = = = = = = = = = = = = = = = = = * < . f aX`.`.).).).).).).).).).).).).).).).).)._._.~.~.).~.|.aX; % = = = = - - = = = = = = = = = = = = = = = = = = - @ D.sX/.~.~.).~.~.).).).).~.~.).).).).).).~.~.~.).|.).).pXC.@ > = * = , > = = = = = = = = = = = = = = = = * = * : ; aX].~.).).).).).).).).).).).).).).).)._._.).).~.~.~.~.aXg $ = = * = = = = = = = = = = = = = = = = = = = = * < . f aX).).).).).^._._.).).).).).).).).).).).).).).).).).).).",
"= = = = = = = = = = = = = = = = = = = = = = = = = * - @ C.sX/.~.~.).).).).).).).).).).).).).).).^.^.~.~.`.`.|.aXC.@ * = * = = - = = = = = = = = = = = = = = = = , * = # i E.].~. X}.pXdXR.c.n.b.b.b.b.b.b.b.z.z.b.b.b.b.v.v.v.v.Z.a % = = - , , = = - = = = = = = = = = - - = = = 1 = 8   e NXs.MXMXMXMXMXMXMXMXMXMXMXMXMXMXAXgXV.Q.K.F.J.K.Q.J.Q.T.: % - = = * * = , , < 5 5 5 1 5 5 1 5 5 1 > = , = = - @ V.Y.H.H.H.H.L.L.H.H.H.J.F.F.S.B.B.g CXMXCXh.o 9 * 5 8 5 5 5 5 5 5 5 1 p 5 1 p d f f s 5 1 5 1 1 5 1 5 5 5 5 5 5 5 5 5 5 5 5 5 5 1 1 8 , * * , s f f f f f f p 5 p p 5 p 5 < = * - - = = = = = = = = = = = = = = = - - % < % & & X 0 qX! ` ] -.X.O.lXe.w.e.e.r.r.r.r.r.y.r.r.r.e.u.lX5.U >._ _ / 4XG X , 2 = - = * - = = = = = = = = = = * = * = - @ T.sX}.}.L.S.H.H.H.L.L.L.G.G.G.H.H.H.L.L.L.L.H.H.H.P.H.T.V @ 2 = > = = = = = = = = = = = = = = = = = , = = = > 3 ; S.B.B.B.B.B.W.B.W.B.G.c.c.Z.Z.x.x.v.n.b.x.b.b.v.v.b.z.Z.a $ = = = = = - - = = = = = = = = = = = * * = = * = < . S BXf.MXMXMXMXMXMXMXMXMXMXMXMXMXMXMXMXMXMXMXMXMXMXMXf.MXNXo - * = = = = = = = = = = = = = = = = = = > = = - - = @ C.pX/.~.~._.).).).).).).).).).).).).).).).)._._._.).~.aXC.@ , = = , = = - = = = = = = = = = = = = = = = = = = > ; aX].].~.).).~.).).).).).).).).).).).).~.~.).~.).).~.].aXg $ = < * = , * = = = = = = = = = = = = = = = = = * < . f aX`.`.).).).).).).).).).).).).).).).).)._._.~.~.).~.|.aX; % = = = = - - = = = = = = = = = = = = = = = = = - - @ D.sX/.~.~.).).~.).).).).~.~.).).).).).).~.~.~.|.|.).).pXC.@ * = * = , > = = = = = = = = = = = = = = = = * = * : ; aX].~.).).).).).).).).).).).).).).).)._._.).~.~.~.~.~.aXg $ = - * = * = = = = = = = = = = = = = = = = = = * , . f aX).).).).).^._._._.).).).).).).).).).).).).).).).).).).",
"= = = = = = = = = = = = = = = = = = = = = = = = = * - @ D.sX/.~.~.).).).).).).).).).).).).).).).^.^.~.~.`.).|.aXC.@ * = * , = - = = = = = = = = = = = = = = = = , , , : i ]..X{.}. XpXdXc.l.x.x.m.x.z.x.z.z.b.x.b.b.v.v.v.v.n.v.#Xa % = = * , , = = - = = = = = = = , , = = = = * < * 8   S CXbXbXbXbXbXbXbXbXbXbXbXbXbXbXbXNX..V.Q.Q.Q.Q.J.G.G.I.D.: % = - = > * * = , < 5 5 5 5 5 5 5 5 5 1 , # * * * - @ V.Y.H.H.H.H.L.L.H.L.G.U.P.P.P.P.K.k.cXMXCX..  . 2 d p 5 5 5 5 5 5 1 1 5 5 1 p d f d s 5 5 5 5 5 5 5 5 5 5 5 5 5 5 5 p p 5 5 5 5 5 1 6 = % % , s V V V V V f s 5 5 5 5 5 5 < * * = = = = = = = = = = = = = = = = = = * * < * - = % k 4X/ ] ' Q P O.xXu.r.y.y.e.u.e.e.e.e.r.p.p.r.p.lX6.~ o.o.o.-.,.G O - = = = = * = = = = = = = = = = , * = * = - @ T.pX|.].G.M.S.S.L.L.L.L.G.G.G.G.H.H.L.L.L.L.H.H.H.P.H.T.V @ 2 = = = = = = = = = = = = = = = = = = , , , = = - > i T.T.L.S.S.S.S.S.L.D.A.z.+Xz.z.b.v.N.n.z.b.v.v.z.b.b.v.Z.a % < = = = = - - = = = = = = = = = = = * * = = * = <   S CXzXbXbXnXnXbXbXbXbXbXbXbXbXbXbXbXbXbXbXbXbXbXbXbXf.nXNX  $ = = = = = = = = = = = = = = = = = = > > = = - - < @ C.pX/.~.~._.).).).).).).).).).).).).).).).)._._.|.).~.aXC.@ = = = , = = - = = = = = = = = = = = = = = = = = = > ; aX].|.~.).).~.).).).).).).).).).).).).~.~.).~.).).~.].aXg $ = < * = , * = , = = = = = = = = = = = = = = = * < . f aX`.`.).).).).).).).).).).).).).).).).)._._.~.~.~.~.|.aX; % = = = = - - = = = = = = = = = = = = = = = = = - - @ D.sX/.~.).).).).).).).).~.~.).).).).).).~.~.~.|.|.).`.pXC.@ * = * = , > = = = = = = = = = = = = = = = = * = * : ; aX].~.).).).).).).).).).).).).).).).)._._.).).~.~.~.~.aXg $ = - % = = = = = = = = = = = = = = = = = = = = * , . f aX`.).).).).^._._._.).).).).).).).).).).).).).).).).).).",
"= = = = = = = = = = = = = = = = = = = = = = = = = * - @ D.sX~.~.~.).).).).).).).).).).).).).).).^.^.~.~.`.).|.aXC.@ * = * , = - = = = = = = = = = = = = = = = = = = = % i ].].~.~.~.^.E.A.v.Z.b.n.n.Z.v.v.b.b.b.b.b.v.v.n.n.v.v.#Xa % = = * , , = = - = = = = = = , , , = = = = * = & 1   S CXbXzXzXzXzXzXzXzXzXzXzXzXzXzXnXNX..k.I.U.U.U.G.L.L.L.T.: % = = , > * * = = , 6 5 < 5 5 5 5 5 5 1 1 > 2 , = = ; V.Y.H.H.H.H.L.L.H.H.H.L.P.P.I.Q.K.k.cXbXnX..o o , . 2 1 5 5 5 5 5 5 1 5 5 1 p s s d s 5 5 5 5 5 5 5 5 5 5 5 5 5 5 5 5 5 5 5 5 5 5 p 5 1 2 2 5 s d f f f f s p 5 5 5 1 5 5 < * * = = = = = = = = = = = = = = = = = = , , , $ 4 4 X 0 <.Q ! %.Q X.;.kXu.q.y.a.u.u.u.u.a.e.e.y.a.r.r.u.3.~ ] 2.! -.,.K O 4 4 = = = * , = = = = = = = = = = * = * = - @ C.pX~.~.U.U.P.G.G.L.L.L.H.H.H.P.H.H.L.L.L.L.H.H.H.P.H.T.V @ 2 = = = = = = = = = = = = = = = = = - = = = - - - > i T.T.U.U.I.I.I.U.I.I.D.c.c.c.R.m.m.c.l.x.b.l.l.v.v.b.v.Z.a % < - = = = - - = = = = = = = = = = = * * = = * = <   e CXzXbXzXzXzXzXzXzXzXzXzXzXzXzXzXzXzXzXzXbXzXzXzXbXs.nXNX  $ = = = = = = = = = = = = = = = = = = > > = = - - < @ C.pX/.~.)._.).).).).).).).).).).).).).).).)._.).|.).~.aXC.@ = = = , = = - = = = = = = = = = = = = = = = = = = > ; aX].].~.).).~.).).).).).).).).).).).).~.~.).~.).).~.].aXg $ = < * = , * = , , = = = = = = = = = = = = = = * < . f aX`.`.).).).).).).).).).).).).).).).).)._._.~.~.~.~.|.].; % = = = = = - = = = = = = = = = = = = = = = = = - - @ D.sX/.~.).).).).).).).).~.~.).).).).).).~.~.~.|.|.).`.pXC.@ = = * = , > = = = = = = = = = = = = = = = = * = * : ; aX].~.).).).).).).).).).).).).).).).)._._.).).~.~.~.~.aXg $ = - % = = = = = = = = = = = = = = = = = = = = * < . f aX`.).).).).^._._._.).).).).).).).).).).).).).).).).).).",
"= = = = = = = = = = = = = = = = = = = = = = = = = = - @ D.sX/.~.~.).).).).).).).).).).).).).).).^.^.~.~._._.].aXC.@ = < * , = - = = = = = = = = = = = = = = = = - - - # i E.].~.}.`.`._.~.^.^.^.^.dXE.Z.c.v.v.z.v.v.v.n.v.v.v.z.#Xa % = = - , , = = - = = = = = = , , , = = = = % = $ <   S CXbXbXbXbXbXbXbXbXbXbXbXbXMXbXnXNX..V.Q.G.G.J.J.J.J.J.T.3 % = = , , = = = * , < < , 5 5 5 5 5 5 p p d d s 5 5 ; k.Q.H.H.H.H.L.L.H.H.J.J.J.H.H.J.F.V NXf.MXnXzXNXNXS X > 1 5 5 5 5 5 5 5 5 1 5 p p p 5 , * , * = , , 5 5 p p 5 5 5 5 1 5 5 5 5 p s d d s s s s s 5 5 5 p p p 5 5 5 5 5 5 5 < = * * * = = = = = = = = = = = = = = = = - = = 4 k N r { xXu.u.u.u.u.6.O.-.X.6.u.e.y.y.y.y.+.X.X.o.o.@. .>XE..XE.i $ = $ & 3 * - - - * = = = = = = = = = = , * = % = - @ T.pX~.|.!.]..X!.G.G.H.H.G.H.P.P.H.H.L.L.L.L.H.H.J.J.H.Y.V @ 2 = = = = = = = = = = = = = = = = = = = = = - - * 3 i T.F.F.K.Q.K.J.S.S.S.D.z.C T 3XuXwXrX0X0X9X;Xx.b.v.b.z.Z.a % = - = = = - - = = = = = = = = = = = * * = = * = <   S CXMXMXbXbXbXbXbXbXbXbXbXbXbXbXbXbXbXbXbXbXbXbXbXMXf.nXNXo * = = = = = = = = = = = = = = = = = = = > = = - - < @ D.sX/.~.~._.).).).).).).).).).).).).).).).)._.).|.).~.aXC.@ = = = , = = - - = = = = = = = = = = = = = = = = = > ; aX].|.~._.).~.).).).).).).).).).).).).~.~.).~.).).~.].aXg $ = = * = , * = = = = = = = = = = = = = = = = = * < . f aX`.`.).).).).).).).).).).).).).).).).)._._.~.~.~.~.|.aX; % = = = = = - = = = = = = = = = = = = = = = = = - - @ D.sX/.~.).).).).).).).).~.~.).).).).).).~.~.~.).|.).).pXC.@ = < = = , * = = = = = = = = = = = = = = = = * = * : ; aX].~.).).).).).).).).).).).).).).).)._._.).).~.~.~.~.aXg $ = - % = = = = = = = = = = = = = = = = = = = = * < . f aX).).).).).^._._._.).).).).).).).).).).).).).).).).).).",
"= = = = = = = = = = = = = = = = = = = = = = = = = * - @ D.sX/.~.~.).).).).).).).).).).).).).).).^.^.~.~._._.].aXC.@ = < * = = - = = = = = = = = = = = = = = = = = = = > i ].].~.|.`.`.`.}. X X}.|.pX/.R.c.c.v.z.v.v.n.n.v.v.v.z.#Xa % = = - , , = = - = = = = = = , , , = = = = = < % 6   S CXzXzXzXzXzXzXzXzXzXbXzXzXzXzXxXNX..k.Q.Q.J.P.J.K.K.Q.T.: % = = = = = = = * = = , * 5 1 5 5 5 5 p s f f s p 5 : k.Q.H.H.H.J.L.L.H.L.G.U.U.U.Y.P.J.C.NXf.s.nXnXmXNXo X # 2 5 5 5 5 p 5 5 5 5 5 1 1 1 1 * * , * * , * 5 5 5 p 5 5 5 5 1 1 5 5 5 p d f f f f f f s 2 < 1 5 5 5 1 1 5 5 5 s 5 < = * * * = = = = = = = = = = = = = = = = - = % 4 b J r { lXw.r.p.p.lX6.P Q ~ 6.u.u.y.r.q.jX;.Q ' ' ` ` R >X_.sX].i @ = = # > = = = = * = = = = = = = = = = , * = % = - @ R.pX~.|.~. X|.!.S.G.G.G.G.G.H.P.H.H.L.L.L.L.H.H.J.J.H.Y.V @ 2 = = = = = = = = = = = = = = = = = = = , , = = - > i C.D.L.G.U.L.L.P.J.J.U.R.x.T yXrX3.wX7X0XyX#Xm.v.v.b.z.Z.a % = - = = = - - = = = = = = = = = = = * * = = * = <   e CXbXbXzXzXzXzXzXzXzXzXzXzXzXzXzXzXzXzXzXzXzXbXzXbXzXnXNX  % , = = = = = = = = = = = = = = = = = = > = = - - < @ C.sX/.~.~._.).).).).).).).).).).).).).).).)._.).|.).~.aXC.@ = = = , = = - = = = = = = = = = = = = = = = = = = > ; aX].|.~.`.).~.).).).).).).).).).).).).~.~.).~.).).~.].aXg $ = = * = , * = = = = = = = = = = = = = = = = = * < . f aX`.`.).).).).).).).).).).).).).).).).)._._.~.~.~.~.|.aX; % = = = = = - = = = = = = = = = = = = = = = = = - - @ D.sX/.~.).).).).).).).).~.~.).).).).).).~.~.~.).|.).).pXC.@ = < = = , > = = = = = = = = = = = = = = = = * = = : ; aX].~.).).).).).).).).).).).).).).).)._._.).).~.~.~.~.aXg $ = - % = = = = = = = = = = = = = = = = = = = = * < . f aX).).).).).^._._._.).).).).).).).).).).).).).).).).).).",
"= = = = = = = = = = = = = = = = = = = = = = = = = = - @ C.sX/.~.~.).).).).).).).).).).).).).).).^.^.~.~._._.].aXC.@ = < * = = - = = = = = = = = = = = = = = = = , , , : i dXdX^.^.^.~.~.~.~.~.~.~._./.R.c.n.b.z.v.v.v.v.v.v.v.z.Z.a % = = - , , = = - = = = = = = = , , = = = = = < * 6   S CXzXbXbXbXbXnXnXbXbXbXbXbXbXbXnXNX2Xg H.G.S.L.G.G.G.I.T.: % = = = > * = * * * = = * 8 5 5 p 5 1 p s d f s 5 5 : k.Y.H.H.H.H.L.L.H.H.H.H.L.G.G.J.M.V NXmXzXnXzXnXJXo . # < 5 5 5 5 5 5 5 5 5 5 1 1 1 5 = = , = = , , 5 5 5 5 5 5 5 5 1 5 5 5 1 p s f f g f d d p 2 5 5 5 5 5 1 1 1 5 1 5 5 , * * * = = = = = = = = = = = = = = = = = , 1 > % B J r { xXw.r.r.9.u.kXP ;.X.e.a.r.p.p.r.lX+.Q 1.1.1.1.$.,XE.].E.# - 4 - = > - - = = * , = = = = = = = = = , * = - = - @ D.pX!.~.!.|.|.I.G.G.H.H.G.G.G.H.H.H.L.L.L.U.H.H.J.J.H.Y.V @ 2 = = = = = = = = = = = = = = = = = = = , , = = > 2 i T.L.J.K.Q.K.K.G.D.U.M.Z.+XT iXuXwXrXwXwXrX;Xx.x.v.b.z.Z.a $ = - = = = = = = = = = = = = = = = = * * = = * = <   S CXzXbXzXbXbXbXbXbXbXbXbXbXbXbXbXbXbXbXbXbXbXbXbXbXs.nXNX  $ = = = = = = = = = = = = = = = = = = = > = = = = - @ C.pX/.~.~.^.).).).).).).).).).).).).).).).)._.).|._.~.aXC.@ = = = , = = - = = = = = = = = = = = = = = = = = = : ; ].].].~.`.).~.).).).).).).).).).).).).~.~._.).`._.~.].aXg $ = = * = , * = = = = = = = = = = = = = = = = = * < . f aX`.`.).).).).).).).).).).).).).).).).)._._.~.~.~.~.|.aX; % = = = = - - = = = = = = = = = = = = = = = = = = - @ D.sX/.~.).).).).).).).).~.~.).).).).).).~.~.~.).|.).).pXC.@ , , - = , > = = = = , , = = = = = = = = = = * = = : ; aX].~.).).).).).).).).).).).).).).).)._._.).).~.~.~.~.aXg $ = - % = = = = = = = = = = = = = = = = = = = = * < . f aX).).).).).^._._._.).).).).).).).).).).).).).).).).).).",
"= = = = = = = = = = = = = = = = = = = = = = = = = = - @ C.sX/.~.~.).).).).).).).).).).).).).).).^.^.~.~._._.].aXC.@ = < * = = - = = = = = = = = = = = = = = = = = - = : i ].].~._._._._._._.`._._.pXdXR.n.Z.Z.b.z.v.v.n.n.n.v.v.Z.a % = = - , , = = - = = = = = = = , , = = = = % < % 6   S CXzXbXzXzXbXbXbXbXbXbXzXbXbXbXxXNX2XV.Q.J.J.J.J.P.H.J.T.> % = = , , % * * * * = = * 8 5 5 p 5 1 p s f f s p 5 : k.Y.H.H.H.H.L.L.H.H.P.P.I.U.J.J.K.k.NXMXs.nXs.zXJXo X : < 5 5 5 5 p 5 1 5 5 5 5 5 5 < * * = * * , > 5 5 5 5 5 5 5 5 5 5 5 5 < 5 s d d d s s s p 1 p 5 5 5 5 1 1 1 1 2 1 < , * = = = = = = = = = = = = = = = = = = = , 6 & X e r 0 H xXi.e.y.r.jXkXU _ ~ 5.q.5.i.e.u.lXO.I R R R  .;X>X^. X].; & - % > > * - = - % = = = = = = = = = = , * = - = - @ D.pX~.|.~.|.|.!.I.P.P.P.H.H.H.H.H.H.L.L.L.U.H.H.J.J.H.Y.V @ 2 = = = = = = = = = = = = = = = = = = = = = = = - > i C.S.H.G.Y.G.G.F.J.P.D.Z.+XC <X-X%X3X4X4X3X+Xl.v.v.b.z.Z.a $ = = = = = - = = = = = = = = = = = = * * = = * = <   S CXbXbXzXbXbXbXbXbXbXbXzXzXzXzXzXzXzXbXzXbXzXzXzXbXzXnXNX  # = = = = = = = = = = = = = = = = = = = > = = = = - @ C.sX/.~.~.).).).).).).).).).).).).).).).).)._._.|._.~.aXC.@ = = = , = = - - = = = = = = = = = = = = = = = = = : ; ].].].~.).).~.).).).).).).).).).).).).~.~._.).)._.~.~.aXg $ = = * = , * = = = = = = = = , = = = = = = = = * < . f aX`.`.).).).).).).).).).).).).).).).).)._._.~.~.~.~.|.aX; % = = = = - - = = = = = = = = = = = = = = = = = - - @ D.sX/.~.).).).).).).).).~.~.).).).).).).~.~.~.).|.).).pXC.@ , < * = , * = = = = , , = = = = = = = = = = * = = : ; aX].~.).).).).).).).).).).).).).).).)._._.).).~.~.~.~.aXg $ = - % = = = = = = = = = = = = = = = = = = = = * < . f aX).).).).).^._._._.).).).).).).).).).).).).).).).).).).",
"= = = = = = = = = = = = = = = = = = = = = = = = = = - @ C.sX/.~.~.).).).).).).).).).).).).).).).^.^.~.~._._.].aXC.@ * = * = = - = = = = = = = = = = = = = = = = * = * > ; aX].~._._.^.^._._.~.).).(.(.[. XpX>Xc.b.b.Z.b.v.v.b.z.Z.a % = = - , , = = = = = = = = - = = = - = = = * < * 5   S CXf.bXbXbXzXzXzXnXbXzXnXzXs.zXbXNX2Xk.Q.P.H.G.G.P.H.P.T.: % = = = , = = = = = = = = 1 5 5 1 1 1 p d f g s s = 2 k.Y.L.S.L.S.Y.G.J.J.P.H.H.H.H.P.K.k.NXbXzXzXbXbXJXo . * 1 1 5 5 1 5 1 1 5 5 6 , * * = = = = = = = , 5 5 5 5 5 5 5 5 1 5 5 5 5 1 1 1 5 5 5 5 5 5 5 5 5 5 1 1 5 5 5 < * * * * = = = - % * - = = , * * = = = < , , , 2 8 % - * & &   e nXi.t.u.q.u.kXP @.>.Q / Y Q lXw.lX{ 0 V V ].[.[.(._.}.aX; % * , = = = = = = = = = = = = = = = = = , * = * = - @ D.pX~.|.~.].^.^.|.pX|.I.G.P.P.J.H.H.L.L.L.H.H.H.G.P.G.T.V @ 2 = = = = = = = = = = = = = = = = = - = , , = = = , i T.D.L.G.P.G.G.G.U.H.U.A.n.n.n.m.m.k.k.c.c.l.v.l.z.x.x.Z.a $ > = = = = > > = = = = = = = = = = = * * = = * = <   S CXbXbXzXbXbXbXbXbXzXbXbXbXbXbXbXbXbXbXzXzXbXbXbXbXzXMXNX  # , = = = = = = = = = = = = = = = = = = > = = - - < @ C.sX/.|.~.^.).).).).).).).).).).).).).).).)._._._.).~.aXC.@ = = = , = = - = = = = = = = = = = = = = = = = = = : ; aX].|.~._.~.~.~.~.).).).).).).).).).).~.~.).~.).).~.^.aXg $ = = * = , * = = = = = = = , , = = = = = = = = * < . f aX`.`.).).).).).).).).).).).).).).).).)._._.~.~.).~.|.aX; % = = = = - - = = = = = = = = = = = = = = = = = = - @ D.sX/.~.).).).).).).).).~.~.).).).).).).~.~.~.).|._.`.pXC.@ > , * = , > = = = = = = = = = = = = = = = = % = * : ; aX].~.).).).).).).).).).).).).).).).)._._.).).~.~.~.~.aXg $ = = * = = = = = = = = = = = = = = = = = = = = * < . f aX).).).).).^._._._.).).).).).).).).).).).).).).).).).).",
"= = = = = = = = = = = = = = = = = = = = = = = = = = - @ C.sX/.~.~.).).).).).).).).).).).).).).).^.^.~.)._._.].aXC.@ * = = = = - = = = = = = = = = = = = = = = = * = * > ; aX].~._._.^.^._._.~.~.|.~.~.~.^.dXR.c.l.x.z.b.b.b.v.l.#Xa % = = - , , = = - = = , = = - = = = - - = = * < * 5   S CXs.f.bXbXbXbXs.f.s.bXMXbXbXbXxXNX2XV.J.J.H.G.G.J.G.P.T.: % = = = > = = = = = = = = 5 s 5 5 p p p d d f s s > i M.!.P.F.P.F.G.F.H.H.P.H.H.G.H.P.K.k.NXbXzXzXbXbXJXo . = 1 1 5 5 1 5 5 5 5 5 5 , = = = = = = = = = = 5 5 5 5 5 5 5 5 5 5 5 5 5 5 5 5 5 5 5 5 5 5 5 5 p 5 5 5 5 5 5 5 * * * * = = * * = = = = = = = * = = - % % % - * * % > , , 6 o e zXw.r.p.p.a.6.P ^ *.@.>./ ;.lXr.zX} w B C dX/.(._.).}.aX; % * , = = = = = = = = = = = = = = = = = , * = * = - @ D.pX~.|.~.].^.^._.|.~.U.M.G.H.F.G.G.H.H.H.H.H.L.G.P.G.T.V @ 2 = = = = = = = = = = = = = = = = = - = , , = = = , i T.D.L.G.P.G.G.L.D.L.D.A.z.b.b.Z.Z.v.z.c.n.A.Z.c.n.v.v.Z.a ; 1 = - = = - - - - - = = = = = = = = * * = = * = <   S CXbXbXzXbXbXbXbXbXzXbXbXbXbXbXbXbXbXbXzXzXbXbXbXbXzXMXNX  # , = = = = = = = = = = = = = = = = = = > = = - - - @ C.sX~._.~._.).).).).).).).).).).).).).).).)._._._.).~.aXC.@ , = = , - = - = = = = = = = = = = = = = = = = = = : ; aX].|.~.`.~.~.~.~.).).).).).).).).).).~.~.).~.).).~.].aXg $ = = * = , * , = = = = = = , , = = = = = = = = * < . f aX`.`.).).).).).).).).).).).).).).).).)._._.~.~.).~.|.aX; % = = = = - - = = = = = = = = = = = = = = = = = - - @ D.sX/.~.).).).).).).).).~.~.).).).).).).~.~.~.).|._.`.pXC.@ > = * = , > = = = = = = = = = = = = = = = = % = * : ; aX].~.).).).).).).).).).).).).).).).)._._.).~.~.~.~.~.aXg $ = = * = * = = = = = = = = = = = = = = = = = = * < . f aX).).).).).^._._._.).).).).).).).).).).).).).).).).).).",
"= = = = = = = = = = = = = = = = = = = = = = = = = * - @ D.sX/.~.~.).).).).).).).).).).).).).).).^.^.~.~.`._.].aXC.@ = < = , = - = = = = = = = = = = = = = = = = * = * > ; aX].~.).).^.^._._.~.~.].^.^.^././.R.N.Z.Z.v.z.b.b.v.l.#Xa % = = - , , = = - = = = = = - = = = = - = = * < % 6   S CXf.bXbXbXbXbXf.bXbXbXbXbXnXbXzXNX2XV.J.J.H.U.G.J.G.P.T.: % = = = > = = = = = = = = 5 5 5 5 p p p s d f s s p p k.I.T.S.!.P.P.S.S.H.L.H.H.G.H.J.K.k.NXbXzXzXbXbXJXo . = 1 5 5 5 5 5 5 5 5 5 < , = , = = = = = = = , 5 5 5 5 5 5 5 5 5 5 5 5 1 1 5 5 5 5 5 5 5 5 5 5 5 5 1 < 1 5 1 1 , , , , 2 2 , , = = = = = = , , * 2 , * * - - % = = < = % 4 o e nXzXs.s.s.lXkX5.-.o.X.o.W ;.u.a.lX} r l V >XE.pX~.).|.aX; % * , = = = = = = = = = = = = = = = = = , * = * = - @ D.pX~.].~.].^.^.~.|.!.I.G.L.P.G.H.H.H.G.G.H.L.L.G.P.G.T.V @ 2 = = = = = = = = = = = = = = = = = - = , , = = = , i D.D.L.G.P.G.G.P.U.U.D.v.b.v.n.Z.c.n.v.l.l.c.m.l.l.l.l.A.a @ 3 > > > , , , > > = = = = = = = = = * * = = * = <   S CXbXbXzXbXbXbXbXbXbXbXbXbXbXbXzXbXbXbXbXzXbXbXbXbXzXMXNXo # , = = = = = = = = = = = = = = = = = = > = = - - - @ C.sX~.~.~._.).).).).).).).).).).).).).).).)._._.|.).~.aXC.@ , = = , - - - = = = = = = = = = = = = = = = = = = : ; aX].|.~.`.).~.~.~.).).).).).).).).).).~.~.).~.).).~.].aXg $ = = * = , * = = = = = = = = = = = = = = = = = * < . f aX`.`.).).).).).).).).).).).).).).).).)._._.~.~.).~.|.aX; % = = = = - - = = = = = = = = = = = = = = = = = - - @ D.sX/.~.).).).).).).).).~.~.).).).).).).~.~.~.).|._.`.pXC.@ * = * = , > = = = = = = = = = = = = = = = = % = * : ; aX].~.).).).).).).).).).).).).).).).)._._.).~.~.~.~.~.aXg $ = - % = = = = = = = = = = = = = = = = = = = = * < . f aX).).).).).^._._._.).).).).).).).).).).).).).).).).).).",
"= = = = = = = = = = = = = = = = = = = = = = = = = * - @ D.sX~.~.~.).).).).).).).).).).).).).).).^.^.~.~.`._.].aXC.@ = < = = = - = = = = = = = = = = = = = = = = * = * > ; aX].~.).).^.^._._.~.).~.~.~.^.~.^.~.!.^.E.Z.v.v.b.v.v.#Xa % = = - , , = = - = = = = = - = = = = - = = * < % 6   S CXf.nXnXzXs.bXbXbXnXbXzXzXbXzXzXCX2XV.J.H.H.P.G.J.G.P.T.: % = = = > = = = = = = = = < < , < p 5 1 p s p p p 5 1 p d p h D.G.H.G.H.H.L.H.H.G.H.J.K.V NXbXzXzXbXbXJXo . = 1 5 5 5 5 5 5 1 , , , * * = , , = = = = , , 5 5 5 5 5 5 5 5 5 5 < , , 2 1 5 5 5 5 5 5 5 5 5 < < , , , , , , 5 5 5 5 5 1 1 < , , = = = = , < > s d s s s d s s 2 5 1 # 1 $ p 6 4 - - 4 7 q I :.*.-.@._ R H m T #XZ.E.R. X!.}.).).|.aX; % * = = = = = = = = = = = = = = = = = = , * = * = - @ D.sX~.].~.].].]._.|.~.!.!.!.'.G.P.P.L.H.H.P.H.H.H.P.H.T.V @ 2 = = = = = = = = = = = = = = = = = - = , , = = = , i D.D.L.G.P.G.H.J.J.U.D.v.x.b.b.z.C ;X3X4XeXuXeXeX6X9X9XyXl O 6 = - = , = = - - = = = = = = = = = * * = = * = <   S CXbXbXzXbXbXbXbXbXbXbXbXbXbXbXzXbXbXbXbXzXbXbXzXbXzXMXNX  # , = = = = = = = = = = = = = = = = = = > = = - - - @ C.sX/.^.~._.).).).).).).).).).).).).).).).)._.).|.).~.aXC.@ = = = , - - - = = = = = = = = = = = = = = = = = = : ; aX].|.~.).).~.).).).).).).).).).).).).~.~.).~.).).~.].aXg $ = = * = , * = , , = = = = = = = = = = = = = = * < . f aX`.`.`.).).).).).).).).).).).).).).).)._._.~.~.).~.|.aX; % = = = = - - = = = = = = = = = = = = = = = = = - - @ D.sX/.~.).).).).).).).).~.~.).).).).).).~.~.~.).|._.`.pXC.@ * = * = , > = = = = , = = = = = = = = = = = * = * : ; aX].~.).).).).).).).).).).).).).).).)._._.).).~.~.~.~.aXg $ = - % = = = = = = = = = = = = = = = = = = = = * < . f aX).).).).).^._._._.).).).).).).).).).).).).).).).).).).",
"= = = = = = = = = = = = = = = = = = = = = = = = = = - @ D.sX/.~.~.).).).).).).).).).).).).).).).~.^.~.~.`.).].aXC.@ * < * = = - = = = = = = = = = = = = = = = = * , * > ; aX].~._._.^.^._._.~.).(.(.).].~.}. X`.pXdXR.c.z.b.z.z.Z.a % = = - , , = = - = = = = = = = = = = - = , * < % 6   S CXbXbXnXbXzXbXbXzXzXbXzXbXbXzXnXNXA V.J.H.H.L.L.P.G.P.T.: % = = = > = = = = = = = = * * * , 5 5 1 5 1 2 1 5 6 < % $ . 3 C.H.H.P.H.J.L.H.H.H.G.J.K.V NXbXzXzXbXbXCX+ . , 1 5 5 5 1 5 5 < * * * * * = = = = = = = = , 5 5 5 5 5 5 5 5 5 1 2 > * , 1 5 5 5 5 5 5 5 5 5 = = * * * * * * 8 5 5 5 5 5 1 < , , = = - = = , $ s f g g g g g d 2 1 8 # 2 # 3 @ ; $ 3 3 . 0 9XU ^ ^ ( 6X/ q k Z Z.pXsXoXXX!.~.~.).|.aX; % * = = = = = = = = = = = = = = = = = = , * = % = - @ D.pX~.].~.].~.~._.|.).|. X X'.M.L.G.H.L.P.P.H.G.J.P.H.T.V @ 2 = = = = = = = = = = = = = = = = = - = , , = = = , i T.D.U.G.P.G.H.L.L.D.D.A.z.z.v.Z.C ;XeXwX3.wX3.wXwXwXrXuXl o - - * = = = = = = = = = = = = = = = * * = = * * <   S CXbXbXbXbXbXbXbXbXbXbXbXbXbXbXzXbXbXbXbXbXbXbXzXnXzXMXNXo # , = = = = = = = = = = = = = = = = = = > = = = - = @ C.sX/.~.~._.).).).).).).).).).).).).).).).)._.).|.).~.aXC.@ = = = , = - - = = = = = = = = = = = = = = = = = = # ; aX].|.~.).).~.).).).).).).).).).).).).~.~.).~.).).~.].aXg $ = = * = , * = = = = = = = = = = = = = , = = = * < . f aX`.`.).).).).).).).).).).).).).).).).)._._.~.].).~.|.].; % = = = = - - = = = = = = = = = = = = = = = = = - - @ D.sX~.~.).).).).).).).).~.~.).).).).).).~.~.~.).|._.`.pXC.@ , < * = , > = = = = , = = = = = = = = = = = * = = : ; aX].~.).).).).).).).).).).).).).).).)._._.).).].~.~.~.aXg $ = - % = = = = = = = = = = = = = = = = = = = = * < . f aX).).).).).^._._._.).).).).).).).).).).).).).).).).).).",
"= = = = = = = = = = = = = = = = = = = = = = = = = * - @ D.sX/.~.~.).).).).).).).).).).).).).).).^._.~.).`.).].aXC.@ * = * = = - = = = = = = = = = = = = = = = = * , * > ; aX].~._._.^.^._._.~.~.).~.~.).~.~.}.~.|./.R.c.v.b.x.x.#Xa % = = - , , = = - = = = = = = = = = = - = = * < % 5   S CXf.f.f.MXmXMXf.f.f.f.f.MXMXMXmXNXgXk.Q.H.H.L.L.P.G.P.T.: % = = = > = = = = = = = = = = * , 5 5 1 5 s p s s 5 5 , , - p T.I.P.P.H.H.H.H.H.H.H.P.K.V NXbXzXzXbXbXCXo . > 1 5 5 5 1 5 5 1 > > = = = , * * * * * * * > 5 5 p p 5 5 5 5 5 6 < = > , 1 5 5 5 5 5 5 5 5 5 , = * * * * * * 5 5 5 5 5 5 1 2 = = = = - % % % $ 1 d d d d d d d , 6 8 % < - & % . . X . o u <.-.3.1.! 1.X.D M e A.dX/.!.].].].~.).|.aX; % * = = = = = = = = = = = = = = = = = = , * = % = - @ D.pX~.].~.].~.~.).).~.).|.}.'.M.L.G.S.S.L.P.H.G.J.J.H.Y.V @ 2 = = = = = = = = = = = = = = = = = - = , , = = = , i T.D.L.K.P.G.H.L.L.D.D.c.v.n.n.n.C ;XuXuXeXrXrXwXwXwXuXyXb X < * > > > , , , = = = = = = = = = = * * = * * * <   S CXbXbXbXbXbXbXbXbXbXbXbXbXbXbXzXbXbXbXbXzXbXbXzXbXzXMXNXo # , = = = = = = = = = = = = = = = = = = > = = = - = @ C.sX/.~.~._.).).).).).).).).).).).).).).).)._.).|.).~.aXC.@ = = = , = = - = = = = = = = = = = = = = = = = = = # ; aX].].~.).).~.).).).).).).).).).).).).~.~.).).).).~.].aXg $ = = * = , * = = = = = = = = = = = = = , = = = * < . f aX`.`.).).).).).).).).).).).).).).).).)._._.~.].).~.|.].; % = = = = - - = = = = = = = = = = = = = = = = = - - @ D.sX~.~.).).).).).).).).~.~.).).).).).).~.~.~.).|._.).pXC.@ = = * = , > = = = = = = = = = = = = = = = = % = = : ; aX].~.).).).).).).).).).).).).).).).)._._.).).].~.~.~.aXg $ = - % = = = = = = = = = = = = = = = = = = = , * < . f aX`.).).).).^._._._.).).).).).).).).).).).).).).).).).).",
"= = = = = = = = = = = = = = = = = = = = = = = = = = - @ C.sX/.~.~.).).).).).).).).).).).).).).).^.^.~.)._.).].aXC.@ * = * = = - = = = = = = = = = = = = = = = = * , * > ; aX].~._._.^.^._._.~.^.].~.^.|.~.~.~.~.~.^.R.R.R.Z.v.x.Z.a % = = - , , = = - = = = = = = = = = - - = = * , # 5   S CXf.mX0.0.vXvXhXhXhXhXhXhXhXhXhXvX2XC.Q.H.G.L.L.P.G.P.T.: % = = = > = = = = = = = = = = * , 1 < 2 5 1 1 s 1 < 5 , < % i T.G.G.P.H.H.P.H.H.H.H.P.K.k.NXbXzXzXbXbXJXo . > 1 1 5 5 1 5 s 1 > , , , = , , , , , , , , 2 5 5 5 5 5 5 5 5 5 5 < , , , 1 5 5 5 5 5 5 5 5 5 1 1 2 2 < < < 2 5 5 5 5 5 5 1 1 , 2 1 1 5 1 2 2 s s s s s s s s p p 1 p > 2 % p V h a f h a B I I R R R R I T C C A.].].|.|.).!.~.).|.aX; - * = = = = = = = = = = = = = = = = = = , * = - = - @ D.pX~.|.~.|.~.~.~.).).~.~.~.!.I.!.Y.L.S.G.P.L.H.J.J.H.Y.V @ > = = = = = = = = = = = = = = = = = - = > , = = = , i T.D.L.G.P.G.G.J.P.U.D.n.b.b.b.b.C ;X3X4X4X4X4X4X4X4X4X9Xq O 4 - - - = = = - - = = = = = = = = = * * = * * * ,   S CXbXbXbXbXbXbXbXbXzXbXbXbXbXbXbXbXbXbXbXbXbXbXbXbXzXMXNXo # , = = = = = = = = = = = = = = = = = = > = = = - = @ C.pX/.~.~._.).).).).).).).).).).).).).).).)._.).|._.~.aXC.@ = = = , = = - = = = = = = = = = = = = = = = = = = : ; aX].].~.).).~.).).).).).).).).).).).).~.~.).).).).~.].aXg $ = < * = = * = = = = = = = = = = = = = = = = = * < . f aX`.`.).).).).).).).).).).).).).).).).)._._.~.].).~.|.].; % = = = = - - = = = = = = = = = = = = = = = = = - - @ D.sX~.~.).).).).).).).).~.~.).).).).).).~.~.~.|.|.).`.pXC.@ , < * = , > = = = = = = = = = = = = = = = = * < = , ; aX].~.).).).).).).).).).).).).).).).)._._.).).~.~.~.~.aXg $ = - % = = = = = = = = = = = = = = = = = = = = * < . f aX).).).).).^._._._.).).).).).).).).).).).).).).).).).).",
"= = = = = = = = = = = = = = = = = = = = = = = = = = - @ C.sX/.~.~.).).).).).).).).).).).).).).).^.^.~.~._.).].aXC.@ * = * = = - = = = = = = = = = = = = = = = = * , * > ; aX].~.)._.^.^._._.~.^.|.~.~. X`.`.`.).).|.`._.pXdXZ.c.Z.a % = = - , , = = - = = = = = - = = = - - = = * , # 5   S CXxXDXC.j.OXOXOXOXOXOXOXOXOXOXj.W.j.K.Q.J.G.H.L.P.G.P.T.: % = = = > = = = = = = = = = = * * , * * 2 s 1 5 , 6 8 = % - 2 Y.I.G.P.H.K.P.H.H.H.H.P.K.k.NXbXzXzXbXbXJXo . > 1 1 5 5 1 5 5 < * , , , = = 1 1 6 6 6 6 5 5 5 5 5 p 5 5 5 5 5 6 < , , , 1 5 5 5 5 5 5 5 5 5 p p 5 5 p p 5 5 5 p 5 p p 5 5 1 p s s f f g f f d p # & % % % * # 2 % - - > $ g IXsXsXsXsXsX>XB l r e b e C aXXXpX|._.|.|.~.}. X).).|.aX; - * = = = = = = = = = = = = = = = = = = , * = - = - @ D.pX~.|.~.|.].].~.|.|.).~.).|. X}.!.Y.L.G.L.L.L.J.J.H.Y.V @ > = = = = = = = = = = = = = = = = = - = > , = = = > i T.D.L.G.P.G.H.L.U.U.D.n.b.x.z.A.c.c.c.c.k.k.k.k.k.k.c.A.a @ i > > , , , , = = = = = = = = = = = * * = * * * ,   S CXbXbXbXbXbXbXbXbXzXbXbXbXbXbXbXbXbXbXbXbXbXbXzXbXzXMXNXo # , = = = = = = = = = = = = = = = = = = > = = - - - @ C.pX/.~.~._.).).).).).).).).).).).).).).).)._._.|._.~.aXC.@ = = = , = = - = = = = = = = = = = = = = = = = = = # ; aX].].~.).).~.).).).).).).).).).).).).~.~.).~.).).~.].aXg $ = = * = = * = = = = = = = = = = = = = , = = = * < . f aX`.`.).).).).).).).).).).).).).).).).)._._.~.].).~.|.aX; * = = = = - - = = = = = = = = = = = = = = = = = - - @ D.sX~.~.).).).).).).).).~.~.).).).).).).~.].~.|.|.).`.pXC.@ = < * = , > = = = = = = = = = = = = = = = = % < = , ; aX].~.).).).).).).).).).).).).).).).)._._.).).~.~.~.~.aXg $ = - % = = = = = = = = = = = = = = = = = = = = * , . f aX).).).).).^._._._.).).).).).).).).).).).).).).).).).).",
"= = = = = = = = = = = = = = = = = = , = = = = = = * - @ C.sX/.~.~.~.).).).).).).).).).).).).).).^.^.~.~.`.).].aXC.@ * = = = = - = = = = = = = = = = = = = = = = * , * > ; aX].~.).).~.~._._.~.).).).).).).~.~.~.~.|.)._.dXR.v.l.A.a % 4 - % , = = = = = = = = , , , - - - - = = 4 - = <   S CXbXJXA V Y.I.P.L.L.L.L.L.L.P.L.T.T.H.H.H.H.H.H.L.L.P.T.3 % = = = = = = = = = = = = = = = = = = = = 8 5 5 p 5 < - & > i Y.'.M.Q.M.P.D.L.G.F.J.P.G.V NXnXbXzXzXbXJXo % $ i 2 f > 2 < 5 5 , * = * = , 5 5 5 5 5 5 5 5 1 p p 5 1 1 5 5 8 5 2 > > , 5 s 5 5 5 5 5 5 5 1 5 5 5 5 1 1 p 1 1 1 p p p p p 2 2 p s d f f d d g p > > 2 > = > = = - = * 5 X f aX~.}.(.!.dX#Xj N G v M B C dXpX`.`.).~.~.~.~.).~.).|.aX; % * = = = = = = = = = = = = = = = = = = , * = % = - @ D.pX~.].~.].].^.).).).).).).).).|.|.L.S.P.H.H.H.J.J.J.Y.V @ 2 = = = = = = = = = = = = = = = = = - = , , = = = , i T.D.L.G.P.G.H.H.L.U.D.n.b.z.b.n.v.b.b.b.v.v.z.z.b.b.v.Z.a % < = = = = - - = = = = = = = = = = = = = = = = = =   S CXzXbXf.bXbXzXzXzXzXzXzXzXzXzXbXbXbXxXxXzXs.bXs.MXs.bXCX  X = = = = = = = = = = = = = = = = = = = > = = - - < @ C.sX/.|.~.^.).).).).).).).).).).).).).).).)._._._.).~.aXC.@ , = = , = = - = = = = = = = = = = = = = = = = = = # ; ].].].~.).).~.).).).).).).).).).).).).~.~.).~.)._.~.].aXg $ = = * = , * = = = = = = = = = = = = = = = = = * < . f aX`.`.`.).).).).).).).).).).).).).).).)._._.~.~.).~.|.aX; % = = = = = - = = = = = = = = = = = = = = = = = - - @ D.sX~.~.).).).).).).).).~.~.).).).).).).~.~.~.).|._.`.pXC.@ , , * = , * = = = = = = = = = = = = = = = = * = * : ; aX].~.).).).).).).).).).).).).).).).)._._.).).~.~.~.~.aXg $ = - % = = = = = = = = = = = = = = = = = = = = * < . f aX`.`.`.).).^._._._.).).).).).).).).).).).).).).).).).).",
"= = = = = = = = = = = = = = = = = = , , = = = = = * - @ C.sX/.~.~.~.).).).).).).).).).).).).).).^.^.~.~.`.).].aXC.@ * = = = = - = = = = = = = = = = = = = = = = * , * > ; aX].~.)._.~.~._._.~.~.).).).).).~.^.^.~.|.).~.^.R.A.c.E.a % 4 = * , , = = = = = = = , , , = = , 2 2 , * % - 9   S CXNXPXE.C.Y.S.G.H.H.L.L.P.P.P.P.L.L.H.H.H.H.H.H.L.L.P.T.3 & = = = = = = = = = = = = = = = = = = = , 8 5 5 5 5 < > > 2 i T.Y.U.!.L.S.G.U.P.P.P.P.S.V NXMXs.zXbXzXNX+ o X 4 . 8 < s s 5 1 2 , = = = > 5 5 5 5 5 5 5 5 1 p 5 5 1 5 5 1 5 < = * * , < 5 < 5 5 1 1 5 5 1 1 5 5 1 1 1 p p p p p 1 1 p 1 1 s s s d d d d d d 1 * = = - * = > > - = * 1 @ f aX).}.`.~.dXZ.C l y y y r B Z.E./.~.].~.).`.`.`.).).}.aX; % * = = = = = = = = = = = = = = = = = = = * = * = - @ D.sX~.].~.].~.~.).).).).).).).).|.|.L.S.P.H.H.H.J.J.J.Y.V @ 2 = = = = = = = = = = = = = = = = = - = , , = = = , i T.D.L.G.P.G.H.H.L.U.D.n.b.z.v.n.v.b.b.b.v.v.z.v.b.b.v.Z.a % = = = = = - - = = = = = = = = = = = = = = = = , <   S NXf.MXf.MXmXMXMXf.f.g.g.g.f.f.f.g.g.f.f.f.MXBXMXMXf.f.NX  > , = = = = = = = = = = = = = = = = = = > = = - - - @ C.sX~._.~._.~.).).).).).).).).).).).).).).)._._._.).~.aXC.@ , = = , = = - = = = = = = = = = = = = = = = = = = # ; aX].].~.).).~.).).).).).).).).).).).).~.~.).~.).).~.].aXg $ = = * = , * = = = = = = = = = = = = = = = = = * < . f aX`.`.).).).).).).).).).).).).).).).).)._._.~.].).~.|.aX; % = = = = = - = = = = = = = = = = = = = = = = = - - @ D.sX~.~.).).).).).).).).~.~.).).).).).).~.~.~.).|._.`.pXC.@ , , = = , * = = = = = = = = = = = = = = = = * = * : ; aX].~.).).).).).).).).).).).).).).).)._._.).).~.~.~.~.aXg $ = - % = = = = = = = = = = = = = = = = = = = = * < . f aX`.`.`.).).^._._._.).).).).).).).).).).).).).).).).).).",
"= = = = = = = = = = = = = = = = = = = = = = = = = * - @ C.sX~.~.~.).).).).).).).).).).).).).).).^.^.~.~.`.).|.aXC.@ * = * = = - = = = = = = = = = = = = = = = = * , * > ; aX].~._._.^.^._._.~.~.~.).).`.)._.^.^.~.~.~.).|.|.R.R.dXh # < = * 2 * = = = = = = = = = - - - - = - = = = > 1 @ s 2XC.E.D.M.M.M.H.H.H.H.H.H.L.L.L.L.L.L.H.H.H.H.H.L.L.U.T.: % = = = = = = = = = = = = = = = = = = = , = , < 5 5 1 s s s p s s i k.T.L.Q.G.J.G.F.J.F.V NXbXf.bXnXzXNXh.0.vX..X 4 % 1 > p p 2 2 2 < 2 2 5 5 5 5 5 5 5 5 1 p 5 5 5 5 1 2 < = * * * * , < , , 2 , , 1 5 1 s s d s s s d d s s s p 1 1 1 5 1 1 1 1 1 1 1 1 5 = % - = - % = > , - = * 1 $ f aX~.).}.~.pX/.R.R.R.R.E.R.R.|.}.`.`.).).~._.).).~.).}.aX; % * = = = = = = = = = = = = = = = = = = , * = - = - @ D.sX~.].~.~.~.~.).).).).).).).).|.|.L.S.P.H.H.H.J.J.J.Y.V @ 2 = = = = = = = = = = = = = = = = = - = , , = = = , i T.D.L.G.P.G.H.L.L.U.D.n.z.z.b.n.n.b.b.b.b.v.z.v.b.b.v.Z.a % < = = = = - - = = = = = = = = = = = = = = * = = , . S CXnXcX2XC.R.R.R.R.R.Y.!.!.!.!.!.Y.Y.Y.Y.Y.Y.T.C.gXNXmXNX  $ , = = = = = = = = = = = = = = = = = = > = = - - - @ C.sX/.~.~._.).).).).).).).).).).).).).).).)._._.|.).~.aXC.@ = = = , = = - = = = = = = = = = = = = = = = = = = # ; aX].|.~.).).~.).).).).).).).).).).).).~.~.).~.`.).~.].aXg $ = = * = , * = = = = = = = = = = = = = = = = = * < . f aX`.`.).).~.).).).).).).).).).).).).).)._._.~.~.).~.|.aX; % = = = = - - = = = = = = = = = = = = = = = = = - - @ D.sX~.~.).).).).).).).).~.~.).).).).).).~.~.~.).|._.`.pXC.@ = < = = , * = = = = = = = = = , = = = = = = - < = , ; aX].~.).).).).).).).).).).).).).).).)._._.).).~.~.~.~.aXg $ = - % = - = = = = = = = = = = = = = = = = = = * < . f aX).).).).).^._._._.).).).).).).).).).).).).).).).).).).",
"= = = = = = = = = = = = = = = = = = = = = = = = = * - @ D.sX~.~.~.).).).).).).).).).).).).).).).^.^.~.~.`.`.|.aXC.@ * = * = = - = = = = = = = = = = = = = = = = * , * > ; aX].~._._.^.^._._.~.~.~.).).).)._.^.^.~.~.~.|. X|.|.].aXg $ = , > 2 * = = = = = = = = , , , , > = - - % = * 1 @ i L.j.M.M.Q.Q.Q.Q.H.F.H.H.S.S.S.S.H.G.H.H.H.H.H.H.L.L.U.T.: % = = = = = = = = = = = = = = = = = = = = * * = 6 5 p d g f s & % @ g Y.H.L.S.L.L.F.Q.Q.C.NXbXf.s.bXzXMXMXmXJXgXo X % 1 1 p p p 5 5 p p 5 5 5 5 5 5 5 5 5 5 5 5 5 5 5 < = = * * * * * * = * = = * = < 5 5 s d d d f f f d f f f s p 2 2 1 5 1 , > * * = = = - % - - - - = = = - * * < @ f aX(.~.|.).|.|.`.XXXXXXXXXX XXX}.{.`.).).^.^.^.^.~.).}.aX; % * = = = = = = = = = = = = = = = = = = , * = % = - @ D.pX~.].~.~.~.).).).).).).).).).|.|.L.S.P.H.H.H.J.J.J.Y.V @ 2 = = = = = = = = = = = = = = = = = - = , , = = = , i T.D.L.G.P.G.H.L.L.U.D.c.z.z.b.n.n.b.b.b.b.v.z.v.b.b.v.Z.a % < - = = = - - = = = = = = = = = = = = = = * = = =   S AXMXcXA j.OXOXOXj.j.OXOXj.j.j.j.j.j.j.OXj.OXOXj.gXNXMXMXo # , = = = = = = = = = = = = = = = = = = > = = - - - @ C.sX~.^.~._.).).).).).).).).).).).).).).).)._.).|.).~.aXC.@ = = = , = = - = = = = = = = = = = = = = = = = = = # ; aX].|.~.`.).~.).).).).).).).).).).).).~.~.).~.`._.~.~.aXg $ = = * = , * = = = = = = = = = = = = = = = = = * < . f aX`.`.).).).).).).).).).).).).).).).).)._._.~.~.).~.|.aX; % = = = = - - = = = = = = = = = = = = = = = = = - - @ D.sX~.~.).).).).).).).).~.~.).).).).).).~.~.~.).|._.`.pXC.@ = < = = , * = = = , = , = = = , = = = = = = - < = , ; aX].~.).).).).).).).).).).).).).).).)._._.).).~.~.~.~.aXg $ = - % = - = = = = = = = = = = = = = = = = = = * < . f aX).).).).).^._._._.).).).).).).).).).).).).).).).).).).",
"= = = = = = = = = = = = = = = = = = = = = = = = = * - @ C.sX~.~.~.).).).).).).).).).).).).).).).^.^.~.~._._.|.aXC.@ * = * , = - = = = = = = = = = = = = = = = = % = * > ; aX].~._._.^.^._._.~.~.~.).).).)._._.^.].~.~.~.}.).).!.aXg @ = > * , : = = > > = = = = = = = = , , = = , , % < & s Y.Y.P.P.L.L.P.H.G.G.H.J.L.L.L.L.J.J.H.H.H.H.H.H.L.L.P.T.: % = = = = = = = = = = = = = = = = = = = = = = < 6 1 i d g d f * < $ g !.J.J.F.Q.K.M.F.j.g HXnXbXzXnXnXzXzXd.mXgX  - , 8 s 1 1 5 5 s p p p 5 5 5 5 5 5 5 5 5 5 5 5 5 8 < = * * = = = = * * * = * * * < 5 5 s d f g f g f g f f d s p p 1 1 s 5 < = - - = = % % - = = - - = * = - = % < @ f sX_.~.|.~.).`.}.]./.^.^././.^./.~.~.).).).).).).~.).|.aX; % * = = = = = = = = = = = = = = = = = = , * = * = - @ D.pX~.|.~.).~.~.).).).).).).).).|.}.L.S.P.H.H.H.H.J.H.T.V @ 2 = = = = = = = = = = = = = = = = = - = > > = = = > i T.D.L.G.P.G.H.L.U.U.D.c.v.z.b.n.n.v.v.b.v.v.z.v.b.b.v.Z.a % < - = = = - - = = = = = = = = = = = = = = * = = -   S BXBXNXA.k.P.Q.P.Y.Y.Q.Y.Y.T.Y.Y.Y.Y.Y.Y.Y.Y.Y.C.gXCXmXnXo . = = = = = = = = = = = = = = = = = = = > = = = - = @ C.sX/.~.~._.).).).).).).).).).).).).).).).)._.).|.).~.aXC.@ = = = , = = - - = = = = = = = = = = = = = = = = = : ; aX].|.~.`.).~.).).).).).).).).).).).).~.~.).).).).~.~.aXg $ = = * = , * = = = = = = = = , = = = = = = = = > < . f aX`.`.).).).).).).).).).).).).).).).).)._._.~.~.~.~.|.].; % = = = = - - = = = = = = = = = = = = = = = = = = - @ C.sX/.~.).).).).).).).).~.~.).).).).).).~.].~.|.|.).).pXC.@ > = * = , > = = = = = = = = = = = = = = = = % = * : ; aX].~.).).).).).).).).).).).).).).).)._._.).).~.~.~.~.aXg $ = = * = = = = = = = = = = = = = = = = = = = = * < . f aX).).).).).^._._._.).).).).).).).).).).).).).).).).).).",
"= = = = = = = = = = = = = = = = = = = = = = = = = = - @ C.sX~.~.~.).).).).).).).).).).).).).).).^.^.~.)._._.].aXC.@ * = * , = - = = = = = = = = = = = = = = = = % = * > ; aX].~._._.^.^._._.~.^.^.^.).).).)._._.].~.~.~.~.).).~.aXg @ = = * , * = = > > = = = = - - - - = = - = 6 5 : , $ s Y.K.H.L.S.S.H.F.H.H.L.P.P.P.L.L.H.J.H.H.H.H.H.H.L.L.P.T.: % = = = = = = = = = = = = = = = = = = = = = = < 6 5 1 s g f f & - . g Y.Q.K.J.Q.M.T.E.A.A NXbXnXbXnXnXzXbXbXCXgXo 4 * * , < < , < 5 5 p p 5 5 5 5 5 5 5 5 5 5 5 5 6 6 < * = = = = = = = = * = = * = < < < s s s s s s s s s s s s s s s 1 1 < = * * * * * * = = , = = = = = = = = % < . f sX`.).).~.).(.}.~.~._._._._._.|._._.`.).).)._._.~.~.|.aX; % * = = = = = = = = = = = = = = = = = = , * = * = - @ D.pX~.|.~.).^.^.).).).).).).).).|.}.L.S.P.H.H.H.H.J.H.T.V @ 2 = = = = = = = = = = = = = = = = = - = , , = = = > i T.D.L.G.P.G.H.L.U.U.D.c.v.z.v.n.n.v.v.b.b.v.z.v.b.b.v.Z.a % < - = = = - - = = = = = = = = = = = = = = * = = - X S DXvXvXA.C.L.S.S.S.M.K.K.M.M.K.K.K.M.M.M.S.S.S.k.gXcXcXcXo - = = = = = = = = = = = = = = = = = = = > = = = - = @ C.sX/.~.~._.).).).).).).).).).).).).).).).)._.).|.).~.aXC.@ = = = , = = - = = = = = = = = = = = = = = = = = = : ; aX].|.~._.).~.).).).).).).).).).).).).~.~.).~.).).~.].aXg $ = = * = , * = = = = = = = , , = = = = = = = = * < . f aX`.`.).).).).).).).).).).).).).).).).)._._.~.~.~.~.|.].; % = = = = - - = = = = = = = = = = = = = = = = = - - @ C.sX/.~.).).).).).).).).~.~.).).).).).).~.].~.|.|.).).pXC.@ > = * = , > = = = = = = = = = = = = = = = = % = * : ; aX].~.).).).).).).).).).).).).).).).)._._.).).~.~.~.~.aXg $ = = * = = = = = = = = = = = = = = = = = = = = * < . f aX).).).).).^._._._.).).).).).).).).).).).).).).).).).).",
"= = = = = = = = = = = = = = = = = = = = = = = = = = - @ C.sX/.~.~.).).).).).).).).).).).).).).).^.^.~.~._.).].aXC.@ * = * = = - = = = = = = = = = = = = = = = = % = * > ; aX].~._._.^.^._._.~.^._._.^.~.~.~.)._._.~.~.|.~.].|.].aXg @ = = * = = = = > > = = = , 2 2 , , 2 , - - % % * < # d Y.Q.J.P.H.P.P.J.P.H.L.L.L.L.S.S.H.H.H.H.H.H.H.H.L.L.P.T.: % = = = = = = = = = = = = = = = = = = = = * % > 5 p 1 s f d d # 5 $ g T.G.S.S.S.C.gXCXNXBXf.f.f.f.s.s.f.bXf.CXgX  - % - < = = = , 2 1 1 1 5 5 5 5 5 5 5 5 5 5 5 < , = = * = = = = = = = = * = , * * , , = % * = * * * * * 2 , 2 p s f s 2 2 , = = = = = = , , , > = = = * * = = = = 6 . f aX`.).)._.|.~.|..X~.|.).).}.!.|.).`.).).~.^._._.~.).|.aX; % * = = = = = = = = = = = = = = = = = = , * = * = - @ D.pX~.|.~.~.^.~.).).).).).).).).).).L.S.P.H.H.H.H.J.H.Y.V @ 2 = = = = = = = = = = = = = = = = = - = , , = = = , ; T.D.U.G.P.G.H.H.L.U.D.c.v.z.z.v.n.v.v.b.v.b.z.v.b.b.v.Z.a % < - = = = = = = = = = = = = = = = = = = = * = = 2 ; i Y.j.K.j.K.Q.P.P.L.Y.L.L.L.T.T.T.T.T.I.Q.Q.Q.Q.OXj.j.j.Y.; i > = = = = = = = = = = = = = = = = = = > = = = - = @ C.pX/.~.~._.).).).).).).).).).).).).).).).)._.).|._.~.aXC.@ = = = , = = - = = = = = = = = = = = = = = = = = = : ; aX].|.~._.).~.).).).).).).).).).).).).~.~.).~.).).~.].aXg $ = = * = , * = , , = = = = = = = = = = = = = = = < . f aX`.`.).).).).).).).).).).).).).).).).)._._.~.].~.~.|.aX; % = = = = - - = = = = = = = = = = = = = = = = = = - @ D.sX/.~.).).).).).).).).~.~.).).).).).).~.~.~.|.|.).).pXC.@ > , * = , * = = = = = = = = = = = = = = = = % = * : ; aX].~.).).).).).).).).).).).).).).).)._._.).).~.~.~.~.aXg $ = = * = = = = = = = = = = = = = = = = = = = = * < . f aX).).).).).~.)._._.).).).).).).).).).).).).).).).).).).",
"= = = = = = = = = = = = = = = = = = = = = = = = = = - @ C.sX~.~.~.).).).).).).).).).).).).).).).^.^.~.~._.).].aXC.@ * = * = = - = = = = = = = = = = = = = = = = * , * : ; aX].~._._.^.^._._.~.^._._.^.~.].~.).)._.~.).~.!./.~.R.aXg $ - 4 - = = = = > > > = = - * * - = 2 2 > = < = = = . s Y.P.G.L.S.L.G.G.Q.L.L.L.P.P.H.G.J.J.H.H.H.H.H.H.L.L.P.T.: % = = = * = = = = = = = = = = = = = = = = , * , p p 1 5 d f d # 2 @ g T.P.L.P.M.V.gXNXzXs.MXzXbXnXzXbXnXzXs.BXgXo 4 - = = , , = , , 2 1 1 5 5 5 5 5 5 5 5 1 5 5 < * * * * = = = = = = = = * , , * > , > : = , < - * = = = = * > p f f s : % % * = = = - * , , > * = = = % * , , , = 6 . f aX`.`._._._.!.~.^.^.pX`._._./._._.).).]..X~.)._.~.~.}.aX; % * = = = = = = = = = = = = = = = = = = , * = * = - @ D.pX~.|.~.~.~.~.).).).).).).).).).).L.S.P.H.H.H.H.J.H.Y.V @ 2 = = = = = = = = = = = = = = = = = - = , , = = = > i T.D.G.G.P.G.H.H.L.U.D.n.b.z.z.v.n.v.v.b.b.b.z.v.b.b.v.Z.a % = = = = = - = = = = = = = = = = = = = = = * = = = & s !.B.Q.Q.Y.M.G.U.H.G.G.J.J.J.Q.J.J.J.G.G.S.S.S.F.Q.Q.M..X@ - = = = = = = = = = = = = = = = = = = = > = = - - = @ C.pX/.~.~._.).).).).).).).).).).).).).).).)._._.|._.~.aXC.@ = = = , = = - - = = = = = = = = = = = = = = = = = : ; aX].|.~._.).~.).).).).).).).).).).).).~.~.).~.).).~.].aXg $ = = * = , * = , , = = = = = = = = = = = = = = * < . f aX`.`.).).).).).).).).).).).).).).).).)._._.~.~.~.~.|.aX; % = = = = - - = = = = = = = = = = = = = = = = = = - @ D.sX/.~.).).).).).).).).~.~.).).).).).).~.~.~.).|.).).pXC.@ > , * = , * = = = = = = = = = = = = = = = = % = * : ; aX].~.).).).).).).).).).).).).).).).)._._.).~.~.~.~.~.aXg $ = = % = = = = = = = = = = = = = = = = = = = = * < . f aX).).).).).^._._._.).).).).).).).).).).).).).).).).).).",
"= = = = = = = = = = = = = = = = = = , = = = = = = = - @ D.sX~.~.~.).).).).).).).).).).).).).).).^.^.~.~.`.).|.aXC.@ = < = = = - = = = = = = = = = = = = = = = = * , * > ; aX].~.^.).~.~._._.~.~.).).).).).).).).).).).).).~.~.~.aXg $ = = * , = = = = = = = = = = = = = = = = = , , = = @ d Y.J.H.H.H.H.H.H.H.H.H.H.H.H.H.H.H.H.H.H.H.H.H.H.L.L.I.T.: % = = = * = = = = = = = = = = = = = = = = , , < < 5 p d f g d 1 # i g Y.!.P.Q.Q.j.gXNXzXzXzXbXbXbXbXbXbXbXs.NXgXo 4 % = * $ * % # , 1 1 s 5 5 5 5 p p p p 5 p 5 1 2 > > * = = = = = = = = = * % % - = = * = = , = * * * = 2 > 2 s f f s 1 , = = = = = = = = = = = = = = = = = = = * < . f sX)._._.~.|.~._.).~.~.~.).).).).).).).).).).).).~.~.|.aX; % - = = = = = = = = = = = = = = = = = = = * = * = - @ D.pX~.].~.^.^.^.).).).).).).).).).).L.S.P.H.H.H.H.J.H.Y.V @ 2 = = = = = = = = = = = = = = = = = - = , , = = = , i T.D.L.G.P.G.H.H.H.L.D.c.v.b.v.A.c.c.c.c.k.k.k.l.l.l.c.#Xa X - * * > , = = = = = = = = = = = = = = = = = = = , $ d Y.P.J.H.H.H.H.H.U.L.H.H.H.H.H.H.H.H.L.L.H.H.H.H.H.G.P.T.3 * - = = = = = = = = = = = = = = = = = = > = = = - = @ C.pX/.~.~._.).).).).).).).).).).).).).).).)._._._.).~.aXC.@ = = = , = = - = = = = = = = = = = = = = = = = = = : ; aX].].~._.).~.).).).).).).^.^.^.^._.).).).~.~.|.|.).).sXg @ < % 5 * < 2 2 * - - - - = = = = = = = = = = = * < . f aX`.`.).).).).).).).).).).).).).).).).)._._.~.^.).~.|.aX; % = = = = - - = = = = = = = = = = = = = = = = = - - @ D.sX/.~.~.).~.~.).).).).~.~.).).).).).).~.~.~.).|._.`.pXC.@ > , * = , * = = = = = = = = = = = = = = = = * = * : ; aX].~.).).).).).).).).).).).).).).).)._._.).).~.~.~.~.aXg $ = - % = = = = = = = = = = = = = = = = = = = = * < . f aX).).).).).^._._._.).).).).).).).).).).).).).).).).).).",
"= = = = = = = = = = = = = = = = = = , , = = = = = = - @ C.sX~.~.~.).).).).).).).).).).).).).).).^.^.~.~.`.`.).aXC.@ = < = = = - = = = = = = = = = = = = = = = = * , * > ; aX].~.~.).~.~._._.~.~.).).).).).).).).).).).).).~.~.~.aXg $ - = * , * = = = = = = = = = = = = = = = = , , = = @ d Y.J.H.H.H.H.H.H.H.H.H.H.H.H.H.H.H.H.H.H.H.H.H.H.L.L.I.T.: % = = = * = = = = = = = = = = = = = = = = * * = = , 2 p s p p 5 , > p d h h S.Q.V.gXNXnXnXzXbXbXbXbXbXbXbXs.NXgXo 4 * 1 s d d d s s 2 * , = = = , , 2 2 2 < < < , = * * = = = = = = = = = , = = = = = , , = = = = = * = = * * * < 5 5 2 # = = = = = = = = = = = = = = = = = = = = * < . f sX).)._.~.|.~._.).).).~.).).).).).).).).).).).).~.~.|.aX; % - = = = = = = = = = = = = = = = = = = = * = - = - @ D.pX~.].~.^.^.^.).).).).).).).).|.|.L.S.P.G.H.H.H.J.H.T.V @ 2 = = = = = = = = = = = = = = = = = - = , , = = = , i D.D.L.G.P.G.H.J.J.H.D.c.x.x.x.x.C T 3X4X4X6X4X3X-X#XZ.>Xa $ * - * = > = = = = = = = = = = = = = = = = = = = , $ d Y.J.J.H.H.H.H.H.L.L.H.H.H.H.H.H.H.H.L.L.H.H.H.H.H.G.P.T.3 * - = = = = = = = = = = = = = = = = = = > = = = - = @ C.pX/.~.~._.).).).).).).).).).).).).).).).)._._._.).~.aXC.@ , = = , - = - = = = = = = = = = = = = = = = = = = # ; aX].].~._.).~.).).).).).).).).~.~.~.).).~.~.~.~.~.~.^.aXg $ 4 X 4 X % % % - - - = = = > > = = = = = = = = * < . f aX`.`.).).).).).).).).).).).).).).).).)._._.~.].).~.|.aX; % = = = = - - = = = = = = = = = = = = = = = = = = - @ D.sX/.~.~.).~.~.).).).).~.~.).).).).).).~.~.~.).|._.`.pXC.@ > , = = , * = = = = = = = = = = = = = = = = * = * : ; aX].~.).).).).).).).).).).).).).).).)._._.).).~.~.~.~.aXg $ = - % = = = = = = = = = = = = = = = = = = = = * , . f aX).).).).).^._._._.).).).).).).).).).).).).).).).).).).",
"= = = = = = = = = = = = = = = = = = = = = = = = = = - @ D.sX/.~.~.).).).).).).).).).).).).).).).^.^.~.~.`.).].aXC.@ = < * = = - = = = = = = = = = = = = = = = = * , * > ; aX].~._._.^.^._._.~.~.).).).).).).).).).).).).).~.~.~.aXg $ = = * , * = = = = = = = = = = = = = = = = , , - = $ d Y.J.H.H.H.H.H.H.H.H.H.H.H.H.H.H.H.H.H.H.H.H.H.H.L.L.P.T.: % = = = = = = = = = = = = = = = = = = = = * * * - * * 2 5 1 1 5 8 < = X @ i T.Q.V.gXNXzXzXzXzXzXzXbXbXbXzXbXBXgX  4 > d f d f f f d 1 = = - - = = = = = = % - = = - - = = = = = = = = = = = = = = = = = = * = = = - - = = - = = = * * : * = = = = = = = = = = = = = = = = = = = = * < . f sX).).|.~.|.~._.).).).).).).).).).).).).).).).).~.~.|.aX; % * = = = = = = = = = = = = = = = = = = , * = * = - @ D.sX~.].~.|.~.~.).).).).).).).).|.|.L.S.P.H.H.H.H.J.H.T.V @ 2 = = = = = = = = = = = = = = = = = - = > , = = = , i T.D.L.G.P.G.G.U.L.U.D.A.v.v.n.Z.C ;XuXuXrXrXwXrX4XT C A.a % 4 - - = = = = = = = = = = = = = = = = = = = = = , $ d Y.P.J.H.H.H.H.H.L.L.H.H.H.H.H.H.H.H.L.L.H.H.H.G.H.G.P.T.3 * - = = = = = = = = = = = = = = = = = = > = = - - = @ C.pX/.~.~._.).).).).).).).).).).).).).).).)._._.|.).~.aXC.@ , = = , - - - = = = = = = = = = = = = = = = = = = : ; aX].|.~.).).~.).).).).).).).^.~.~.~.).).^.~.^._.~.~.].aXg $ - & = = 4 = = = - = = = , > , = = = = = = = = * < . f aX`.`.).).).).).).).).).).).).).).).).)._._.~.~.).~.|.aX; % = = = = - - = = = = = = = = = = = = = = = = = - - @ D.sX/.~.).).~.~.).).).).~.~.).).).).).).~.~.~.).|._.`.pXC.@ = < = = , > = = = = = = = = = = = = = = = = * = * : ; aX].~.).).).).).).).).).).).).).).).)._._.).).~.~.~.~.aXg $ = - % = = = = = = = = = = = = = = = = = = = = * , . f aX`.).).).).^._._._.).).).).).).).).).).).).).).).).).).",
"= = = = = = = = = = = = = = = = = = = = = = = = = = - @ C.sX/.~.~.).).).).).).).).).).).).).).).^.^.~.~.`.).].aXC.@ = < * = = - = = = = = = = = = = = = = = = = * , * > ; aX].~._._.^.^._._.~.~.).).).).).).).).).).).).).~.~.~.aXg $ = = * , * = = = = = = = = = = = = = = = = , , = = $ d Y.J.H.H.H.H.H.H.H.H.H.H.H.H.H.H.H.H.H.H.H.H.H.H.L.L.P.T.: % = = = = = = = = = = = = = = = = = = = = = - - = * * , 5 p 1 p p 5 < = , i T.T.V gXBXmXMXf.f.zXzXf.f.s.zXf.BXgX  4 > d f f f f f d 2 % % % % % % % % % % % * - = - - = = = = = = = = = = % * = = * * % - * * = * * * - = - = = = = * , < = = = = = = = = = = = = = = = = = = = = * < . f sX).).|.~.|.~._.).).).).).).).).).).).).).).).).~.~.|.aX; % * = = = = = = = = = = = = = = = = = = , * = % = - @ D.sX~.].~.~.~.~.).).).).).).).).|.|.L.S.P.H.H.H.H.J.H.T.V @ 2 = = = = = = = = = = = = = = = = = - = > > = = * , i T.D.L.G.P.G.G.J.U.U.D.n.z.v.v.z.C  .eXrX7XwX7XrX8X+Xm.A.a % = - * > > = = - - - = = = = = = = = = = = = = = , $ d Y.P.J.H.H.H.H.H.L.L.H.H.H.H.H.H.H.H.L.L.H.H.H.H.H.G.P.T.3 * = = = = = = = = = = = = = = = = = = = > = = - - < @ C.pX/.~.~._.).).).).).).).).).).).).).).).)._.).|.).~.aXC.@ = = = , - - - = = = = = = = = = = = = = = = = = = # ; aX].].~.).).~.).).).).).).^.^.~.~.].).).).~.|. X`.}.|.].g @ & & & 3 > % % = = = = = = = = = = = = = = = = * < . f aX`.`.).).).).).).).).).).).).).).).).)._._.~.~.).~.|.aX; % = = = = - - = = = = = = = = = = = = = = = = = - - @ C.sX/.~.).).).~.).).).).~.~.).).).).).).~.~.~.).|._.`.pXC.@ , < = = , = = = = = = = = = = = = = = = = = * = * : ; aX].~.).).).).).).).).).).).).).).).)._._.).).~.~.~.~.aXg $ = - % = = = = = = = = = = = = = = = = = = = = * < . f aX`.).).).).^._._._.).).).).).).).).).).).).).).).).).).",
"= = = = = = = = = = = = = = = = = = = = = = = = = = - @ C.sX/.~.~.).).).).).).).).).).).).).).).^.^.~.~.|.).].aXC.@ * = * = = - = = = = = = = = = = = = = = = = * , * > ; aX].~._._.^.^._._.~.~.).).).).).).).).).).).).).~.~.~.aXg $ = = * , * = = = = = = = = = = = = = = = = , , = < $ d Y.J.H.H.H.H.H.H.H.H.H.H.H.H.H.H.H.H.H.H.H.H.H.H.L.L.P.T.: % = = = = = = = = = = = = = = = = = = = = - - = = , 2 < 8 s 5 1 1 1 , > 1 i T.D.k.gXDXDXvXbXbXbXbXf.f.bXbXs.NXgXo 4 * s s d d d d s p 2 2 2 2 2 2 2 2 1 1 , , , = = * * = = = = = = = = = % , 5 5 1 , = = = , , , = * = = % % * * = = , = = = = = = = = = = = = = = = = = = = - = * < . f sX).~.|.~.|.~._.).).).).).).).).).).).).).).).).~.~.}.aX; % * = = = = = = = = = = = = = = = = = = , * = - = - @ D.sX~.].~.].~.~.).).).).).).).).|.|.L.S.P.H.H.H.J.J.J.Y.V @ 2 = = = = = = = = = = = = = = = = = - = , , = = = , i T.D.L.G.P.G.H.J.J.L.D.A.x.b.b.#Xx.;X9X4X4XeX4X3X*X+Xc.Z.a % = * * , , , = - - - = = = = = = = = = = = = = = , $ d Y.P.J.J.H.H.H.H.L.L.H.H.H.H.H.H.H.H.L.L.H.H.H.H.L.G.I.D.3 * - = = = = = = = = = = = = = = = = = = > = = - - < @ C.pX/.~.)._.).).).).).).).).).).).).).).).)._.).|.).~.aXC.@ = = = , - = - = = = = = = = = = = = = = = = = = = : ; aX].|.~.`.).~.).).).).).).).)..X.X].}.).).~.).}.(.|.].aXV 7 7 7 % * < = 6 = = = = = = - = = = = = = = = = * < . f aX`.`.).).).).).).).).).).).).).).).).)._._.~.~.~.~.|.aX; % = = = = - - = = = = = = = = = = = = = = = = = - - @ D.sX/.~.).).).).).).).).~.~.).).).).).).~.].~.|.|.).).pXC.@ * = * = , > = = = = = = = = = = = = = = = = * = * : ; aX].~.).).).).).).).).).).).).).).).)._._.).).~.~.).~.aXg $ = - % = = = = = = = = = = = = = = = = = = = = * < . f aX).).).).).^._._._.).).).).).).).).).).).).).).).).).).",
"= = = = = = = = = = = = = = = = = = = = = = = = = = - @ C.sX/.~.~.).).).).).).).).).).).).).).).^.^.~.~.|.).].aXC.@ * = * = = - = = = = = = = = = = = = = = = = * , * > ; aX].~._._.^.^._._.~.~.).).).).).).).).).).).).).~.~.~.aXg $ = = * , * = = = = = = = = = = = = = = = = , , = < @ d Y.J.H.H.H.H.H.H.H.H.H.H.H.H.H.H.H.H.H.H.H.H.H.H.L.L.P.T.: % = = = = = = = = = = = = = = = = = = = = * % * , , 2 1 8 6 6 < 5 5 , % : i T.G.j.G.M.j.g NXnXzXzXbXbXbXbXs.NXgXo 4 % 1 < , , 1 p p s d d d d d d d d d d 1 1 1 < , * * = = , , , , , = , > p d f s p 5 5 5 5 5 1 < 2 , , = = * = < < = % = = = = = = = = = = = = = = = = = = - = * < . f sX).~.|.~.|.~._.).).).).).).).).).).).).).).).).~.~.|.aX; % * = = = = = = = = = = = = = = = = = = , * = - = - @ D.sX/.].~.].~.~.).).).).).).).).|.|.L.S.P.H.H.H.J.J.H.Y.V @ 2 = = = = = = = = = = = = = = = = = - = , , = = = , i T.D.L.G.P.G.G.H.L.L.D.A.v.v.n.c.l.l.z.l.l.c.m.x.x.l.l.#Xa % - * * , , = = = = = = = = = = = = = = = = = = = , $ d Y.P.J.J.H.H.H.H.L.L.H.H.H.H.H.H.H.H.L.L.H.H.H.H.L.G.I.D.3 * - = = = = = = = = = = = = = = = = = = > = = - - < @ C.pX/.].)._.).).).).).).).).).).).).).).).)._.).|.).~.aXC.@ = = = , = = = = = = = = = = = = = = = = = = = - = > ; aX].|.~.`.).~.).).).).).).`.`.).~.)._._._.^.^.~.!.dX>XdX+X/ @.K u 7 = % % - - - = = = - = = = = = = = = = * < . f aX`.`.).).).).).).).).).).).).).).).).)._._.~.~.~.~.|.aX; % = = = = - - = = = = = = = = = = = = = = = = = - - @ D.sX/.~.).).).).).).).).~.~.).).).).).).~.].~.|.|.).).pXC.@ * = * = , > = = = = = = = = = = = = = = = = * = = : ; aX].~.).).).).).).).).).).).).).).).)._._.).).~.~.).~.aXg $ = - % = = = = = = = = = = = = = = = = = = = = * < . f aX).).).).).^._._._.).).).).).).).).).).).).).).).).).).",
"= = = = = = = = = = = = = = = = = = = = = = = = = * - @ C.sX~.~.~.).).).).).).).).).).).).).).).^.^.~.~._._.|.aXC.@ * = * = = - = = = = = = = = = = = = = = = = * , * > ; aX].~._._.^.^._.).~.~.).).).).).).).).).).).).).~.~.~.aXg $ = = * , * = = = = = = = = = = = = = = = = , , = < @ d Y.J.H.H.H.H.H.H.H.H.H.H.H.H.H.H.H.H.H.H.H.H.H.H.L.L.P.T.: % = = = = = = = = = = = = = = = = = = = = * % * * * , < 5 < 5 6 6 8 < % : ; T.L.J.Q.B.Q.k.NXMXf.f.bXbXf.bXf.NXgXo 4 % , * % = < 1 2 s f d d d d d f f d d p 5 5 < = * * = - * * * * * - * * p f g d p p 5 p p 5 5 < , , , < < = = , , = * = = = = = = = = = = = = = = = = = = = = * < . f sX).).|.~.|.~._.).).).).).).).).).).).).).).).).~.).|.aX; % * , = = = = = = = = = = = = = = = = = , * = % = - @ D.pX~.].~.~.~.~.).).).).).).).).|.|.L.S.P.H.H.H.J.J.J.Y.V @ 2 = = = = = = = = = = = = = = = = = - = , , = = = , i T.D.L.G.P.G.G.L.L.L.D.A.x.x.b.Z.Z.z.z.v.n.n.v.l.Z.c.v.#Xa $ = = > , = - - , , = = = = = = = = = = = = = = = , % d Y.P.J.P.H.H.H.H.L.L.H.H.H.H.J.J.H.H.L.L.H.H.H.H.L.G.P.T.3 % - = = = = = = = = = = = = = = = = = = > = = - - < @ C.pX/.|._._.).).).).).).).).).).).).).).).)._.).|._.~.aXC.@ = = = , = = - - = = = = = = = = = = = = = = = = = : ; ].].].~.`.).~.).).).).).)._._.^.^.^._._._.|.`.}.).pXdXdX;X~ [ Y + O = , < = = = = = = = - = = = = = = = = * < . f aX`.`.).).).).).).).).).).).).).).).).)._._.~.~.~.~.|.aX; % = = = = = - = = = = = = = = = = = = = = = = = - - @ D.sX~.~.).).).).).).).).~.~.).).).).).).~.~.~.|.|.).).pXC.@ > , * = , > = = = = , , = = = = = = = = = = * = = : ; aX].~.).).).).).).).).).).).).).).).)._._.).).~.~.).~.aXg $ = - % = - = = = = = = = = = = = = = = = = = = * < . f aX).).).).).~._._._.).).).).).).).).).).).).).).).).).).",
"= = = = = = = = = = = = = = = = = = = = = = = = = * - @ D.sX~.~.~.).).).).).).).).).).).).).).).^.^.~.~.|.`.|.aXC.@ * = * = = - = = = = = = = = = = = = = = = = * , * > ; aX].~._._.^.^._.).~.~.).).).).).).).).).).).).).~.~.~.aXg $ = = * , * = = = = = = = = = = = = = = = = , , = = @ d Y.J.H.H.H.H.H.H.H.H.H.H.H.H.H.H.H.H.H.H.H.H.H.H.L.L.P.T.: % = = = = = = = = = = = = = = = = = = = = = = = = = * < p p s p 1 5 1 > : h !.!.'.Q.F.Y.V AXf.f.bXbXbXzXbXf.NXgX  4 * , * % = 9 1 2 d g d g g g g g f f d p 5 5 < = = = - - - % % % - - - X 1 d f d p 2 , 5 p 5 1 , > * * = = * * * * * = = = = = = = = = = = = = = = = = = = = = * < . f sX).).|.~.).~.).).).).).).).).).).).).).).).).).~.).|.aX; % * , = = = = = = = = = = = = = = = = = , * = - = - @ D.pX~.].~.].~.~.).).).).).).).).|.|.L.S.P.H.H.H.J.J.J.Y.V @ 2 = = = = = = = = = = = = = = = = = - = , , = = = , i T.D.L.G.P.G.G.U.U.H.D.A.z.x.x.z.v.l.z.Z.v.x.Z.z.Z.x.b.#Xa $ 2 , , = = * * , , = = = = = = = = = = = = = = = , $ d Y.P.J.J.H.H.H.H.L.L.H.H.H.H.J.J.H.H.L.L.H.H.H.H.H.G.P.T.3 % - = = = = = = = = = = = = = = = = = = > = = - - < @ C.sX~.|._._.).).).).).).).).).).).).).).).)._._.|._.~.aXC.@ = = = , = = - - = = = = = = = = = = = = = = = = = : ; ].].].~.).).~.).).).).).).~.~..X.X~.).`.[.[.[.[.[.XX(._.#XY ! I + $ 3 3 # = = = = , = - - = = = = = = = = * < . f aX`.`.`.).).).).).).).).).).).).).).).)._.~.~.~.~.~.|.aX; % = = = = - - = = = = = = = = = = = = = = = = = = - @ D.sX~.~.).).).).).).).).~.~.).).).).).).~.~.~.).|.).).pXC.@ > , * = , > = = = = , = = = = = = = = = = = * = = : ; aX].~.).).).).).).).).).).).).).).).)._._.).).].~.).~.aXg $ = - % = - = = = = = = = = = = = = = = = = = = * < . f aX).).).).).^._._._.).).).).).).).).).).).).).).).).).).",
"= = = = = = = = = = = = = = = = = = = = = = = = = = - @ C.sX~.~.~.).).).).).).).).).).).).).).).^.^.~.].`.).].aXC.@ * = = = = - = = = = = = = = = = = = = = = = * = * > ; aX].~._._.^.^._._.~.~.).).).).).).).).).).).).).~.~.~.aXg $ - = * , * = = = = = = = = = = = = = = = = , , = = @ d Y.J.H.H.L.H.H.H.H.H.H.H.H.H.H.H.H.H.H.H.H.H.H.H.L.L.P.T.: % = = = = = = = = = = = = = = = = = = = = = = = = = = = = * , 5 5 5 < = > i s s p V.Y.S.D.E.E.C.gXNXf.bXbXs.mXgXo 4 - - % - < 5 5 5 p 5 p p p p p p p p p 5 5 5 < = * * * = * 1 s s s s s s s d d d d d s s 1 1 5 2 , , * = = = , = = = = = = = = = = = = = = = = = = = = = = = = * < . f sX)._.|.~.|.~._.).).).).).).).).).).).).).).).).~.~.}.aX; % * = = = = = = = = = = = = = = = = = = , * = % = - @ D.pX~.|.~.~.~.~.|.~.~.~._.|.|.).).|.D.G.P.G.H.S.H.J.H.Y.V @ 2 = = = = = = = = = = = = = = = = = - = > > = = = , i T.D.L.G.J.G.H.H.U.U.D.n.b.z.b.v.v.b.b.v.v.v.z.z.v.b.z.Z.a $ = = = = = - - = = = = = = = = = = = = = = = = = , $ d Y.P.J.H.H.H.H.H.L.L.H.H.H.H.H.H.H.H.L.L.J.H.H.H.H.G.P.T.3 * - = = = = = = = = = = = = = = = = = = > = = - - = @ C.pX/.~.~.).).).).).).).).).).).).).).).).)._.).|.).~.aXC.@ = = = , = = - - = = = = = = = = = = = = = = = = = # ; E.].].~.|.~.~.).).).).).)._._.^.^.~.~.{.dX@X/ ' R R R / Q ~ [ ~ F F L e X = , 4 = * * = = = = = = = = = = > < . f aX`.`.).).).).).).).).).).).).).).).).)._._.~.^.).~.|.aX; % = = = = = - = = = = = = = = = = = = = = = = = - - @ D.sX/.~.).).).).).).).).~.~.).).).).).).~.~.~.).|._.`.pXC.@ * = * = , > = = = = = = = = = = = = = = = = % = * : ; aX].~.).).).).).).).).).).).).).).).)._._.).).~.~.~.~.aXg $ = = * = - = = = = = = = = = = = = = = = = = = * < . f aX`.`.`.).).^._._._.).).).).).).).).).).).).).).).).).).",
"= = = = = = = = = = = = = = = = = = = = = = = = = * - @ C.sX~.~.~.).).).).).).).).).).).).).).).^.^.~.].`.).].aXC.@ * = = = = - = = = = = = = = = = = = = = = = * = * > ; aX].~._._.^.^._._.~.~.).).).).).).).).).).).).).~.~.~.aXg $ = = * , * = = = = = = = = = = = = = = = = , , = = @ d Y.J.L.H.L.L.H.H.H.H.H.H.H.H.H.H.H.H.H.H.H.H.H.H.L.L.P.T.: % = = = = = = = = = = = = = = = = = = = = = = = = , = = = = , 5 5 5 < , = % % % @ g Y.K.Q.M.M.j.2XNXnXxXxXzXNXgX  4 = , 2 > 1 p p p 5 5 5 1 1 5 5 1 1 1 1 5 5 5 < = * * = = * s f d d f d d d f f f f f g s p 5 5 2 = = * = = , = = = = = = = = = = = = = = = = = = = = = = = = = * < . f sX)._.|.~.|.~._.).).).).).).).).).).).).).).).).~.).}.aX; % * = = = = = = = = = = = = = = = = = = = * = * = - @ D.pX~.|.~.~.~.~.|.).~.~.~.~.).~.~.|.S.S.P.G.L.H.H.J.H.Y.V @ 2 = = = = = = = = = = = = = = = = = - = , > = = = , i T.D.L.G.P.G.H.H.L.U.D.c.b.z.b.v.v.b.b.v.v.v.z.z.v.b.z.Z.a $ = = = = = - - = = = = = = = = = = = = = = = = = , $ d Y.P.J.H.H.H.H.H.L.L.H.H.H.H.H.H.H.H.L.L.J.H.H.H.H.G.P.T.3 * - = = = = = = = = = = = = = = = = = = > = = - - = @ C.pX/.~.~._.).).).).).).).).).).).).).).).)._.).|.).~.aXC.@ = = = , = = - = = = = = = = = = = = = = = = = = = : ; E.].|.~._.).~.).).).).).).~.~.).).~.).`.>XQ [ [ [ [ [ [ [ [ [ [ [ [ ! w O 4 , = = * = = = = = = = = = = = * < . f aX`.`.).).).).).).).).).).).).).).).).)._._.~.].).~.|.aX; % = = = = = - = = = = = = = = = = = = = = = = = - - @ D.sX/.~.).).).).).).).).~.~.).).).).).).~.~.~.).|._.`.pXC.@ * = = = , > = = = = = = = = = = = = = = = = % = * : ; aX].~.).).).).).).).).).).).).).).).)._._.).).~.~.~.~.aXg $ = = * = = = = = = = = = = = = = = = = = = = = * < . f aX`.`.`.).).^._._._.).).).).).).).).).).).).).).).).).).",
"= = = = = = = = = = = = = = = = = = = = = = = = = * - @ C.sX/.~.~.).).).).).).).).).).).).).).).^.^.~.~.`.).|.aXC.@ * = * = = - = = = = = = = = = = = = = = = = * = * > ; aX].~._._.^.^._._.~.~.).).).).).).).).).).).).).~.~.~.aXg $ = = * , * = = = = = = = = = = = = = = = = , , = = @ d Y.J.L.L.L.L.H.H.H.H.H.H.H.H.H.H.H.H.H.H.H.H.H.H.L.L.P.T.: % = = = = = = = = = = = = = = = = = = = = = = , , , , , = = < 6 5 5 < , = - - X . g Y.H.J.K.P.k.2XBXMXf.f.f.mXh.  - & & % * 1 p p 1 5 5 5 5 5 5 5 5 5 5 5 5 5 5 < = * * = * # p f f d g d d d d d d d f f s p 5 5 , = = * = = = = = = = = = = = = = = = = = = = = = = = = = = = = * < . f sX).).|.~.|.~._.).).).).).).).).).).).).).).).).~.).}.aX; % * = = = = = = = = = = = = = = = = = = , * = - = - @ D.pX~.|.~.|.~.~.~.).|.).~.).|.|.}.|.L.G.P.G.L.H.H.J.H.Y.V @ 2 * = = = = = = = = = = = = = = = = - = , , = = = , i D.D.L.G.P.G.H.H.L.G.D.c.b.z.b.v.v.b.b.v.v.v.z.z.v.b.z.Z.a $ = = = = = - - - = = = = = = = = = = = = = = = = , $ d Y.P.J.H.H.H.H.H.L.L.H.H.H.H.H.H.H.H.L.L.H.H.H.H.H.G.I.T.3 * - = = = = = = = = = = = = = = = = = > > = = - - < @ C.pX/.~.~._.).).).).).).).).).).).).).).).)._.).|.).~.aXC.@ = = = , = = = = = = = = = = = = = = = = = = = = = : ; aX].|.~._.).~.).).).).).^./.^.~.~.{.{.{.>X| ~ [ ~ [ ~ [ [ ~ ~ [ [ [ ! q o = = = = - = = = = = = = = = = = * < . f aX`.`.).).).).).).).).).).).).).).).).)._._.~.~.).~.|.aX; % = = = = - - = = = = = = = = = = = = = = = = = = - @ D.sX/.~.).).).).).).).).~.~.).).).).).).~.~.~.).|._.`.pXC.@ , , = = , > = = = = = = = = = = = = = = = = % = * : ; aX].~.).).).).).).).).).).).).).).).)._._.).).~.~.~.~.aXg $ = = * = = = = = = = = = = = = = = = = = = = = * < . f aX).).).).).^._._._.).).).).).).).).).).).).).).).).).).",
"= = = = = = = = = = = = = = = = = = = = = = = = = * - @ C.sX~.~.~.).).).).).).).).).).).).).).).^._.~.~.`.`.|.aXC.@ * = * = = - = = = = = = = = = = = = = = = = * = * > ; aX].~._._.^.^._._.~.~.).).).).).).).).).).).).).~.~.~.aXg $ = = * , * = = = = = = = = = = = = = = = = , , = = @ d Y.J.L.H.L.L.H.H.H.H.H.H.H.H.H.H.H.H.H.H.H.H.H.H.L.L.P.T.: % = = = * = = = = = = = = = = = = = = = = = = , = , , , = * , < < < , , = * < , : g Y.L.P.J.Y.C.2XNXbXs.BXbXmXgXo 4 - - - % = < < 1 5 p p p 5 p p p p 5 5 5 5 5 < = * = < = * p d d d d d f d f f d d d f s 1 < 1 = * = * = = = = = = = = = = = = = = = = = = = = = = = = = = = = * < . f sX).).|.~.|.~._.).).).).).).).).).).).).).).).).~.).|.aX; % * = = = = = = = = = = = = = = = = = = , * = % = - @ D.pX~.|.~.|.~.~.!.~.|.).).|.).!.~..XP.H.P.K.H.H.G.J.H.Y.V @ 2 * = = = = = = = = = = = = = = = = - = , , = = = , i D.D.L.G.P.G.H.H.L.U.D.c.b.z.b.v.v.b.b.v.v.v.z.z.v.b.z.Z.a $ = = = = = - - - - = = = = = = = = = = = = = = = , % d Y.P.J.H.H.H.H.H.L.L.H.H.H.H.H.H.H.H.L.L.H.H.H.H.H.G.I.T.3 * = = = = = = = = = = = = = = = = = = > > = = - - < @ C.pX/.~.~._.).).).).).).).).).).).).).).).)._.).|.).~.aXC.@ = = = , = = - = = = = = = = = = = = = = = = = = = : ; aX].].~._.).~.).).).).)._._.`.`.`._.`. XdXR ~ [ [ [ [ [ ~ [ [ [ ~ [ U r 7 4 = = 4 = = - - = = = = = = = = * < . f aX`.`.).).).).).).).).).).).).).).).).)._._.~.~.).~.|.aX; % = = = = - - = = = = = = = = = = = = = = = = = = - @ D.sX/.~.).).).).).).).).~.~.).).).).).).~.~.~.).|._.`.pXC.@ , < = = , , = = = = = , = = = = = = = = = = * = * : ; aX].~.).).).).).).).).).).).).).).).)._._.).).~.~.~.~.aXg $ = = * = = = = = = = = = = = = = = = = = = = = * < . f aX).).).).).^._._._.).).).).).).).).).).).).).).).).).).",
"= = = = = = = = = = = = = = = = = = = = = = = = = = - @ C.sX~.~.~.).).).).).).).).).).).).~.).).^.^.~.~._._.|.aXC.@ * = * , = - = = = = = = = = = = = = = = = = * , * > ; aX].~._._.^.^._._.~.~.).).).).).).).).).).).).~.~.~.~.aXg $ = = * , * = = = = = - = = = = = = = = = = , > - = $ d Y.J.H.H.H.H.H.H.H.H.H.H.H.H.H.H.L.L.H.H.H.H.H.H.L.L.P.T.: % = = = * = = = = = = = = = = = = = = = = = = , = , , = = * = , < , , = = % = = $ g T.S.S.S.F.j.M.Y.k.V gXxXNXgX  6 , < 6 = = - = = 6 5 p 5 5 5 5 5 5 5 5 5 5 5 < = * = < 8 2 s f d d d d d d d d s s p p 5 , , , = * = = = = = = = = = = = = = = = = = = = = = = = = = = = = = = * < . f sX).).|.~.|.~._.).).).).).).).).).).).).).).).).~.~.|.aX; % * = = = = = = = = = = = = = = = = = = , * = * = - @ D.pX~.].~.~.^.^.~.).).~.].].'.G.U.P.S.S.H.K.H.H.H.J.H.Y.C.@ 2 * = = = = = = = = = = = = = = = = - = , , = = = , i T.D.L.G.P.G.H.H.L.G.D.c.b.z.b.v.v.b.b.v.v.v.z.z.b.b.z.Z.a $ = = = = = - - - - = = = = = = = = = = = = = = = , % d Y.P.J.J.H.H.H.H.L.L.H.H.H.H.J.H.H.H.L.L.H.H.H.H.H.G.I.D.3 * - = = = = = = = = = = = = = = = = = = > = = - - < @ D.sX/.~.~._.).).).).).).).).).).).).).).~.~._.).|._.~.aXC.@ = = = , = = - = = = = = = = = = = = = = = = = = = : ; aX].|.~._.).~.).).).).).]..X.X.X.X.X.X}.>XR ~ [ ~ ~ ~ ~ w O . . . - - & & & = = = = = = = = = = = , = = = * < . f aX`.`.).).).).).).).).).).).).).).).).)._._.~.~.~.~.|.aX; % = = = = - - = = = = = = = = = = = = = = = = = = - @ D.sX~.~.).).).).).).).).~.~.).).).).).).~.].~.|.|.).).pXC.@ > , * = , > = = = = = = = = = = = = = = = = * = = : ; aX].~.).).).).).).).).).).).).).).~.~._._.).~.~.~.~.~.aXg $ = - % = = = = = = = = = = = = = = = = = = = = * < . f aX).).).).).^._._._.).).).).~.~.~.~.).).).).).).).).).).",
"= = = = = = = = = = = = = = = = = = = = = = = = = = - @ C.sX/.~.~.).).).).).).).).).).).).~.).).^.^.~.~._._.].aXC.@ * = * , = - = = = = = = = = = = = = = = = = * , * > ; aX].~._._.^.^._._.~.~.).).).).).).).).).).).).).~.~.~.aXg $ = = * , * = = = = = - = = = = = = = = = = , > * = $ d Y.J.H.H.H.H.H.H.H.H.H.H.H.H.H.H.H.H.H.H.H.H.H.H.L.L.P.T.: % = = = * = = = = = = = = = = = = = = = = = = , , , , , = * * = , = * * = - - - $ g !.P.P.H.P.P.K.Q.j.V DXSXBXh.o 4 % : , , = - - = < 6 5 5 5 5 5 5 5 5 5 5 5 5 < , , , 5 s 2 s f d d f f d d d f s p 1 2 < : * , * * = = = = = = = = = = = = = = = = = = = = = = = = = = = = = = * < . f sX).).|.~.|.~._.).).).).).).).).).).).).).).).).~.~.|.aX; % * = = = = = = = = = = = = = = = = = = , * = * = - @ D.pX~.].~.~.^.^.).|.|.).}.}.'.M.G.G.S.G.H.H.H.H.H.J.H.Y.V @ 2 * = = = = = = = = = = = = = = = = - = , , = = = , i T.D.L.G.P.G.H.H.L.G.D.c.b.z.b.v.v.b.b.v.v.v.z.z.v.b.z.Z.a $ = = = = = - - - - = = = = = = = = = = = = = = = , % d Y.P.J.J.H.H.H.H.L.L.H.H.H.H.H.H.H.H.L.L.H.H.H.H.L.G.I.D.; * - = = = = = = = = = = = = = = = = = = > = = - - < @ C.sX/.~.~._.).).).).).).).).).).).).).~.~.~._._.|._.~.aXC.@ = = = , = = - = = = = = = = = = = = = = = = = = = : ; aX].].~._.).~.).).).).).^.dXdXdX_.).`.[.dXR [ [ [ [ ~ ^ u X 3 2 3 * > # * 4 4 = = = = = = = = = = , = = = * < . f aX`.`.).).).).).).).).).).).).).).).).)._._.~.~.~.~.|.aX; % = = = = - - = = = = = = = = = = = = = = = = = = - @ D.sX/.~.).).).).).).).).~.~.).).).).).).~.].~.|.|.).).pXC.@ > , * = , > = = = = = = = = = = = = = = = = * = = : ; aX].~.).).).).).).).).).).).).).).~.~._._.).).~.~.~.~.aXg $ = - % = = = = = = = = = = = = = = = = = = = = * < . f aX).).).).).^._._._.).).).).~.~.~.~.).).).).).).).).).).",
"= = = = = = = = = = = = = = = = = = = = = = = = = = - @ C.sX~.~.~.).).).).).).).).).).).~.~.).~.^.^.~.~._.).].aXC.@ * = * = = - = = = = = = = = = = = = = = = = * , * > ; aX].~._._.^.^._._.~.~.).).).).).).).).).).).).).~.~.~.aXg $ = < * , * = = = = = = = = = = = = = = = = , , = < $ d Y.J.H.H.H.H.H.H.H.H.H.H.H.H.H.H.L.H.H.H.H.H.H.H.L.L.P.T.: % = = = = = = = = = = = = = = = = = = = = = = = = = = = = * * = = * * , , * , = ; V.~.'.Q.U.J.Q.S.I.C.A DXNXBXgXo 8 - = = = , = % = < 5 1 5 5 5 5 5 5 5 5 5 5 5 < , , < 5 1 2 s d d d d d f f f f d s s s < * * = - - = = = = = = = = = = = = = = = = = = = = = = = = = = = = - = * < . f sX).~.|.~.|.^._.).).).).).).).).).).).).~.~.).~.~.~.|.aX; % * = = = = = = = = = = = = = = = = = = , * = * = - @ D.pX~.].~.^.^.^.~.|.|.~.}.}.!.U.I.L.L.H.J.J.H.H.H.P.H.Y.V.@ 2 = = = = = = = = = = = = = = = = = - = > , = = = , i T.D.L.G.P.G.H.H.L.U.D.n.b.z.b.v.v.b.b.v.v.v.z.z.b.b.z.Z.a % = = = = , = = - - = = = = = = = = = = = = = = = , $ d Y.P.J.J.H.H.H.J.L.L.L.L.L.L.H.H.H.H.L.L.H.H.H.H.L.G.P.T.3 % - = = = = = = = = = = = = = = = = = = > = = = = - @ C.pX/.|.)._.).).).).).).).).).).).).).).~.~._._.|._.~.aXC.@ = = = , = = - = = = = = = = = = = = = = = = = = = # ; ].].|.~._.).~.).).).).).).`.XX[.[.{.{.{.E.I ~ ~ ~ ~ ~ ^ w o * 2 & & 2 2 5 = = * * = = - - = = = = , = = = * < . f aX`.).).).).).).).).).).).).).).).).).)._._.~.~.~.~.|.aX; % = = = = - - = = = = = = = = = = = = = = = = = - - @ D.sX~.~.).).).).~.~.).).~.~.).).).).).).~.~.~.|.|.).).pXC.@ * = * = , > = = = = = = = = = = = = = = = = % = = , ; aX].~.).).).).).).).).).).).).).).~.~._._.).~.~.~.~.~.aXg $ = - % = - = = = = = = = = = = = = = = = = = = * < . f aX).).).).).~.)._._.).).).).).).~.~.).).).).).).).).).).",
"= = = = = = = = = = = = = = = = = = = = = = = = = = - @ C.sX~.~.~.).).).).).).).).).).).~.~.~.~.^.^.~.~._.).].aXC.@ * = * = = - = = = = = = = = = = = = = = = = * , * > ; aX].~._._.^.^._._.~.~.).).).).).).).).).).~.~.).~.~.~.aXg $ = = % = * = = = = = = = = = = = = = = = = , , = < $ d Y.J.H.H.H.H.H.H.H.H.H.H.H.H.H.H.L.L.H.H.H.H.H.H.H.L.P.T.: % = = = = = = = = = = = = = = = = = = = = = = = , = = = = * = = = * * , , : 6 6 $ p g d g T.F.Y.S.Q.I.k.IXgXgX2X. 1 = = = , , * * - < 1 1 1 1 1 1 1 1 1 1 1 5 5 < , , < 5 5 2 s f d d d s s s s s p 2 2 2 < * * = - - = - = = = = = = = = = = = = = = = = = = = = = = = = = = - = * < . f aX).~.|.~.|._._.).).).).).).).).).).).).~.~.~.~.~.~.}.aX; % * = = = = = = = = = = = = = = = = = = , * = * = - @ D.pX~.].~.^.^.^.~.).).!.!.!.Q.G.L.G.G.G.F.J.L.L.G.L.H.Y.V.@ 2 = = = = = = = = = = = = = = = = = - = > > = = = , i T.D.L.G.P.G.H.H.L.G.D.n.b.z.b.v.v.b.b.v.v.v.z.z.v.b.z.Z.a % = = = = , = = - - = = = = = = = = = = = = = = = , $ d Y.P.J.J.H.H.H.J.L.L.H.L.L.H.H.H.H.H.L.L.H.H.H.H.H.G.P.T.3 % - = = = = = = = = = = = = = = = = = = > = = = = - @ C.sX/.~.~._.).).).).).).).).).).).).).).~.)._._.|._.~.pXC.@ = = = , = = - = = = = = = = = = = = = = = = = = = > ; ].].|.~._.).~.).).).).).}..X.X/.>X>X>X>X;X~ [ [ [ ~ ~ 1.F D z k 7 % 6 % * = = = = = = - - = = = = , = = = * < . f aX`.).).).).).).).).).).).).).).).).).)._.).~.~.~.~.|.aX; % = = = = - - = = = = = = = = = = = = = = = = = - - @ D.sX~.~.).).).).~.).).).~.~.).).).).).).~.~.~.).|.).).pXC.@ * = * = , > = = = = = = = = = = = = = = = = % < = , ; aX].~.).).).).).).).).).).).).).).~.~._._.).~.~.~.~.~.aXg $ = - % = = = = = = = = = = = = = = = = = = = = * < . f aX).).).).).^._._._.).).).).).).~.~.).).).).).).).).).).",
"= = = = = = = = = = = = = = = = = = , , = , , , % 9 X . C.sX!.|.~.~.~.~.~.~.~.~.~.~.~.~.~.~.~.~.~.~.~.~._.`.|.].C.@ , 8 % , > , = = = = = = = = = = = = = = = = = = = % ; aX].~.~.~.^.^.^.^.~.~.~.~.~.~.~.~.~.~.~.~.~.~.~.~.~./.aXg ; , < % , 2 = = = = , , , = - - = = = - = = * = - - . h Y.G.H.H.H.H.H.H.H.H.H.H.H.H.H.H.H.H.S.S.S.S.H.J.J.J.L.D.i $ < $ < * = = = = = = = = = = = = = = = = = = * * * * = = = = = = * * * * - = - % o o . @ C.L.G.G.K.G.F.B.j.M.g ; # < % % = = = = 2 1 5 s 8 > % , = % * - - * * < 5 5 5 1 1 p s d d s 5 , 6 6 5 5 1 , % % = - * * = = = * * = = = = = = * = = = = = = = = = = = = = = = = , : < % - < % d aX|.~.`.]././.~.~.~.~.~.~.~.~.~.~.~.~.~.~.~.~.~.|.!.|.].; % - % , , = = = , = = = = = = = = = = * * = * * = % @ D.|.~./.|.~.~.~.].|.!.L.M.F.F.J.J.H.G.S.S.S.H.H.J.K.S.Y.g ; * = - = = = = = = = = = = = = = = = , , , = - - - > ; C.Y.S.G.F.L.S.F.S.D.D.A.c.z.z.z.z.z.v.v.v.v.v.v.v.l.Z.A.a $ , - & - = = = = = = = = = = = = = = = = = = = = = . d T.P.K.P.K.J.J.H.H.S.H.H.H.H.H.H.H.S.S.S.H.H.J.F.Q.F.Y.T.3 % - = = = = = = = = = = = = = = = = = = = = = - = 6 @ C.aX/.~.|.~.~.~.~.~.~.~.~.~.~.~.~.~.~.~.~.~.~.~.`.!.!.aXC.@ , = = , , , , , = = = = = = = = = = = = = = = = < # ; E.aX~.~.~._.~.~.~.].~.~.^.~.~.!.>XR ~ [ [ [ [ [ [ [ [ [ [ [ [ | + O 4 6 = 4 % < - * * # 1 = = = = = = , , - * . f aX_.(.|.~.~.~.~.~.~.~.~.~.~.~.~.~.~.~.~.~.~.~.~.`.`.|.].: % - - = , = = = = = = = = = = = = = = = = = = % 8 - @ C.aX!.].]./._._.^.^.~.~.~.~.~.~.~.~.~.~.~.~.~.~.~.~.|.].C.@ > s % < * - = = = = = = = = = = = = , , , = = = - % ; E..X~.~.~.~.~.~.~.~.~.~.~.~.~.~.~.~.~.~././.~.~.~.~.~.aXg $ < 6 - = = = = = = = = = = = = = = = = = = , % 4 6 @ g aX/.).`.).~.~.^.^.^.~.~.~.~.~.~.~.~.~.~.~.~.~.~.~.~.~.~.",
"= = = = = = = = = = = = = = = = = = , , = = , = - 4 % ; D.sX). X X X X X|. X|.|.|.|.|.|.|.|. X X X X X XXX X|.pXR.; > < % < = = = = = = = = = = = = = = = = = = * * = # i ].pXsX X X X X X X X X X X X X|. X|.|._._._._._._._.~.sXg @ % = - < 2 = = = = , , = = - = = , = = = = , , * * @ d Y.P.P.P.P.P.P.P.P.P.P.I.I.I.I.P.P.P.Q.Q.Q.Q.Q.Q.Q.P.Y.D.i # < % 6 = = = = = = = = = = = = = = = = = = = * * * = = = = = = = = * * > , 2 2 > % * # ; T.Y.P.Q.P.P.P.G.(..XC.i > = * = = = * , 2 1 5 p < = * = - * * = * % * < 5 5 p 5 5 p s f f d s 5 5 5 5 p 5 1 , * = * * * = = * * * , = = = = = * = = = = = = = = = = = = = = = = - - < % - - $ d aX X`.XXXXXXXXXX X X X X X X|.|.|.|.|.|.|.|. X X`. XsXaX: % = = = = - - = , = = = = = = = = = = * * = = * = * ; R.pX|.). X}.|.|. X X{.Q.G.H.J.J.P.P.P.P.L.P.P.Q.Q.P.L.Y.V : - - = = = = = = = = = = = = = = = = = = = - - = > 2 i C.T.P.Q.Q.Q.J.P.I.U.D.Z.n.n.b.b.b.b.b.b.b.b.b.b.+Xb.#XZ.Z % , = = = = , , = = = = = = = = = = = = = = = = = = @ d T.Y.H.J.K.J.Q.P.P.P.P.P.P.P.P.Q.P.P.P.P.P.P.J.H.'.P.'.T.2 - = = = = = = = = = = = = = = = = - - - = = = = = # ; C.sX X X X). X X X X|. X|.|.|.|.|.|. X X X XXX XXX X XaXC.@ , , , , , = = = = = = = = = = = = = = = = = = = X % ; E.pX X X X).|. X X X X XpX XXXXXaX-XQ ~ [ [ [ [ [ ~ ~ ~ ~ [ ~ { O % & 3 3 $ & 3 2 6 4 % % = , = = = = > > * = $ g sXsXXXXX X X X X X X X X X X|.|.|.|.|. X X X X XXX X|.aXi > = = = = = = = = = = = = = = = = = = = = = = = 6 % ; D.sX`. X X XXXXX X|. X X X X X X X X X X X X X X`. XpXpXA.; > < % < * * = = = = = = = = , = = = = = = = % - = ; i ]. XXX X X X X|. X|.|.|.|.|.|.|. X|. X`.`.`.`.`.`.`.].aXg ; # = = < = = = = = = = = = = = = = = = = = < * % = @ g aX|. X X X XXXXXXXXX X|.|.|.|.|. X X|.|. X|.|.|.|. X X X",
"= = = = = = = = = = = = = = = = = = = = = = = = % % % i C.sX].pXpXsXsXsXsXsXsXsXsXsXsXsXsXsXsXsXpXpX X X X XpXaXC.i 2 , # 1 : , = = = = = = = = = = = = = = = = : > 1 i h E.]. X X X X XpXpXpXpXpXsXsXsXsXsXsXsXsXsXsXsXsXsXsXpXaXg > = - - * # = = = = = = = = = = = , = = = , , 2 * < 2 f T.T.Y.Q.Q.Q.Q.Q.Q.'.Q.Q.Q.Q.Q.Q.Q.Q.Q.Y.Y.Y.Y.Y.Y.Y.T.C.s 2 < & = # = = = = = = = = = = = = = = = = * * * * * = = = * * * = = = = = - - - - - < 2 i T.Y.Q.Q.Q.Q.Q.Q.S.C.g 3 * * * 5 , = - = , 2 1 1 * , , , , , 2 2 2 2 2 1 5 5 5 5 1 p p d d d p 1 < 1 5 5 1 < , = = = * = , , , , , < < = * = = * = = = = = = = = = = = = = = = = , * 1 > 2 2 ; h aXaX|. XpX X XsXpXsXsXsXsXsXsXsXsXsXsXsXsXsXsXpX|.aX|.E.i : % - = = - - = , = = = = = = = = = = * * = = * = = ; /.sX X XsX X X X X X}.'.I.Q.Q.Q.Q.Q.Q.Q.Q.Q.Q.Q.Q.Q.L.T.V.i 2 : = = = = = = = = = = = = = = = = = = = > , 2 2 i d C.T.L.Y.P.Y.L.Y.I.R.R.R.Z.Z.#X#XZ.Z.Z.Z.#X#X#XZ.Z.Z.A.A.Z : , , , , , > > = = = = = = = = = = = = = = = = = , : g D.I.P.Q.Q.!.Q.Q.Q.Q.Q.Q.Q.Q.Q.Q.Q.Q.Q.Q.Q.Q.Q.P.'.L.P.S.i 2 , = = = = = = = = = = = = = = = - - - = = = = , 5 i C.].].pXaXpXpXsXsXsXsXsXsXsXsXsXsXsXsXsXsXpX|.].|.|.].aXC.i , , , , , = = = = = = = = = = = = = = = = = = = 2 p h ].|.XXsXpX|.sXXX XXXXXpXpXpXpXdX1X-XR / ( [ [ [ [ [ [ [ ~ ~ P I u 7 O X X X 4 . # > , 6 , = = = = - * > > = 6 : g aXpXpXsXpXsXsXsXsXsXsXsXsXsXsXsXsXsXsXsX X X X X X XaXaXi : , 2 2 > > * = = = = = = = = = = = = = = = = * # % i C.sX|.pX|. X X X|.pXpXpXsXsXpXpXsXpXsXsXpXsXpXpXpXpXsXaXC.> , > % < % = = = , , = = = = = = = = = = = = * * < 1 h E.].|.pXsXsXsXsXsXsXsXsXsXsXsXsXsXsXsXsXsXpXpXpXpXpXaXaXg : 2 , * * % = = = = = = = = = = = = = = = = , > * 1 2 g ].]. X X X XpXpXpXpXsXsXsXsXsXsXsXsXsXsXsXsXsXsXsXsXsXsX",
"= = = = = = = = = = = = = = = = = = = = = = , , = % % @ ; : @ $ . . . . . . . . . . . . . . . . @ @ @ . @ @ @ @ 5 % < - - = X - = = = = = = = = = = = = = = = = < - - % . 2 $ $ @ @ @ @ @ @ @ @ . . . . . . . . . . . . . . . . 2 @ $ - - = 6 5 = = = = = = = = = , , = = - = = , , % % . . # @ @ . . . . . . . . . . . . . . . @ @ @ @ @ @ @ @ @ > . X - - 6 6 = = = = = = = = = = = = = = = = * * * * = = = = = = = = = = = = = = = = < 4 9 4 $ $ $ . X o o . ; 3 # & - = , < = = - - - = = 2 1 d f s s d d s s s s p 2 , , 6 2 1 5 p s p < = = = = , , = = * = = , , < 6 5 5 5 5 < , , , , = = = = = = = = = = = = = = = = = = = , * = - X < $ @ . . . . . @ . . . . . . . . . . . . . . . . @ $ ; i . * * , , , = = = , = = = = = = = = = = * * = = = , , % . $ . . . . . . $ % $ . . . . @ @ @ . . . . . . . $ . % - X - - = = = = = = = = = = = = = = = = - - - - - = - - . # @ @ # @ $ $ @ @ @ @ @ @ @ @ @ @ @ @ @ @ @ @ @ $ $ ; : > % = - = = = = = - - = = = = = = = = = = = = = = = = X X % $ . . . . . . . . . . . . . . . . . . . . . . . @ > 2 X - = = = = = = = = = = = = = = = = = = = = = = = = % . > : ; ; @ @ . . . . . . . . . . . . . . . . @ @ ; ; ; : : . = = = , , , , = = = = = = = = = = = = = = = = = X X   - . . . . . . . . . . o X @ @ .   o o o + E ~ ~ ~ [ ~ [ [ [ [ [ ~ ! ! ! ! ! U 0 % , & = $ = = = = * > > , = 4 . @ 2 @ @ @ . . . . . . . . . . . . . . . . @ @ . . @ @ @ @ % - - - = - - - = = = = = = = = = = = = = = = = = % X . # ; @ $ . @ @ @ @ @ @ @ . . . . . . . . . . . . . . . @ 5 # < , * = % = = = = = = = = = = = = = = = = = < , = % . 1 $ $ . . . . . . . . . . . . . . . . . @ @ @ @ @ @ @ > . . - - - 6 6 = = = = = = = = = = = = = = = = - - - - . . : @ @ @ @ @ @ @ @ . . . . . . . . . . . . . . . . . . . ",
"= = = = = = = = = = = = = = = = = = = = = = = = < = 4 = . . . . $ $ $ $ $ $ $ $ $ $ $ $ $ $ $ $ . . . . . . $ % . % = = , , % = = = = = = = = = = = = = = = = = = - - < % % . . . . . . . . . . $ $ $ $ $ $ $ $ $ $ $ $ $ $ $ $ @ % < 6 - % % * = = = = = = = = = , = = - - = = * = % 4 9 % & $ $ $ $ $ $ $ $ $ $ $ $ $ $ $ $ $ . . . . . $ $ $ . & % = = * : % = = = = = = = = = = = = = = = = * * * = = = = = = = = = = = = = = = , > 2 5 p p : : : * > , > # . . $ - < = * : = = - - - = = , p f g f f f f f d f f s : # = 6 6 1 5 5 5 5 , * * * * * * * * * * * * , 1 5 5 5 5 5 5 2 , , , = = = = = = = = = = = = = = = = = = - = * = = % - $ $ . X X X X $ $ $ $ $ $ $ $ $ $ $ $ $ $ $ $ $ . . . $ % 4 = = , , = = , , , , = = = = = = = = * * = = = = < * $ # # $ # # $ % @ $ $ $ $ # # # $ $ $ $ % % $ $ $ # $ $ # # 2 , = = = = = = = = = = = = = = = = = = = , , = = - = - . . . . X . & & $ $ $ $ $ $ $ $ $ $ $ $ $ $ $ $ $ @ @ & * = - - = = = = = = = = = = = = = = = = = = = = = = < = $ $ # * > > $ $ $ $ $ $ $ $ $ $ $ $ $ $ $ $ $ $ $ @ @ ; % = = = = = = = = = = = = = = = = = , , = = = = = - - - % . . $ . X . $ $ $ $ $ $ $ $ $ $ $ $ $ $ . . . X . . . - 6 - = = , , , , , = = = = = = = = = = = = = = = = 1 1 % * . $ $ $ & & . # * $ & . . o o     o o o F [ [ [ [ ~ ~ [ [ [ [ [ [ [ [ [ [ Q 7 . 9 3 9 = = - = = > > , , % 6 = & &   - 3 . $ $ $ $ $ $ $ $ $ $ $ $ $ $ $ . . . . . . X $ - * = = = > = = = = = = = = = = = = = = = = = = = - < = $ . . . . . . . . . . . $ $ $ $ $ $ $ $ $ $ $ $ $ $ $ # @ # , = , = % = = = = = = = = = = = = = = = = = = = = 6 X - . . $ $ $ $ $ $ $ $ $ $ $ $ $ $ $ $ . . . . . $ $ $ . & < 6 = % % * = = = = = = = = = = = = = = = = % = - 9 < % % . $ . . . . . . . $ $ $ $ $ $ $ $ $ $ $ $ $ $ $ $ $ $ ",
"= = = = = = = = = = = = = = = = , , , = = = - - - % = < > # > > # # # # # # # # # # # # # # # # # ; ; # $ # # ; # 2 : > 2 2 > * = = = = = = = = = = = = = = = = * * % 1 > ; ; ; # # # # # # $ $ # # # # # # # # # % # # % % # % # 2 < = = = = < = = = = = = = = = = = = - - = = * % % = 2 * $ # # # * # # # # # % % * # # # # # 3 : 3 : : : : : : : 1 1 < 1 2 2 = = = = = = = = = = = = = = = = * = = = = = * * = = = = = = = = - - = = < 6 6 6 % - - % - - - % & % % = = * > > = = - = = * = , 2 d f d d d d d d f f p : # , 5 5 5 5 5 5 5 2 > = = = = = = , , * * * , 1 5 5 5 5 5 1 2 , , , * = = = = = = = = = = = = = = = = , , 2 > , 2 > > $ # ; ; ; ; ; # # # # # # # # # # # # # # # # # > > # * - < - - = = = = , , , , = = = = = = = = = * = , * = < , & $ # $ $ # $ $ # # # * * * * * % % * * # # # : $ # $ $ * = = * = = = = = = = = = = = = = = = = = , , , , , > > 2 # $ # # # ; $ : : : : : : : : : : : : : : : > # # # # # > 1 , = = = > > > = = = = = = = = = = = = = = = = = = = = # % $ . & # # : # : : : : # : > : : : # : : > > * * # # , = = = = = = = = = = = = = = = = = = = = = = = = = = , > ; # : # % # # # # # # # # # # # # # # # # * > > > # $ % = = = = = = = = = = = = = = = = = = = = = = = = = % - & $ @ : : : $ $ $ > $ $ < o -   o O   o o + ~ ] [ [ [ [ [ [ [ ~ ~ ~ ~ ~ ~ [ ! I O . > & $ % = = = = = = = = = 5 2 # % . * . $ # # # # # # # # # # # # # # # # # ; # ; ; # # > > , , , > , , = = = = = = = = = = = = = = = = , * 2 1 > : 2 2 # # # # # $ $ $ # # # # # # # # # # # # # # # # % , * * < = = * = = = = = = = = , , = = = = - - % % % < * % # % # # # # # # # # # # # # # # # # : 3 ; ; 3 ; 3 3 ; 2 1 2 2 > > 2 = = = = = = = = = = = = = = = , > > * > > : ; ; # # # # ; ; ; ; # # # # # # # # # # # # # # # # # # ",
"= = = = = = = = = = = = = = = = = , = = = = - - - % * > # $ # $ > > > > > : : : > > > > > > > > # > * * * * * * % < % - = % - - = = = = = = = = = = = = = = = - - - X - = % > > * * * > > > * * > : : > > > > > ; ; ; ; : : : : # , % $ % % % * = = = = = = = = = = = = - = = = = * * , > : # # # # # # # # # # # # # # # # # # $ $ $ $ # $ $ $ & . - - X - % - = = = = = = = = = = = = = = = = = = = = = * * * * * * = = , < < < < 1 2 1 p p p 1 1 < 1 1 5 1 : : % % * % * < , = - = = = = = = 1 d d s d s s d p s s 1 2 1 5 1 5 < < < 1 1 2 , , , = = = = , , 2 2 2 < 1 5 5 5 5 5 5 1 2 2 , * = = = = = = = = = = = = = = = = = = - - - = - - $ * * * * * * * > > > > > : : : > > > > > > > : ; ; $ # * * - % - - * = > > = = = = = = = = = = = * = , * * , , > # > : # > # > # # # # # # $ $ # # # # # # # # # > # $ = < - = = = = = = = = = = = = = = = = = - - - - - - - - = $ % * % # > # $ $ $ $ $ $ $ $ & & & & $ $ $ $ $ $ # # $ * = % = = = > > > > , = = = = = = = = = = = = = = = = = , # > & @ # : # # $ # ; ; # # # # ; # # $ # # # # $ > # $ , % = = = = = = = = = = = = = = = = = = = = = = = > * > > : : ; ; # : : : > > > > > : : : : > > > : @ ; $ # > : # , = = = = = = = = = = = = = = = = = = = = = = = = % * < # ; i : > # # : >   8 A S A o   X o o O + w D w F ~ [ ~ [ [ [ [ [ [ [ [ [ ! Q D q v 0 O 6 = = = = = = = - & & % 7 j j x 7 : : : : : : : : > > > > > : : : # * > > * % % * = = = - - - - = = = = = = = = = = = = = = = = = - - % * $ % % $ > > > > * * * > > : : : : : : : : : : : : : : : * < % * = * < * = = = = = = = = = = = = = = - - - = % < 1 # > > : : : > > > > > : : : : > > > > # # # # # # # # $ - % X % - X - = = = = = = = = = = = = = = = = - - - - % % % # * * * * > > > > > > > > > > > > > : : : > > : : > > ",
"= = = = = = = = = = = = = = = = = = = = = = = = * , , = & & * # # # # # # $ $ $ # # # # # # # # $ # & & $ $ # # # < = < > ; 1 2 = = = = = = = = = = = = = = = = < < % < < $ # % $ $ # # ; ; # # $ $ $ $ # # # # # # # # # # # # # 2 2 > < < % = = = = = = = = = = = = = = = = = = % - < * * # $ # # # # # # # # # # # # # # # # # # # # # # : : > @ 2 2 # 1 2 , = = = = = = = = = = = = = = = = = = = = = * * % % % * = , < 6 5 1 1 5 1 5 s 5 5 5 5 6 6 5 5 6 < > # = 6 = < < % - - - = = = = = % 6 < = 6 < > 1 2 5 5 1 5 p 5 : = * % * = = = * = = = - - - * * 5 5 5 5 5 5 5 5 p p p 5 5 5 1 , = = = = = = = = = = = = = = = = * = * = = = < > $ # : ; ; ; # $ # # # # # $ $ $ # # # # # # # # > # & & = , , % > > > > * * - - = = = = = = = = = * = = * * = , # $ # $ $ > $ # # # $ # # # # # # : # # # # & & & & $ . # > * , = = = = = = = = = = = = = = = , 2 2 , , = , , 2 > # # # $ # : # # # # # # # # # # # # ; : ; ; ; : # > > # * < % = - = > > > > , = = = = = = = = = = = = = = = = , = @ # # @ # # # # $ & # # $ $ $ & # # $ $ $ # # # $ > # $ 5 * = = = = = = = = = = = = = = = = , , = = = = = = < = * * $ $ & & $ $ $ # # # # # $ $ $ $ # # # # # > $ @ # & % 1 = = , , , , 2 , = = = = = = = = = = = = = = = = = > 1 $ $ : $ $ X % : % o S g.g.MXu   o o o o o       + P [ [ [ ~ ~ [ [ ~ [ [ [ [ [ [ [ ] E O 2 > = = = , > = - 9 % O q / 1.o.u O $ $ $ $ $ $ $ # # # # # $ $ $ $ # # # # # $ # 2 2 , , = , , 2 = = = = = = = = = = = = = = = = * 2 , > % % * # # ; # ; ; ; ; # # $ $ $ # # # # $ $ # # $ $ $ $ % < = < * $ < , = = = = = = = = - - = = = , , , < < # 2 < $ % % % $ $ $ # # # # $ $ $ $ # # # # # # # # # # # # # 2 2 , 1 1 * , = = = = = = = = = = = = = = = = * * < < > > # $ # % & & # # # # $ # # # # # # # # $ $ $ # $ $ $ # # ",
"= = = = = = = = = = = = = = = = = = = = = = = = = = = = * # # # # # # # # # # # # # # # # # # # # # # # # # # # * > = = * = , = = = = = = = = = = = = = = = = = = * = = * # % # # # # # # # # # # # # # # # # # # # # # # # # # # > , = * = = = = = = = = = = = = = = = = = , , , = * * % % % # > & . . 3 3 p @ # > 3 ; # # # # # # # # # # # # # # * , = = * * = = = = = = = = = = = = = = = = = = = = = * * $ # # > 2 2 1 5 < 1 5 p 5 1 1 5 5 p p p 5 5 5 5 2 * * * * * = = * = = = = = = = , , 5 s s 5 5 5 p 5 5 5 5 5 6 < , * = = * * = = = * = 6 = = = = % , 1 5 5 5 5 5 5 < 5 5 5 5 5 5 2 > * = , , , , , , , = = = , , , = = = = = = = > # # # # # # # # # # # # # # # # # # # # # # # # # # # # * = = = = = = = = = = = = = = = = = = = = = = = = = = , # # # # # # # # # # # # # # # # # # # # # # # # # # # # # , = = = = = = = = = = = = = = = = = = = = = = = = = = , & # # # # : # # # # # # # # # # # # # # # # # # # # # # * = * = = = = = = = = = = = = = = = = = = = = = = = = < < # 2 @ $ $ @ $ @ : : # # % # # # # # # # # # # # : # # # * , = = = = = = = = = = = = = = = = = = = = = = = = , * # # # # # # # # # # # # # # # # # # # # # # # # # # # # % = = = = = = = = = = = = = = = = = = = = = = = = = - = > : ; # & & i @ > . $ e g.g.g.o o o o o o o o o o + &.~ [ [ [ [ [ [ [ [ [ ~ [ [ ~ ~ ^ D O = = > > > , 5 6 = & & . 0 Q ~ $.u X # # $ # # # # # # # # # # # # # # # # # # # # = = = = = = = = = = = = = = = = = = = = = = = = = = , = * # # # # # # # # # # # # # # # # # # # # # # # # # # # * = = = * = = = = = = = = = = = = = = = = = = = = * = , * # # # # # # # # # # # # # # # # # # # # # # # # # # # # > , = * = = = = = = = = = = = = = = = = = = = = = = = = * % # # # # # # # # # # # # # # # # # # # # # # # # # # # ",
"= = = = = = = = = = = = = = = = = = = = = = = = = = = = * # # # # # # # # # # # # # # # # # # # # # # # # # # # * = = = * = , , = = = = = = = = = = = = = = = = = * = = * # % # # # # # # # # # # # # # # # # # # # # # # # # # # > , = - = = = = = = = = = = = = = = = = = = , * = = = < = # : @ # % X $ @ 3 # $ & : # # $ $ # # # # # # # # # # # * , = = * * = = = = = = = = = = = = = = = = = = = = = * * $ # # > > > 2 5 < 1 5 5 5 5 5 p p 5 p 5 1 1 5 1 , = = = = , , = * = = = = = = = = = < 5 5 1 5 5 5 p 5 5 5 5 5 < , = = = * * = = = * = = = = , , , > 2 5 5 p p p p 1 5 5 5 5 5 1 , * * = = = = = = = = = = = = = = = = = = = = = > # # # # # # # # # # # # # # # # # # # # # # # # # # # & * = = = = = = = = = = = = = = = = = = = = = = = = = = , # # # # # # # # # # # # # # # # # # # # # # # # # # # # # , = = = = = = = = = = = = = = = = = = = = = = = = = = , & # # $ # : # # # # # # # # # # # # # # # # # # # # # # * = * = = = = = = = = = = = = = = = = = = = = = = = = & & @ # . % O o 6 . @ # $ 3 3 3 # # # # # # # # # # : # # # * , = = = = = = = = = = = = = = = = = = = = = = = = , * # # # # # # # # # # # # # # # # # # # # # # # # # # # # % = = = = = = = = = = = = = = = = = = = = = = = = = = = * # ; ; # 3 ; @ 4 o o S MXg.g.+ o o o   o + o o   + &.[ [ [ [ [ [ [ [ ~ [ ~ [ [ ~ ~ Q w O % . . . & & & 3 & & - O q Y Q :.u X # # $ # # # # # # # # # # # # # # # # # # # # = = = = = = = = = = = = = = = = = = = = = = = = = = , = * # # # # # # # # # # # # # # # # # # # # # # # # # # # * = = = * = = = = = = = = = = = = = = = = = = = = * = , * # # # # # # # # # # # # # # # # # # # # # # # # # # # # > , = = = = = = = = = = = = = = = = = = = = = = = = = = * % # # # # # # # # # # # # # # # # # # # # # # # # # # # ",
"= = = = = = = = = = = = = = = = = = = = = = = = = = = = * # # # # # # # # # # # # # # # # # # # # # # # # # % % * = = = * = , = = = = = = = = = = = = = = = = = = * = = * # % # # # # # # # # # # # # # # # # # # # # # # # # # # > , = - = = = = = = = = = = = = = = - = = = = , 4 % % 4 % # % O J <. .T 7 % % $ % # # # # # # # # # # # # # # # * * , = = = * = = = = = = = = = = = = = = = = = = = = = * * $ # $ # : # > < , , , , , < 5 5 5 5 5 5 1 < < , * = = , < < < , * * * * * = = = = * = , 2 < 5 5 5 p p 5 5 5 5 1 1 < < < = * = = = = = = = = 6 5 1 s d d d d d d d 1 p 5 1 2 , , , = = = = * * * * * * * * = = = = , , = = = = = > # # # # # # # # # # # # # # # # # # # # # # # # : # # # * = = = = = = = = = = = = = = = = = = = = = = = = = = , # # # # # # # # # # # # # # # # # # # # # # # # # # # # # , = = = = = = = = = = = = = = = = = = = = = = = = = = , & # # # # : # # # # # # # # # # # # # # # # # # # # # # * = * = = = = = = = = = = = = = = = = = = = = = = = = 6 = $ % 7 T 4X4XJ 7 % % $ $ # $ # # # # # # # # # # # # # # * , = = = = = = = = = = = = = = = = = = = = = = = = , * * % # # # # # # # # # # # # # # # # # # # # # # # # # # % = = = = = = = = = = = = = = = = = = = = = = = = = = , > % # # # # % o h.g.g.g.g.g.g.h.h.h.h.o o o o o o + P F F F F F F ~ ~ ~ [ [ [ [ [ [ [ [ Y ~ ! F F E q 7 O + I Q ~ ~ [ ~ ^ u X # # # # # # # # # # # # # # # # # # # # # % % = = = = = = = = = = = = = = = = = = = = = = = = = = , = * # # # # # # # # # # # # # # # # # # # # # # # # # # # * = = = * = = = = = = = = = = = = = = = = = = = = * = , * # # # # # # # # # # # # # # # # # # # # # # # # # # # # > , = = = = = = = = = = = = = = = = = = = = = = = = = = * # # # # # # # # # # # # # # # # # # # # # # # # # # # # ",
"= = = = = = = = = = = = = = = = = = = = = = = = = = = = * # # # # # # # # # # # # # # # # # # # # # # # # # % % * = = = * = , = = = = = = = = = = = = = = = = = = * = = * # % # # # # # # # # # # # # # # # # # # # # # # # # # # > , = * = = = = = = = = = = = = , = = = = - - * , % 4 5 * # % + | 7X3.| + X % # $ : : # # ; ; # # # # # # # # # # * , = = * * = = = = = = = = = = = = = = = = = = = = = * * $ # $ # # # > 2 > * * * * , 5 5 1 5 5 5 < , , * * = = < 6 5 1 2 > * * = = = = * * * * * * < 5 5 5 p p 5 5 5 5 1 1 1 5 < , * = = * = = * * = < 5 5 s d d d d d d d p p 5 2 * * = = = = = = * * * * * * * = = = = = , , = = = = = > % # # # # # # # # # # # # # # # # # # # # # # # : # # # * = = = = = = = = = = = = = = = = = = = = = = = = = = , # # # # # # # # # # # # # # # # # # # # # # # # # # # # # , = = = = = = = = = = = = = = = = = = = = = = = = = = = & # # # # : # # # # # # # # # # # # # # # # # # # # # # * = * = = = = = = = = = = = = = = = = = = = = = = = = 6 = % X + R 6X6X| u X , # # > % # # # # # # # # # # : # % # * , = = = = = = = = = = = = = = = = = = = = = = = = , * # % # # # # # # # # # # # # # # # # # # # # # # # # # # % = = = = = = = = = = = = = = = = = = = = = = = = = = , > # $ # # : . o g.g.g.g.g.g.g.h.h.g.h.o o O o X o + F F F F F F F [ ~ [ [ [ ~ ~ ~ [ [ [ [ [ [ F F Y q O X + Q ] [ [ [ ~ | u X # # # # # # # # # # # # # # # # # # # # # % % = = = = = = = = = = = = = = = = = = = = = = = = = = , = * # # # # # # # # # # # # # # # # # # # # # # # # # # # * = = = * = = = = = = = = = = = = = = = = = = = = * = , * # # # # # # # # # # # # # # # # # # # # # # # # # # # # > , = * = = = = = = = = = = = = = = = = = = = = = = = = * # # # # # # # # # # # # # # # # # # # # # # # # # # # # ",
"= = = = = = = = = = = = = = = = = = = = = = = = = = = = * # # # # # # # # # # # # # # # # # # # # # # # # # # % * = = = * = , = = = = = = = = = = = = = = = = = = * = = * # % # # # # # # # # # # # # # # # # # # # # # # # # # # > , = * = = = = = = = = = = = = = = = = = * & & > * 2 3 @ $   o T :./ J O X > 3 $ # : # # # # # # # # # # # # # # * , = = - - = = = = = = = = = = = = = = = = = = = = , > # $ # # # # # # , * = = * = < 5 8 5 5 5 5 < = = * * * = < 5 5 5 2 , , , = = = = * * * = = = < 5 5 5 5 5 5 5 5 5 5 5 5 5 < , * = = * * * * > > 2 1 2 p d d d d f f f i 1 5 2 * * - = = = * * * * = = * = = = = = = * = = = = = = = > % % # # # # # # # # # # # # # # # # # # # # # # # # # # * = = = = = = = = = = = = = = = = = = = = = = = = = = , # # # # # # # # # # # # # # # # # # # # # # # # # # # # # > = = = = = = = = = = = = = = = = = = = = = = = = = = = % # # # # : # # # # # # # # # # # # # # # # # # # # # # * = * = = = = = = = = = = = = = = = = = = = = = = = = $ $ # . O K :.:.J o . 3 @ $ 3 3 ; # # # # # # # # # # # % # * , = = = = = = = = = = = = = = = = = = = = = = = = , * # # # # # # # # # # # # # # # # # # # # # # : # # # # # % , = = = = = = = = = = = = = = = = = = = = = = = = = = > # # # & 3 #   g.g.g.g.g.g.g.g.h.g.h.o o o       + F 8.~ ~ [ ~ F [ ~ [ [ [ [ [ [ [ ~ ~ [ ~ ! F F E e % X O Y [ [ [ [ ~ #.u X # # # # # $ # # # # # # # # # # # # # # # # % = = = = = = = = = = = = = = = = = = = = = = = = = = , = * # # # # # # # # # # # # # # # # # # # # # # # # # # # * = = * * = = = = = = = = = = = = = = = = = = = = * = = * # # # # # # # # # # # # # # # # # # # # # # # # # # # # > , = * = = = = = = = = = = = = = = = = = = = = = = = = * # # # # # # # # # # # # # # # # # # # # # # # # # # # # ",
"= = = = = = = = = = = = = = = = = = = = = = = = = = = = * # # # # # # # # # # # # # # # # # # # # # # # # # # # * = = = * = , = = = = = = = = = = = = = = = = = - * = = * # % # # # # # # # # # # # # # # # # # # # # # # # # # # > = = * = = = = = = = = = = = = = = = = = - - - = * , $ 4 l q u  .5.5. .u 0 k = $ $ : % % # $ # # # # # # # # # # * , = = - - = = = = = = = = = = = = = = = = = = = = , > # $ # # # # # # > # * * = = , 1 1 < 5 5 5 < = * = = * = < 5 5 5 1 2 < 1 < < < = = * = , < , < < 5 1 5 5 5 5 5 5 p 5 5 5 < , * = = * > 1 5 p p p p p d f f d s s s s 2 1 < , * = = = , = * * * , , < , < < < < , = * = = = = = = = > % % # # # # # # # # # # # # # # # # # # # # # # # # # # * = = - = = = = = = = = = = = = = = = = = = = = = = = , # # # # # # # # # # # # # # # # # # # # # # # # # # # # # > = = = = = = = = = = = = = = = = = = = = = = = = = = = % # # # # # # # # # # # # # # # # # # # # # # # # # # # * = * = = = = = = = = = = = = = = = = = = = = = = = = % 4 k 0 u  .4.5. .0 q k 4 @ # $ # # # # # # # # : # # # % # * , = = = = = = = = = = = = = = = = = = = = = = = = , * # # # # # # # # # # # # # # # # # # # # # # : # # # # # % , = = = = = = = = = = = = = = = = = = = = = = = = - = > # $ $ & &     g.g.g.g.h.g.g.{ S h.S o o   u u u w w w w w w w F ! ~ [ ~ ~ ~ ~ ~ [ ~ ~ ~ ~ ~ F F F D q u u ~ [ [ ~ ~ P | u % # # # # # $ # # # # # # # # # # # # # # # # # = = = = = = = = = = = = = = = = = = = = = = = = = = , = * # # # # # # # # # # # # # # # # # # # # # # # # # # # * = = = * = = = = = = = = = = = = = = = = = = = = * = = * # # # # # # # # # # # # # # # # # # # # # # # # # # # # > = = * = = = = = = = = = = = = = = = = = = = = = = = = * # # # # # # # # # # # # # # # # # # # # # # # # # # # # ",
"= = = = = = = = = = = = = = = = = = = = = = = = = = = = * # # # # # # # # # # # # # # # # # # # # # # # # # # # * = = = * = , = = = = = = = = = = = = = = = = = = * = = * # % # # # # # # # # # # # # # # # # # # # # # # # # # # : = = * = = = = = = = = = = = = - * = = = = = , = = 7 O l qX,.X.jXlXlXjXX.3.9X0 % % * % # # # # # # # # # # # # # * , = = - - = = = = = = = = = = = = = = = = = = = = , * & $ # $ : : # # * # % * * * * > > : 1 5 5 < * * = = * * , 1 5 5 5 1 5 5 5 5 < , = * , 1 5 1 2 2 2 , 5 5 5 5 5 5 5 5 5 5 < > * * , > 2 s s d d d d d d d d s p 1 2 * * = = - = = = = , , > > , , < 1 1 5 5 5 1 < , > = = = = = = * > % # # # # # # # # # # # # # # # # # # # # # # # # # # # * = = - = = = = = = = = = = = = = = = = = = = = = = = , # # # # # # # # # # # # # # # # # # # # # # # # # # # # # > = = = = = = = = = = = = = = = = = = = = = = = = = = = & # # # # # # # # # # # # # # # # # # # # # # # : # # # * = * = = = = = = = = = = = = = = = = = = = = = = = = O e 4X3.O.lXjXlXkXX.,.4Xe O 4 % # # # # # # # # : : # # # # * , = = = = = = = = = = = = = = = = = = = = = = = = , * # # # # # # # # # # # # # # # # # # # # # # # # # # # # % , = = = = = = = = = = = = = = = = = = = = = = = = - = > # # # # # #   g.g.g.h.h.h.s.o   @ @ @ > 7 R ] ] Y 7 % . & . o u | ~ [ F F F F F F F F F F F F F 8.~ [ ] [ [ [ [ [ [ ~ #.u % # # $ # # # # # # # # # # # # # # # # # # # # = = = = = = = = = = = = = = = = = = = = = = = = = = , = * # # # # # # # # # # # # # # # # # # # # # # # # # # # * = = = * = = = = = = = = = = = = = = = = = = = = * = = * # # # # # # # # # # # # # # # # # # # # # # # # # # # # > = = * = = = = = = = = = = = = = = = = = = = = = = = = * % # # # # # # # # # # # # # # # # # # # # # # # # # # # ",
"= = = = = = = = = = = = = = = = = = = = = = = = = = = = * # # # # # # # # # # # # # # # # # # # # # # # # # # # * = = = * = , = = = = = = = = = = = = = = = = = = * = = * # % # # # # # # # # # # # # # # # # # # # # # # # # # # * = = * = = = = = = = = = = = = = * = = = = = = * , <   e ,.o.P t.u.jXt.P >.4X0 % $ # % $ # # # # # # # # # # # # * , = = - - = = = = = = = = = = = = = = = = = = = = , > * $ $ $ # : # # % $ % * < , , > > : 1 5 5 2 * * = = * = , 1 5 p p p 5 p 5 5 6 < = * 2 5 p 5 2 > * : 5 5 5 5 5 5 5 5 5 5 < * * * , > # 5 d f f f f f d d f d s s 8 5 % % % % = = = * , , > > 2 < 1 5 5 5 5 5 5 1 2 > = = = = = = = > # # # # # # # # # # # # # # # # # # # # # # # # # # # # * = = - = = = = = = = = = = = = = = = = = = = = = = = , # # # # # # # # # # # # # # # # # # # # # # # # # # # # # > = = = = = = = = = = = = = = = = = = = = = = = = = = , & # # # # : # # # # # # # # # # # # # # # # # # : # # # * = * = = = = = = = = = = = = = = = = = = = = = = = = % 0 4X=.8.t.e.u.6.~ 2.4X0 . 3 3 # # # # # # # # : : # # # # * , = = = = = = = = = = = = = = = = = = = = = = = = , * # # # # : # # # # # # # # # # # # # # # # # # # # # # # % , = = = = = = = = = = = = = = = = = = = = = = = = * = = % % # # # $   g.g.g.g.h.h.g.o   i : , % o Y [ [ Y O ; * > 2 7 u / ~ [ F F F F F F F F F F F Y F F 8.[ [ ~ ~ ~ ~ ~ [ ~ :.u % # # $ # # # # # # # # # # # # # # # # # # # # = = = = = = = = = = = = = = = = = = = = = = = = = = , = * # # # # # # # # # # # # # # # # # # # # # # # # # # # * = = = * = = = = = = = = = = = = = = = = = = = = * = = * # # # # # # # # # # # # # # # # # # # # # # # # # # # # > = = * = = = = = = = = = = = = = = = = = = = = = = = = * % # # # # # # # # # # # # # # # # # # # # # # # # # # # ",
"= = = = = = = = = = = = = = = = = = = = , , , = , < 4   $ .                                               . . . -   9 - * = < = = = = = = = = = = = = = = = = = 2 * & -   - . .                                               . # $ & - = = = = = , , * = < = = = - = = > , % = > @ 6 % % 0 :./ P 6.u.lXtXP o.;.7   o     . . . @ @ @ @ . . . @ $ . @ . X X @ i > = = = = = = = = = = = = = = = , 5 , % -   > @ .   .             . @ # - o 9 = 5 1 1 2 = - > 2 = * , 5 5 5 5 5 5 5 5 5 < , , , 2 5 8 5 < 2 2 2 5 5 5 5 1 1 5 5 5 s 6 = % % = * > p d d f f d d f d d d s p 5 5 , , , = = * * * - % * , = , 5 5 5 5 5 < 2 > > # > * * , # 6   - X .                                                 . >   4 = , = = = = = = = = = = = = = = = = , , = = % = - &   o                               o     .       . . . $ X   < = = = = = = = = = = = = = = = = = = = , , , = - -   = . .                                               . % . & - & - = = = = = = 2 > # * - % - = = - 4 % 9 . < X X 0 | P W tXjXjXkXP o.;.0 .     . . . $ o   . @ @ . . # . . & .   X @ p * % = % , , = = - = = , , , = = = = = = 4   % $                                                     - . - = = = = = = = = = = = = = = = = = = = = = = = % 9   X           o g.g.g.g.h.h.h.+       .   o F [ [ F +   & . * o u U ] [ [ ~ ~ F ~ F F F F F F F F F 8.[ [ [ [ [ [ [ [ ~ 8.u o                                           . . X X = , = = * = = = = = = = = = = = = = = = = = , = -   $ .               .                                   . > @ 5 * * * , = = = = = = = = = = = = = = = , , < * % -   -   .                                                 % . - 8 , > , % = = = = = = = = = = = = = = = = > 1 , < X o % .                                                     ",
"= = = = = = = = = = = = = = = = , = = = = = = = : # , : C./././.!.!.!.!.!.!.!.!.!.!.!.!.!.!.!.!.~.~./././.!.E.E.V : 1 > , > * % = = = = = = = = = = = = = = = = # * # p i R.R.~.!.!.!.!.!.(.!.!.!.!.!.!.!.!.!.!.!.!.!.!.!.!.!.R.E.f * - * % - - = > * & & - * : , , , > > > * - % 7 { } } O.jXq.q.a.9.y.6.U ` 4XZ.M.G.D.D.D.C.2XhXd.d.w.w.w.i.i.d.i.u.kXlX{ O % = = = = = = = = = = = = = = = = = , , = 6 : V.k.D.D.S.S.L.S.G.G.S.L.S.D.g : 2 2 1 1 2 2 - - - = = * , 5 5 5 5 5 5 5 5 5 < 2 , > , 1 5 5 1 1 1 1 , 2 2 2 2 2 1 5 2 5 , = = , s s p d d d f d d d s p p p < , , , * = = = = = * * = * , 5 1 1 5 p 1 5 5 5 s s d d s 1 1 p 2 p # h ]./././.~./.~.~.!.!.!.!.!.!.!.!.!.!.!.!.!.!.!.!.E.].!.R.i , % > = = = = = = = = = = = = = = = = , = = = * = - ; D.].!.!.~.!.!.!.!.!.!.!.!.!.!.~./.!.G.S.P.G.L.G.S.S.M.D.g i p 2 , = = = = = = = = = = = = = = = - - = = = = = : s E.R.E.R././.].!.!.!.!.!.!.!.!.!.!.!.!.!.!.!.!.!.!.!.R.E.g : > * * * * * * & * % % * = - - , 2 3 * = % 6 7  .$.| <.lXq.q.y.r.a.6.8.o.4Xn.M.M.M.D.C.l.1XhX0.i.w.w.w.w.a.i.e.i.0.vX..% 6 , = < % , , - - = = = = = = = = - = = = = # C..XR.]././.!.!.!.!.!.!.!.!.~././.!.!.!.!.!./.]./.].].E.C.i 2 , , , , , , , , , , , , , , , , , = , = , , , % : h R./.(.}.`.!.A MXg.g.hXA.].aXD.R._._.`.~.~./.dXdXdXY.Y.dXk.3 & o + + + + o + + P ~ [ [ [ [ [ [ [ ~ [ [ ! @.u 7 7 V 2XE.aXT.!.!.!.!.!.!.~.~.!.!.!.!.!.!.!.!.!./././.E.E.E.E.; % = , = - - = = = = = = = = = = = = = = = = , > : > : C./..X/.!.!.!.!.(.!.!.!.!.!.!.!.!.!.!.!.~.~.~.~.~.!.!.].V ; 1 * * * * % = = = = = = = , , , = = = = = , % : > p h R.R./.!.!.!.!.!.!.!.!.!.!.!.!.!.!.!.!.~.~.~.~.!.!.!.E.E.g : : : 2 1 2 = = = = = = = = = = = = = = = = , 2 : 2 2 g ].).!.!.!.(.!.!.!.!.!.!.!.!.!.!.!.!.!.!.!.!.!.!.!.!.!.!.",
"= = = = = = = = = = = = = = = = , , = = = = - - = * % ; R.sXsXsXsXsXsXsXsXsXsXsXsXsXsXsXsXsXsXsXsXsXsXsXsXXXpXaXC.; * = = % = % = = = = = = = = = = = = = = = = - - % # i aXaX XsXsXsXsXsXsXsXsXsXsXsXsXsXsXsXsXsXsXsXsXsXsXsXpXIXV ; , 6 , 1 , 5 5 2 1 < < 5 5 , , = = , > & 3 : 7 ,.3.1.5.zXp.u.u.w.a.t.O.! 4XR.Y.P.Q.'.D.k.gXxXp.a.a.a.a.a.a.p.a.y.u.zX{   2 = = = = = = = = = = = = = = = = - - - * , : k.!.Q.Q.Q.Q.Q.Q.Q.Q.Q.Q.Q.!.g $ > < = = = > * * - = = * , 5 5 5 5 5 5 5 5 5 1 < , * , < 5 5 5 5 5 5 % : * * * * 2 1 5 p 2 > > 2 s f d f d d f f d f p 1 1 1 2 > = * * * * = = = = * = * < p 5 5 p p 5 5 1 1 p d f f s 1 < 6 * < # f sXsXsXsXsXsXsXsXsXsXsXsXsXsXsXsXsXsXsXsXsXsXsXsXsXsXsXpXi % % , = = = = = = , , = = = = = = = = = = = = = = - $ E.sXsXpXsXsXsXsXsXsXsXsXsXsXsXsXsXXX'.Q.Q.Q.Q.Q.Q.'.Q.Y.V : * % = = = = = = = = = = = = = = = = - - = = = = = : i ].sXsXXXsXsXsXsXsXsXsXsXsXsXsXsXsXsXsXsXsXsXsXsXXXXXsXaXg ; = < < - < < < < < 6 < < < = = % % * > < * < O :.3.o.7.lXy.r.w.w.u.kX~ o.4XZ.Y.Y.Y.J.P.C.gXcXlXa.a.p.p.a.a.r.a.y.a.zX{ o % < 9 , = = = = = = = = = = = = = - - = = = ; R.sXsXsXsXsXsXsXsXsXsXsXsXsXsXsXsXsXpXpXpXpX X X`.`.XXsXT.@ = - - - - % % * * * * * * * * * * * * * * * * * 6 $ i aXaX].`.XXsXA.f.g.g.h.C.oX(.(.XXsXpXdX|.}.{.[.(.[.{.sXaXg @ = X             + Q [ [ [ [ [ [ [ [ [ [ [ [ | O @ @ g  XoXXXXXsXsXsXsXsXsXsXsXsXsXsXsXsXsXsXsXsXsXsXsXsXsXsXaX; % = = - * * = = = = = = = = = = = = = = = = = - - X $ T.sXsXXXsXsXsXsXsXsX XpXsXsXsXsXsXsXsXsXsXsXsXsXsXsXsXsXC.; > , = * = * = = = = = = = , , , , = = = = = = < * ; i aXpX XsXsXsXsXsXsXsXsXsXsXsXsXsXsXsXsXsXsXsXsXsXsXsXpXIXg @ % < - - - = = = = = = = = = = = = = = = = - - = * $ g aXsXsXsXsXsXsXsXsXsXsXsXsXsXsXsXsXsXsXsXsXsXsXsXsXsXsXsX",
"= = = = = = = = = = = = = = = = = = = = , , = = = 6 % @ C.pX/.~./././././././.~./././././././.~.!./.!.!.).(.~.].C.@ , 6 > : < 2 = = = = = = = = = = = = = = = = < 5 < ; ; E.].!././././././.!./././././././././././././././././. Xg @ # & $ & . . . . @ . . & @ & - = = = = = > : X | ) Y X.jXw.p.r.a.lX6.Q ~ ;Xc.M.M.J.K.U.k.gXhXe.i.i.i.i.i.i.9.a.y.zXNX..  2 = = = = = = = = = = = = = = = = - - - - * @ V.Y.S.S.S.S.S.S.S.S.L.S.L.T.d . $ % - - - * * > , 2 = * , 5 5 5 5 5 5 5 5 5 1 < , > , 1 5 5 5 5 5 5 * * , = * = , < 8 s 2 , # > s d f f d d f d d f s s 5 5 , = = * * * * = , , = * * * < p 5 5 p p p p p 1 p s d f s i 1 p > > @ f pX`.!.).(.!./././././././././././././././././.~.!.!. X].; X < = = = = , = = = = = = = = = = = = = * = = = = - @ C.]./.!.]././.~./././././././.~.|.).L.S.G.S.L.S.S.G.S.Y.g ; # 2 = = = = = = = = = = = = = = = = = = , = = = = > ; E.].!.~.~.!.!././././././././././././././././.^./.~.~.].h @ $ . @ @ @ @ @ @ @ @ . $ @ & , 6 = % = = > , O U ! Y ;.jXr.r.w.y.lX6.X.Q R c.j.OXOXJ.D.V 1XhXi.9.q.i.i.i.i.w.a.w.s.nX..o - * 3 * , = = - - > , = = = = = = = = = = < @ C.aXI.R./.~.~.~.~.~.~.~.~.~.~.~./.~././././.~.~.sX XsXsXC.@ , = = = , 2 , 2 , = = = = = = = = = = = = = = = 9 . i ].sXsXsXsXpX2Xf.g.g.s.E.sXsXsXsXXXXXsXsXsXsXsXsXsXsXsXsXg ; 6 4 o o o o o o u ) ] [ [ [ ~ [ [ [ [ [ [ [ =.u 7 . f aXdXdXdX~./././././././././././././././.!./.!.~.!.(.).E.# % = = = = > 2 = = = = = = = = = = = = = = = = = 6 % @ C.pX/.~.~.~././.~.~.!.!././././././././.!.!.!./.~.!.~.].C.@ , 5 * % < , = = = = = = = = = = = , , , , = < 6 < $ ; E.].R././././././././.~./././././././.R././.~.~.~.(.!.aXh @ , 6 = = * = = = = = = = = = = = = = = = = % * < 5 . f aX!./././.~././.~.~.~./././././././././././././././././.",
"= = = = = = = = = = = = = = = = = = = = , 2 , = % 5 6 @ D.sX_. X).).).).).).`.`.).).).`.`.`.).).~.].].|. X`. XaXC.@ 6 6 % % 2 * = = = = = = = = = = = = = = = = : > < : i aXaX~.^.^.~._.).).`.`.).).`.`.).).).).).).).).`.`.).~..Xg a e 0 7 e 0 e 0 0 e e e k 4 % & & & = = = = , o 4.6.O.5.u.e.y.9.6.6.5.;.;.4.#XA.A.E.M.P.k.1XxXr.r.r.y.y.y.y.r.a.+.4.0.N X 6 = = = = = = = = = = = = = = = = * * - = = @ V.Y.L.L.P.J.L.L.L.L.L.S.G.S.g h g d * - - - * * , 2 = * , 5 5 5 5 5 5 5 < < < < < , 1 5 5 5 < 5 5 < < < < , = * = < < < , < > 2 d d d d d d d s p s s 1 < < = * * % = * * = < < , * * * < 5 5 1 5 1 1 5 5 p p s f f s 1 p s , > @ f aX X).|.|.].|._.).).).).).).).).).).).).).).).). X). XaX; % < # , , , , , = = = = = = = = = = = = * = = = < - @ T.pX|.~.|.).).|.).).).).).).).`.`.`.P.J.P.H.L.L.P.H.G.Y.V ; > 2 = = = = = = = = = = = = = = = = , , , = = = % > i aX].~.|. X).|.).).).`.`.).).).).).).`.`.`.).).).}.{.~.aXk.a k k e k k k e e e e e k 7 X - < , & * & * > O <.5.O.5.u.r.u.q.6.t.5.5.;.<.&XZ.2XE.D.D.k.1XxXe.r.p.a.p.a.r.p.a.} ..0.S X = * , * = = = * > > , = = = = = = = = = = 6 @ C.sX/.].].|.).`.`.`.`.`.`.`.|.|.|.|.|.|.|.|.~.~.aXD.D.C.V : > * > > > > * * * * * * * * * * * * * * * * * * < % i C.T.R.T.R.D.A.gXh.h.h.A R.A.R.C.C.T.R.T.T.D.D.D.R.C.D.R.g # 4 X o o o o o o + G E F ~ [ [ [ [ [ [ ~ F F L 7 4 . f aX/.!.].).).).).).).`.`.).).).).).).).).).].].].].|.|.aX; % = , = , = , = = = = = = = = = = = = = = = = % 6 6 $ D.sX~. X_._.^.^.`.`.`.`.).).).).).).).).`.}.`.}. X`. XaXC.@ 1 5 % % = * = = = = = = = = = = = = , , , , * * < # i aXpX).).).`.`.).).).).).).).).).).).).~.~.).`.).).`.).aXg $ = = * 2 , = = = = = = = = = = = = = = = = > > , 5 . f aX!.~.~.~.).~.).`.`.).).).).).).`.`.).).).).).).).).).).",
"= = = = = = = = = = = = = = = = = = = = , , = - % - < @ C.sX!.~.).~.~.~.~.~.).).~.~.~.~.~.~.~.~.~.~./.~.).).].aXC.. = - % < < * = = = = = = = = = = = = = = = = - & - * ; E.].~.~.).~.~.~.~.~.~.~.).).).~.~.~.~.~.~.~.~.).)._.dX1XiX6X3.3.3.3.3.2.2.2.3.] 1.3.I O : * , = = - - - o hXlXu.y.a.e.jXO.Q Q +.u.p.p.p.s.s.hXA T.k.gXhXw.e.r.r.e.e.e.lX0.+ o X X $ 2 , = = = = = = = = = = = = = = = > > % - - $ V.Y.S.G.G.G.G.G.G.G.Y.H.Q.Q.Y.Y.!.Y.: * = = = = = = = * , 5 5 5 5 5 5 1 , , < 1 1 1 5 5 5 1 1 5 5 < 6 5 6 < = * * = = = , 8 1 1 d d d d d d d 1 * * < * * = * * = = = = = < 5 5 < * = * < 8 5 5 5 5 < 5 5 p s s d d s < 5 s , = . d aX|./.~./.~.^.~.~.~.~.~.).).~.~.~.~.~.).~.~.~._.`.!. X].; X < * = = = , , , = = = = = = = = = = = * = = = < - @ D.|.~./.~./.~.~.~.~.~.~.~.~.~.~.~.~.L.S.H.S.S.S.H.K.S.Y.V # $ - - = = = = = = = = = = = = = = = = = , = = = * > ; E./.~. X`.).}.~.~.~.~.~.~.~.~.~.~.~.~.~.~.~.~.~._._.dX1X<X4X3.2.1.2.2.2.1.1.1.2.,.6XL 7 % * , % < % , - o hXlXa.y.e.u.jXX.P P 4.jXy.p.p.w.p.hXk.G.k.gXxXw.e.r.e.i.e.9.e.0.+ X X X . 1 = 6 = = = = = > , , = = = = = = = = = = < @ C.sX~.|.).).~.~.~.~.~.~.~.~.~.~.~.~.~./././.|.].E.i @ $ % . = = = , = = - = = , , , , , , , , , , , , = , , = % . %         . . %   o o       .                         o   o o o X 4 4 X X .   - X O r W [ ~ [ ~ Q t + O 4 # 2 @ g aX_._.).~.~.~.~.~.~.~.~.~.~.~.~.~.~.~.).`.`.~.~.~.).|.].; % = , , , = = = = = = = = = = = = = = = = = = & - - @ C.pX!.~.~.~.~.~.~.~.~.~.~.~.~.~.~.~.~.~.~.~.~.~.).~.).aXC.@ 2 , % < < * = = = = = = = = = = = = = = = = = % < > ; E.].`.).).).).~.~.~.~.~.~.~.~.~.~.~.~.~.~.~.~.~.~.~./.aXf $ - - - < * = = = = = = = = = = = = = = = = = % % = . f aX!.~.~.~.~.~.~.~.~.~.~.~.~.~.).).).~.~.~.~.~.~.~.~.~.~.",
"= = = = = = = = = = = = = = = = , , = = , = - - - - - @ C.aX/.~.|._._._.|.|.|.|._._._._.|.|.|.|.`.).~.).`.`.`.aXC.@ , > , 5 , , = = = = = = = = = = = = = = = = 6 % 6 : i E.].|.`.`. X|.|.|.|.|.|.|.|.|.|._._._.|.|.|.|.|._._.^.R.#X .-.-.%.^ / -.-.*.-.^ #.<.v O % = , , * % & X o hXlXp.p.e.e.lXO.~ P ;.jXy.e.w.r.y.hXg F.V.gXxXr.u.y.u.y.r.r.a.xXo % 9 & 2 * = = = = = = = = = = = = = = = = , = - % - $ V.Y.L.L.H.H.L.L.L.L.S.H.K.G.J.J.K.D.i * = = = , = = = * , 5 5 5 5 5 5 1 > * , 5 5 5 5 p p 5 5 5 5 1 5 5 5 < , * * = = * , s 1 i d d d f d d d 2 & * = * * , = = < < , = , < 5 5 1 , , * < 5 5 5 5 5 1 5 5 p p d d d s i p p : 2 @ d sX`.(.).).)._.`._._._._.|.|.|.|.|.|.|.|.|._._._.].~.|.].# X - - = = = = , , , , = = = = = = = = , * * * = < - @ R.pX|.~.|.~.~.|.|.|.|._.|.|.|.|.|.].P.L.P.P.L.L.K.J.J.Y.V ; > 2 = = = = = = = = = = = = = = = = = = = = = = * > ; aX].|.~.!.|.~.|._._.|.|.|.|.|._._._._.|.|.|.|.}.{.{.I.>X,X4X>.&.&.-.-.#.*.#.*.&.-.,.G O % , 6 % 7 % 6 % o hXa.y.e.w.y.lXO.Q o.O.jXy.r.y.u.a.hXk.Y.k.gXxXr.r.r.u.e.a.r.zXxXX @ % < < 8 $ % : 5 = - - = = , = = = = = = = = - - - . C.|.!.|.~.|.].].|.|._._._._.)._._._._. X X X'.|.aXi > 4 9 8 - = , , , < = = - - - - - - - - - - - - - - - - 4 8 , 2 : p < 8 8 - 9 & < p s 5 2 9 * < < = 6 6 6 5 4 4 4 - - - o   X 6 1 = X o o   6 % 4 r ! [ [ [ [ ( x X % * 3 2 @ f aXdX`._._._._._._._._._.|._._._.|.|.|.|.).).~.~.~.). XaX; % = , , , = = = = = = = = = = = = = = = = = = = * = ; D.sX~._. X|.|.].}.}.].].|.|.|.|.|.|.|.|._._.~._._.~._.aXC.@ , * = 6 = , = = = = = = = , , , = = = = = - 4 & 4 > ; E.].|.|.|.|.|.|._._._.|.|.|.|.|.|.|.|.|.|.|.|.].].).].aXh $ = = = 1 # = = = = = = = = = = = = = = = = % * % 5 $ f sX(. X}.|.|.|.|.|._.|.|.|.|.|.|.|.|.|._._._.|.|.|.|.|.|.",
"= = = = = = = = = = = = = = = = = = - = * , = = < # , $ C.pX/.].~.~.~.~.~.~.~.~.~.~.~.~.~.~.~.~.).).~.~.).~.~.aXC.@ , < < = . = = = = = = = = = = = = = = = = = = $ = # ; aX].~.~.~.~.~.~.~.~.~.~.~.~.~.~.~.~.~.~.~.~.~.~.~.~.^.>X,XR ~ ! ' / ' / / U / ~ ' :.w o . & = > # & $ . o i.y.e.r.q.y.jXQ ~ ~ ;.jXe.e.a.a.a.vXj.W.j.2XxXr.e.y.y.r.r.r.w.zXo $ 9 & 4 - = = = = = = = = = = = = = = = = * < = - - $ k.'.H.P.J.J.H.G.G.G.J.Q.Q.(.{.(.'..Xi * = = , , = = = * , 5 5 5 5 5 s 1 * # , 5 8 s p p p 5 p p p 5 5 5 5 1 , , , < * % = s p p f f d g g f d 2 * , , * * = * * = = < , , 1 s s 5 2 > * < 5 1 1 5 5 1 5 1 p s d g g s 5 p 5 * < X d aX}.(.~.~.~._.~.~.~.~.~.~.~.~.~.~.~.~.~.~.~.~.~.].~. X].: # , : , , , , = = = = = = = = = = = = , * * * = < - @ T.pX|.~.]./.~.].~.~.~.~.~.~.~.~.).~.U.G.J.G.L.L.L.Y.P.T.g $ * , = = = = = = = = = = = = = = = = = - = = = = * : ; aX].|.!.~. X!.~.~.~.~.~.~.~.~.~.~.~.~.~.~.~.~.^./. X^.>X@X' ~ ~ ~ Q / / / Q Q / / $.q o & $ $ - - . & .   0.y.q.y.r.u.jXX.~ ~ X.jXy.9.p.a.s.vXj.OXj.2XxXw.y.r.e.w.p.9.p.s.o * < = % , % 6 , > = - - - = = = = = = = , = = = = - @ T.sX~.|.!.|.~.~.~.~.).).).).`.`. XXXsXsXsXsXsXsXaX; .                                                                 o                                                     o o % 5 & & X o + o 7 O O t 1.[ [ [ [ ] L O 4 , , , . f aX).}.(.~.~.~.~.~.~.~.~.~.~.~.~.~.~.~.~.~.~.~.~.~.`. XaX; X - = = = = = = = = = = = = = = = = = = = = = < % = @ C.aX/.].~.~.~.~.).`.).).~.~.~.~.~.~.~.~.).).~.~.~.~.).aXC.@ 1 < < = $ = = = = = = = = = , , = = = = = , , % < ; i aX].~.~.~.~.~.~.~.~.~.~.~.~.~.~.~.~.~.~.~.~.~.~.~.).~.aXh $ 6 = % < = = = = = = = = = = = = = = = = = * < % 6 . d aX(.).~.~.~.~.~._._.~.~.~.~.~.~.~.~.~.~.~.~.~.~.~.~.~.~.",
"= = = = = = = = = = = = = = = = = = , = = = = = = * - @ C.sX/.~.~.).).).).).).).).).).).).).).).^.^.~.~.`.).].aXC.@ * = = = = - = = = = = = = = = = = = = = = = * = * > ; aX].~._._.^.^._._.~.~.).).).~.).).).).).).).).).).).^.R.vXkX9.9.r.i.t.q.q.q.y.9.i.u.+.Y U  .+ 4 X q <.U Y u.a.r.y.e.r.e.e.e.e.r.e.e.lX{ H H { lX0.i.i.a.w.r.9.r.lX2XC.D.D.: % , , = , = = = = = = = = = = = = = = = = - = > 2 - $ k.Y.J.J.K.F.H.H.L.L.C.i 2 5 = 8 5 5 * * * * = , , , = = = = = = = = = = , , , , , , = = = = = = = = = = = = * * = , * , 1 5 p 5 2 * , = = = = = = = = = = = = = = = , , , = = , < 5 5 5 5 5 5 5 5 5 5 5 5 5 5 5 5 5 p 1 p 2 < = @ f aX~._. X~.~.~.).).).).).).).).).).).).).).).).).~.).|.aX; % * = = = = = = = = = , , , , = * * * , * * = = = % @ D.sX~.].~.].~.~.).).).).).).)._._._.U.S.P.H.L.U.U.U.G.T.C.$ 2 = = = = = = = = = = = = = = = = = = > , , = = = > ; E.].~.~.)._._.).).).).).).).).).).).).).).).).|.).).dX>XyXkXi.w.e.e.q.q.q.e.q.e.i.u.+.Y |  .O 4 X j <.Y 8.u.a.e.e.p.e.y.q.t.q.i.e.w.lX{ m H { kXi.i.kXu.y.r.r.e.xX2XC.E.R.: % = = = = = = = = = = = = = = = = = = = > = = - - = @ C.pX/.~.~._.~.|._.~._._._._. X`.(.].p 8 p 2 = 8 & FXFXFXFXFXFXFXFXFXFXFXFXFXFXFXFXFXFXFXFXFXFXFXFXFXFXFXFXFXFXFXFXFXFXFXFXFXFXFXFXFXFXFXFXFXFXFXFXFXFXFXFXFXFXFXFXFXFXFXKXs   o o o o o o o o X - 4 = 6 6 4 6 6 6 6 6 , = = = < . f aX`._._.).).).).).).).).).).).).).).).)._._.~.~.).~.|.aX; % = = = = - - = = = = = = = = = = = = = = = = = = - @ D.sX~.~.).).).).).).).).~.~.).).).).).).~.~.~.).|._.`.pXC.@ = < = = , > = = = = = = = = = , = = = = = = * = * : ; aX].~.).).).~.).).).).).).).).).).).)._._.).).~.~.~.~.aXg $ = - % = = = = = = = = = = = = = = = = = = = = * < . f aX`.`.`.).).^._._._.).).).).).).).).).).).).).).).).).).",
"= = = = = = = = = = = = = = = = = = , , = = = = = * - @ C.sX/.~.~.).).).).).).).).).).).).).).).^.^.~.~.`.).].aXC.@ * = = = = - = = = = = = = = = = = = = = = = * = * > ; aX].~._._.^.^._._.~.~.).).).).).).).).).).).).).).).^.R.gXkXy.9.p.r.a.p.p.r.a.r.y.lX6.&.,.4X+ 4 X v 6X2.! t.r.q.e.u.a.y.y.r.r.p.r.p.lXD 0 q t lXp.p.p.y.w.r.w.e.vX2XV.Q.Y.: % , = - = = = = = = = = = = = = = = = = = - = = = - $ k.Y.G.P.H.H.L.P.P.S.C.; $ * X % % * * * - * = = = = * * * * * = = = - * * * * * * * = = = = = = = = * = = = * * * , * , 1 5 5 1 2 : , = = = = = = = * * * * * * * * = = = * * , < 1 5 5 5 5 5 5 5 5 5 5 5 5 5 5 5 5 5 1 s < = % $ h aX~.`.`.~.~.|.|.).).).).).).).).).).).).).).).).~.).|.aX; % * = = = = = = = = = > > = = = = = = = % = = = = % @ D.sX~.].~.].~.~.).).).).).).).).}.{.L.F.J.J.H.H.F.F.F.T.V.@ = % = = = = = = = = = = = = = = = = = > , , = = = > ; E.].~.~.)._._.).).).).).).).).).).).).).).)._._._.~./.Z.gXxXw.r.r.a.a.y.y.a.a.y.y.lX6.X.<.9X0 O O c 9X#.Q jXu.r.e.r.9.a.r.a.a.p.p.p.lXH 0 0 y s.p.r.p.r.9.9.p.w.vX2Xj.M.G.; = = = = = = = = = = = = = = = = = = = = > = = - - = @ C.pX/.~.~._.~.].^.~.].].~.).!.). X].; . . % < &   KXKXKXKXKXKXKXKXKXKXKXKXKXKXKXKXKXKXKXKXKXKXKXKXKXKXKXKXKXKXKXKXKXKXKXKXKXKXKXKXKXKXKXKXKXKXKXKXKXKXKXKXKXKXKXKXKXKXKXLXS   o o o o o o + o o - - & & & & . . $ % * * - - * 2 . f aX`.`.).).).).).).).).).).).).).).).).)._._.~.~.).~.|.aX; % = = = = - - = = = = = = = = = = = = = = = = = - - @ D.sX~.~.).).).).).).).).~.~.).).).).).).~.~.~.).|._.`.pXC.@ = < - = , > = = = = = = = = = , = = = = = = * = * : ; aX].~.).).).).).).).).).).).).).).).)._._.).).~.~.~.~.aXg $ = - % = = = = = = = = = = = = = = = = = = = = * < . f aX`.`.`.).).^._._._.).).).).).).).).).).).).).).).).).).",
"= = = = = = = = = = = = = = = = = = = = = = = = = * - @ C.sX~.~.~.).).).).).).).).).).).).).).).^.^.~.~.`.).|.aXC.@ * = * = = - = = = = = = = = = = = = = = = = * = * > ; aX].~._._.^.^._._.~.~.).).).).).).).).).).).).).).).^.R.vXxXa.r.p.r.w.r.r.9.r.e.y.y.5.Y /  .+ $ X w 6X/ ~ u.a.a.p.w.w.i.e.e.e.e.9.e.jX{ l l H lXe.9.9.r.e.p.r.a.cX2Xj.Q.Y.: % = - * = = = = = = = = = = = = = = = = = - - = = - $ k.Y.P.P.J.F.K.Q.Q.'.T.i : < = = % , * * * = = = = = * * * - * = = = * * * * * * * * * * * * * * * * * = = = * * = , > 2 < 5 5 1 2 * , = = = = = = = * * * * * * * * = = = = > , 2 1 5 5 5 5 5 5 5 5 5 5 5 5 5 5 5 5 5 1 s < = * # d aXsX`.sX`.|.|.!.).).).).).).).).).).).).).).).).~.).|.aX; % * = = = = = = = = = = = = = = = = = * * > , , 1 * @ D.sX~.].~.~.~.~.).).).).).).)._._._.D.D.I.U.L.L.L.P.L.Y.C.; 1 , = = = = = = = = = = = = = = = = = > = = = = = > i aX].~.~.)._._.).).).).).).).).).).).).).).).)._._.~.R.>XvXxXa.p.y.p.p.r.w.w.r.e.r.jX5.P /  .O % X j 4X@.X.u.a.u.y.y.9.r.e.e.9.w.e.w.lX{ l v H lXi.e.u.e.e.p.p.p.xX2Xk.L.T.% X = = = = = = = = = = = = = = = = = = > > = = - - < @ C.pX/.~.~._._.|._.~.|._.`.`. X XsXaXi $ , 8 % . & KXLXKXFXFXKXKXFXFXFXKXKXKXFXFXFXFXFXFXFXFXFXFXFXFXFXFXFXFXFXFXFXFXFXFXFXFXFXFXFXFXFXFXFXFXFXFXFXFXFXFXFXFXFXKXFXFXKXKXLXS   o o o o o o o o o X = * * * & - = = = > = = = = 2 . f aX`.`.).).).).).).).).).).).).).).).).)._.^.~.~.).~.|.aX; % = = = = - - = = = = = = = = = = = = = = = = = - - @ D.sX/.~.).).).).).).).).~.~.).).).).).).~.~.~.).|._.`.pXC.@ > = * = , > = = = = = = = = = = = = = = = = - < = , ; aX].~.).).).).).).).).).).).).).).).)._._.).).~.~.~.~.aXg $ = - % = - = = = = = = = = = = = = = = = = = = * < . f aX).).).).).^._._._.).).).).).).).).).).).).).).).).).).",
"= = = = = = = = = = = = = = = = = = = = = = = = = * - @ D.sX~.~.~.).).).).).).).).).).).).).).).^.^.~.~.`.`.|.aXC.@ * = * = = - = = = = = = = = = = = = = = = = * = * > ; aX].~._._.^.^._._.~.~.).).).).).).).).).).).).~.).).^.>X2XgX0.4.jXjXi.e.a.e.y.u.r.y.5.O.<.4.+ 4 O t <.@.U t.i.i.q.a.y.y.y.y.y.y.e.y.xX{ r r D lXe.r.r.y.y.y.6.6.kX2Xk.Y.T.: % = - = > = = = = = = = = = = = = = = = = = = , = - $ k.Y.M.K.J.P.Q.S.V.C.V i > < = = * 2 = = = = = , = = * * = = , , , , , , , , , , , , , , 2 2 2 2 2 2 = = = = = = , < 2 < 1 5 5 1 2 * , = = = = = = = = = = = , , , , , , 2 2 , 2 < 1 5 5 5 5 5 5 5 5 5 5 5 5 5 5 5 5 5 1 s 1 1 1 2 d E.E.I.pX|.|.~.!.).).).).).).).).).).).).).).).).~.).|.aX; % * = = = = = = = = = = = = = - - = = > > = * * = % @ D.sX~.].~.~.~.~.).).).).).).).)._.).U.G.J.J.H.L.G.P.G.T.g @ 3 & = = = = = = = = = = = = = = = = = = = = = = = > i aX].~.~.)._._.).).).).).).).).).).).).).).).).~.}.}.|.dX1X0.0.0.jXt.4.r.a.e.e.e.u.u.5.X.<.9X+ 7 O t ,.-.X.t.t.i.i.a.r.a.e.r.e.a.p.r.lX{ r y D lXe.r.p.w.a.a.6.q.kX2Xk.P.Y.; % = = = = = = = = = = = = = = = = = = > > = = - - < @ C.pX/.~.~._._._._.).|.).`.|.].D.R.D.p % , > 6 5 * IXFXIXFXLXFXKXKXKXKXKXKXKXKXKXKXKXKXKXKXKXKXKXKXKXKXKXKXKXKXKXKXKXKXKXKXKXKXKXKXKXKXKXKXKXKXKXKXKXKXKXKXFXKXKXFXKXKXFXLXf   X X X X X o o X X - = = 4 6 4 4 6 = = = * % % = < . f aX`.`.).).).).).).).).).).).).).).).).)._.^.~.~.).~.|.aX; % = = = = - - = = = = = = = = = = = = = = = = = - - @ D.sX/.~.).).).).).).).).~.~.).).).).).).~.~.~.).|._.`.pXC.@ > = * = , > = = = = = = = = = = = = = = = = - < = , ; aX].~.).).).).).).).).).).).).).).).)._._.).).~.~.~.~.aXg $ = - % = - = = = = = = = = = = = = = = = = = = * < . f aX).).).).).^._._._.).).).).).).).).).).).).).).).).).).",
"= = = = = = = = = = = = = = = = = = = = = = = = = * - @ C.sX~.~.~.).).).).).).).).).).).).).).).^.^.~.~._._.|.aXC.@ * = * , = - = = = = = = = = = = = = = = = = * , * > ; aX].~._._.^.^._._.~.~.).).).).).).).).).).).).~.~.~.~.I.g $ o + I U F 4.u.e.u.r.e.a.r.y.y.lXy N n I -.=./ >.Q Y ;.jXe.e.r.e.e.e.q.e.lX{ r y D lXe.u.u.e.u.t.O.~ :.Z.k.I.D.> - = * = = = = = = = = = = = = = = = = = = - = > 2 = @ k.Y.L.L.G.L.S.h @ * 1 # % * % = , < = = = , , , = = = = < < 5 5 5 5 5 5 5 5 5 5 5 5 5 5 5 5 5 5 5 5 = , = = = , , < 1 1 5 5 5 5 2 , , = = = = = = = , = = = = = , , 1 5 5 5 1 1 5 5 5 5 5 5 5 5 5 5 5 5 5 5 5 5 5 5 p 1 p p s d d d ; ; i D./.~.|. X).).).).).).).).).).).).).).).).~.~.|.aX; % * , = = = = = = = = = = = = - - = = = = 4 = = 6 = @ D.sX~.|.~.~.~.~.).).).).).).).).}.}.L.S.P.J.H.H.J.P.G.T.V @ - - = = = = = = = = = = = = = = = = = = = = = = = > i aX].~.~.)._._.).).).).).).).).).).).).).).).^.^.^.~.].Y.g . o +  .| Y 5.jXu.u.u.u.a.r.e.lXxXy M M Y 2.&.~ :.$.U ;.jXu.y.q.y.y.e.e.e.jXK j v D lXw.r.w.9.u.kXP P  .Z.M.I.T.$ . = = = = = = = = = = = = = = = = = = = > = = - - < @ D.sX/.~.~.^.~.].~.~.].~.~.aXg ; : 2 * < s 5 , 5 . 1 & . f FXKXKXKXFXKXFXKXKXKXKXKXKXKXKXKXKXKXKXKXKXKXKXKXKXKXKXKXKXKXKXKXKXKXKXKXKXKXKXKXKXKXKXKXKXKXKXKXKXFXKXKXKXFXFXLXA % 4 6 p s s s s 5 6 < = = = * = = % = = * = = = , < . f aX`._._.).).).).).).).).).).).).).).).)._._.~.].).~.|.].; % = = = = - - = = = = = = = = = = = = = = = = = = - @ C.sX/.~.).).).).).).).).~.~.).).).).).).~.~.~.).|.).`.pXC.@ > , * = , * = = = = = = = = = = = = = = = = % = * : ; aX].~.).).).).).).).).).).).).).).).)._._.).).~.~.~.~.aXg $ = = * = = = = = = = = = = = = = = = = = = = = * < . f aX).).).).).^._._._.).).).).).).).).).).).).).).).).).).",
"= = = = = = = = = = = = = = = = = = = = = = = = = = - @ C.sX~.~.~.).).).).).).).).).).).).).).).^.^.~.)._._.].aXC.@ * = * , = - = = = = = = = = = = = = = = = = * , * > ; aX].~._._.^.^._._.~.~.).).).).).).).).).).).).~.~.~.~.IXk.@ X 0 4X2.~ 5.a.p.w.r.q.r.e.r.a.lXy z j Y 3.&.` ] ~ ~ ;.a.w.w.r.e.r.r.w.w.xX{ r z D xXe.r.r.p.a.t.X.P :.#XU.P.T.3 % , > = * = = = = = = = = = = = = = = = = = = > 2 = $ V.Y.S.G.M.Q.Y.g $ = % * < = % = = = = = = = = = = = = , < 5 5 5 p p p p p p 5 5 5 5 5 5 5 5 p p 5 5 * > * * * * , < 5 5 5 5 5 1 2 , , = = = = = = = * * * * > > > > 5 5 5 5 5 5 5 5 5 5 5 5 5 5 5 5 5 5 5 5 5 5 5 5 p p p p d f f d 2 1 : E.aX~.).|.).).).).).).).).).).).).).).).).~.~.|.aX; % * = = = = = = = = = = = = = = = = = = = = * & * & . D.sX~.|.~.~.~.~.).).).).).).).).|.).U.D.U.U.H.J.K.Q.Q.Y.k.; 5 6 = = = = = = = = = = = = = = = = = = = = = = = > i aX].~.).)._._.).).).).).).).).).).).).).).).^.^./.^. X Xg $ O + 3X,.Y 6.jX9.d.e.e.r.r.p.lXkXy t v Y =.=./ =./ U ;.jXy.y.r.r.p.e.e.y.lX{ j l H lXw.p.r.y.lXt.P o.4X>XM.Q.T.: 8 = = = = = = = = = = = = = = = = = = = > = = - - < @ C.sX/.~.~._.^.^.~.^.~.~.).aXV . : % < < s 1 5 s = 6 % . A LXFXFXFXFXFXFXKXFXKXKXKXKXFXFXFXFXKXKXKXKXKXKXKXKXFXKXKXKXKXKXFXFXFXFXFXFXKXKXKXKXKXKXKXKXKXKXKXKXFXFXFXFXFXKXLXf . > 1 p s p 2 1 s p , # * * * = = = = , , < < < * < . f aX`.`.).).).).).).).).).).).).).).).).)._._.~.].).~.|.].; % = = = = - - = = = = = = = = = = = = = = = = = - - @ C.sX/.~.).).).).~.).).).~.~.).).).).).).~.~.~.).|._.`.pXC.@ > , * = , * = = = , = , = = = = = = = = = = % = * : ; aX].~.).).).).).).).).).).).).).).).)._._.).).~.~.~.~.aXg $ = = * = = = = = = = = = = = = = = = = = = = = * < . f aX).).).).).^._._._.).).).).).).).).).).).).).).).).).).",
"= = = = = = = = = = = = = = = = = = = = = = = = = = - @ C.sX/.~.~.).).).).).).).).).).).).).).).^.^.~.~._._.].aXC.@ * = * = = - = = = = = = = = = = = = = = = = * , * > ; aX].~._._.^.^._._.~.~.).).).).).).).).).).).).).).~.^.aXh X 7 q $X,.X.t.xXu.y.a.u.e.e.u.kXkXu q q I -.<.#.1.&.o.5.lXp.a.a.a.a.a.p.s.zXy 0 y y lXp.s.a.a.u.t.O.! <.#XD.P.T.: - 2 > * * = = = = = = = = = = = = = = = = - = = , = ; V.Q.P.'.Y.!..XV.; % * < < - * % % % = = = , , , = = = , < 5 5 p p p p p 5 5 5 5 5 5 5 p p p p p 5 5 , , , , , , < < 5 5 5 1 1 1 2 > , = = = = = = = = = = = , , , , 5 5 5 5 5 5 5 5 1 1 1 1 1 1 1 1 5 5 5 5 5 5 5 5 5 5 1 p d f f s > 1 ; E.pX_.~.).).).).).).).).).).).).).).).).).~.~.|.aX; - * = = = = = = = = = = = = = = = = = , = - X . 4 X . D.sX~.|.~.~.~.~.).).).).).).).~.]..XL.S.J.F.F.F.B.F.F.Y.V.@ 3 3 > = = = = = = = = = = = = = = = = = = = = = = > ; E.].~.)._._._.).).).).).).).).).).).).).).).).}.~.~.~.|.g . 7 q 9X6XX.t.xXa.a.r.e.e.y.u.i.kXt u w L $.,.-.1.-.O.5.lXp.p.p.p.a.a.a.p.zX{ e 0 y zXp.p.p.p.a.u.O.O. .z.j.j.M.i i > = = = = = = = = = = = = = = = = = = > = = = = - @ C.pX/.~.~._._._._._.`.(.`.aXV $ 5 , s 1 s p 2 2 1 8 8 = A LXLXLXLXLXKXKXKXFXKXKXKXKXKXKXKXKXKXKXKXKXKXKXKXKXKXKXKXKXKXKXKXKXKXKXKXKXKXKXKXKXFXFXFXFXKXKXKXKXLXKXLXLXLXLXKXA   X - % 2 p p p 5 5 * % = = = 4 = = = * * * - - * 2 . f aX`.}.).).).).).).).).).).).).).).).).)._._.~.].).~.|.].; % = = = = - - = = = = = = = = = = = = = = = = = = - @ D.sX~.~.).).).).~.).).).~.~.).).).).).).~.~.~.|.|.).`.pXC.@ > , * = , * = = = = = = = = = = = = = = = = % = * : ; aX].~.).).).).).).).).).).).).).).).)._._.).).~.~.~.~.aXg $ = = * = = = = = = = = = = = = = = = = = = = = * < . f aX).).).).).~.)._._.).).).).).).).).).).).).).).).).).).",
"= = = = = = = = = = = = = = = = = = = = = = = = = = - @ C.sX~.~.~.).).).).).).).).).).).).).).).^.^.~.~._.).].aXC.@ * = * = = - = = = = = = = = = = = = = = = = * , * > ; aX].~.)._.^.^._._.~.~.).).).).).).).).).).).).).).).~.aXh $ * X k k u } 5.O.7.t.u.y.r.r.r.lXO.kX4.} F L L | #._ / 3.;.;.;.;.;.;.;.;.5.$.R R Y tX;.;.,.;.5.3.Q ! 4XZ.M.P.T.: - = = = * = = = = = = = = = = = = = = = = = = = = - ; V.Q.T.C.h i d p % 8 , < , 1 5 1 1 p 2 2 2 2 2 2 , = * = < 1 5 5 5 5 1 1 1 1 1 1 < < 1 1 1 p 5 5 1 1 < 1 < < < < 5 5 5 5 1 1 1 2 , * , = = = = = = = < < < < < < < < 5 5 5 5 5 5 5 5 1 1 1 1 1 1 1 1 5 5 5 5 5 5 5 5 5 5 5 p s d f s 2 s ; R.|._.|.~.~.).).).).).).).).).).).).).).).~.~.|.aX; - - = = = = = = = = = = , = = , = = = & - = 7 0 J I T Z.sX~.|.~.^.~.~.).).).).).).).).}.|.U.G.P.U.D.D.Z.#X#X&XC O 7 4 = = = = = = = = = = = = = = = = = * = = = = = > ; E.].~.)._._._.).).).).).).).).).).).).).).).).~.`._.^.aXg . - X k e u { 4.;.O.r.e.r.y.r.e.zX+.0.0...I L L / >.' ` 6.O.;.5.;.;.1.-.;.tXR I U | 5.;.;.;.;.3.2.Q ! X.9XhXDXgX4 o = = = = = = = = = = = = = = = = = = = > = = = = - @ C.sX/.~.~._._._._._.).~._.sXV . < : s , 8 1 i 2 s s 5 % 8 A A A f f f C.FXKXFXKXKXKXKXKXKXKXKXKXKXKXKXKXKXKXKXKXKXKXKXKXFXFXKXKXKXKXKXKXKXKXKXKXKXKXKXKXKXKXA f A f A f A A :XhX..e 4 6 5 < 5 1 > * , = * = = = = , , = = = * < . f aX`.`.).).).).).).).).).).).).).).).).)._._.~.].).~.|.aX; * = = = = = - = = = = = = = = = = = = = = = = = = - @ D.sX/.~.).).).).).).).).~.~.).).).).).).~.].~.|.|.).`.pXC.@ > , * = , > = = = = = = = = = = = = = = = = % = * : ; aX].~.).).).).).).).).).).).).).).).)._._.).~.~.~.~.~.aXg $ = = % = = = = = = = = = = = = = = = = = = = = * < . f aX).).).).).^._._._.).).).).).).).).).).).).).).).).).).",
"= = = = = = = = = = = = = = = = = = , = = = = = = = - @ C.sX/.~.~.).).).).).).).).).).).).).).).^.^.~.~.`.).|.aXC.@ = < = = = - = = = = = = = = = = = = = = = = * , * > ; aX].~.).).~.~._._.~.~..X.XdXdX_.).].)._._.).).^.^./..XaXg . 6 # @ 3 o G _ ' P lX9.y.u.e.e.p.p.a.zX4.u b w :.1./ >./ / / / / / / / / / =.=._ ` ( ^ / / / ( ( ) &.:.#XM.I.T.: % = * , , % * - - * = = * = = , , = = > = * 6 % - % $ V.I.U.k.. o X = p p 5 5 5 p p p p p s s p 1 , * * = % * , 5 5 5 5 p p 1 2 p 5 , - % > 1 p 1 5 p 5 p 5 5 5 5 5 p s s 5 5 < * * * = = * = = = = = * % 5 5 5 5 5 5 5 5 1 5 p 5 1 5 p p < p , = < * 1 p p p 5 5 < 1 5 p p 1 2 1 d f f s 1 1 i R.|.!.~./.|. X!.|.|.~.|.~./.~.~.).`.).~.]..X~.pXdX2 X 8 > 6 4 $ * = & = % = = = = = = = = , , , % 0 qX-.:.>X/.~.).^.~.).).}.].^._.`. X}.!.~.~.U.G.P.S.J.U.l.;X#.3.K O 4 * = = = = = = = = = = = = = = = = = > , , = = = > i E.].~.).`._._.).).).).).).).).).).).).).).)._._._.~..XaXg @ 6 > $ . o v ,.Y Q jXr.w.e.u.y.r.p.a.xX4.u r r @.2.` ` ! ! W W W Q / ^ / _ =.=.1.2./ ' ' ' / / / ' 2.F s.mXf.BXo # * = = = & * = - - = % % = = * * = = = > = = - - < @ C.sX/.|.~.^.~.~.^.^._._.(.aXV . 2 > 1 p 1 p 5 5 5 5 1 2 # # . . . % . s LXFXFXFXKXKXKXKXKXKXKXFXKXKXFXFXKXFXFXFXKXFXKXFXKXFXFXKXFXFXKXFXKXFXKXKXFXKXFXFXKXKX9 . # . X X o 0.zXzXvX+ 4 s 2 5 6 4 4 = = = > > = = = = = = = = * < . f aX`.`.).).).).).).).).).).).).).).).).)._._.~.~.~.~.|.].; % = = = = = - = = = = = = = = = = = = = = = = - - = @ D.sX/.~.~.~.~.).).`.|.|.).`.).).~.).).).).~._.|._.~.).aXC.@ = < * = , > = = = = = = = = = = = = = = = = * = * : ; aX].~.).).).).).).).).).).).).).).).)._._.).).~.~.~.~.aXg $ = - % = = = = = = = = = = = = = = = = = = = = * < . f aX).).).).).^._._._.).).).).).).).).).).).).).).).).).).",
"= = = = = = = = = = = = = = = = = = , , = = = = = = - @ C.sX/.~.~.).).).).).).).).).).).).).).).^.^.~.~.`.`.).aXC.@ = < = = = - = = = = = = = = = = = = = = = = * , * > ; aX].~.)._.~.~._._.~.).}.)._._.~.~.^.^.^._.}.{.).).).~.sXg $ 6 < * < O I 5X6XQ lX9.w.e.r.y.p.w.p.lX4.u m t $.=.^ >.( _ _ _ _ _ ) ) ) ) *._ _ ) ) ( ( ( &.&.) ) &.:.#XM.P.T.: % = * - - = = , = = - - * = = = = , = = = % 6 * < * : C..X!.T.2 - * , 5 5 5 1 1 1 1 5 5 5 5 5 5 < = * * = * = < 1 5 p p p p 1 i p p 2 * * * 1 5 1 1 5 1 p 5 5 5 5 5 p p 5 5 5 < * * = = = * = = * * = = * 5 5 5 5 5 5 5 5 1 5 5 1 5 5 p 1 1 s 2 > , > 1 p i p 5 5 5 p p p p 1 2 p d f d d 2 p i E.sXsX X(.~.~.!.~.).~. X_.~.~.~.~.).).).^.^._.XX.X3   3 & > 1 , 6 , = = % = = = = = = = = * = * X u 4X%.4X>X[.[.(.`.`.`.).~.^.~.~.^.^.]./.dX].U.S.T.S.D.D.v.*X>.3.J O 4 , = = = = = = = = = = = = = = = = = = , , = = = > i E.].~.).`._._.).).).).).).).).).).).).).).).).(.}.(..XaXg @ , 3 3 = O L qX=.o.jXr.e.r.y.r.r.p.e.lX4.u l v @.=.*.*._ *.*.*.*.*._ _ *.*.*.*.` ) &.%._ _ %.%.%.&.=.F u.mXbXNX  $ , * , = * * = = = , = = , , , 6 = = = > = = - - - @ C.sX~._.~._.).~.^.~._._.(.aXV @ 2 > 1 p 1 p 5 5 5 5 5 1 2 > s s < < . f LXLXKXKXKXKXKXKXKXKXKXKXKXKXKXKXKXKXKXKXKXKXKXKXKXKXKXKXKXKXKXKXKXKXKXKXKXKXKXKXKXLXf $ 3 # # . X gXzXzXhXo % s s s 5 6 , * - = = - = = = = = = = = * < . f aX`.`.).).).).).).).).).).).).).).).).)._._.~.~.~.~.|.].; % = = = = = - = = = = = = = = = = = = = = = = = - = @ C.aX/.~._._.|.).~.~.~./.^.^.^.^.^._._._.~.^.^._._._.`.pXC.@ = = * = , > = = = = = = = = = = = = = = = = * = * : ; aX].~.).).).).).).).).).).).).).).).)._._.).).~.~.~.~.aXg $ = - % = = = = = = = = = = = = = = = = = = = = * , . f aX).).).).).^._._._.).).).).).).).).).).).).).).).).).).",
"= = = = = = = = = = = = = = = = = = = = = = = = = = - @ D.sX/.~.~.).).).).).).).).).).).).).).).^.^.~.~.`.).].aXC.@ = < * = = - = = = = = = = = = = = = = = = = * , * > ; aX].~._._.^.^._._.~.).`._.).~..X~.^.^._.).{.{.).~.~.~.].h @ & - & & X J  .R Y lXr.y.y.u.y.r.w.e.lX4.w J v @.=.W -.*.-.*.*.*.*.&.&.&.&.%.%.%.%.%.&.%.%.%.%.o.! &.:.#XD.P.T.: % = = - * * * * = = % % * = = = = = = = = % < * < * : g C.C.k.2 1 > 1 5 5 5 p p p 1 1 5 5 5 5 5 1 2 , 2 < 2 2 < 1 5 5 5 5 1 1 5 p 5 2 = = - 6 8 5 5 5 1 5 5 5 5 5 5 5 5 5 5 5 < = * = = * * = = * * , < , 5 5 5 5 5 5 5 5 1 5 5 1 5 5 5 2 1 5 * * = * < 5 1 5 5 < 5 s 1 2 1 1 1 p s s s s p d i C.E.R.~.sX~.pX].].|.`.`.`.).~.~.~.~.).).).|.(.[./.p O 7 % . 3 # : % , , & = , = = = = = = * = * X u 4X@.:.>X>X>X>X_.`.).).).`.{.{.{.].}. X).`.Q.K.P.J.J.U.c.#XR <.N X - = = = = = = = = = = = = = = = = = = = = = = = = > i E.].~.~.)._._.).).).).).).).).).).).).).).).).(.|.^.^.aXV $ 8 % * 4 7 G :.$.P lXr.e.r.r.r.w.r.e.lX4.w M v @.=.^ @.-.-.*.*.*.*.*.=.*.&.%.%.( ( %.%.&.*.%.%.%.%.2.Y kXNXnXNXo : , * = = = = , , * * * * * % * = = = = > = = - - - @ C.sX/.~.~._.).).^.~._._.(.sXV @ 2 > 5 s 1 5 5 5 5 5 5 5 5 1 * 1 < s 1 f FXFXFXFXFXFXFXKXKXKXKXKXKXKXFXFXKXFXFXFXKXFXKXFXKXKXFXKXKXFXKXFXFXFXFXKXKXKXKXKXKXKXs = 4 s p 6 8 A vXvXgX7 8 5 5 # 8 1 , = - = = = = = = = = = = = * < . f aX`.`.).).).).).).).).).).).).).).).).)._._.~.~.).~.|.aX; % = = = = - - = = = = = = = = = = = = = = = = = = = @ C.aX/._.`.`.|.~.~.~.~.~.).`.`.`.`.`.).).~.]..X.X]..X}.|.C.@ = < * = , > = = = = = = = = = = = = = = = = * = * : ; aX].~.).).).).).).).).).).).).).).).)._._.).).~.~.~.~.aXg $ = - % = = = = = = = = = = = = = = = = = = = = * , . f aX`.).).).).^._._._.).).).).).).).).).).).).).).).).).).",
"= = = = = = = = = = = = = = = = = = = = = = = = = = - @ C.sX/.~.~.).).).).).).).).).).).).).).).^.^.~.~.`.).].aXC.@ = < * = = - = = = = = = = = = = = = = = = = * , * > ; aX].~._._.^.^._._.~._._._.~.~.).).`.`.`.|..X~.^.^.~./.aXg , 4 8 6 2 , % 6 O + xXp.r.e.y.r.r.w.r.lX4.w m v U =.( ( ( -.%.%.%.%.%.%.%.%.%.%.%.%.%.%.%.*.*.%.! ! 1.:.#XD.Y.T.: % 4 4 = > 1 < , < 6 , , 1 = = > > = = = = , < % = - . > 2 : p % 8 1 p 5 p p s d d s p p s 5 p p 5 5 5 p p 5 1 1 < , , = 4 = < 5 p 5 , = = 4 8 7 8 6 6 5 1 5 5 5 5 1 5 5 5 5 5 < , * = = * = = = = , < 5 5 5 5 5 5 5 5 5 5 5 5 5 5 p p 1 , = < % = = % < = , < < * = 5 8 < 1 5 p p 5 5 5 5 2 5 . < > ; h ].'.).~.~.|.|.`.`.).).~.~.~.~.).).|.!._.dX .-.6X .O < , , 4 4 = - = = > = = = = = , , * X u 4X@.o.&.&.o.:.>X^.^.^.dX^.~.].].^.^.^.dXdXI.S.T.L.S.D.z.;X:.,.{ O 4 6 = = = = = = = = = = = = = = = = = = = = = = = > i E.].~.~.)._._.).).).).).).).).).).).).).).).~.~.]././.aXg . - - - & $ % % $ o xXr.e.r.r.r.r.r.e.lX4.q b v / 1.( %.) ( ( @.@.^ %.%.&.%.%.%.%.%.%.%.) ) %.%._ _ =.Y i.nXnXNXo # , % = 6 = = = = < = , , = = = = = = = > = = - - - @ C.sX~.^.~.).).).].~.|.`.`.sXV @ > > 5 s 1 5 5 5 1 5 5 5 5 5 5 s 5 1 $ . 9 . . . . . . . . . .       . . . . . . .     . . . . . .   X . . .                 hXzXp.p.s.s.zX{ o % = @ s 1 8 8 6 6 = = = = , , = = = = = = = = * < . f aX`.`.).).).).).).).).).).).).).).).).)._._.~.~.).~.|.aX; % = = = = - - = = = = = = = = = = = = = = = = = * - @ C.aX~._._.|.].~.}.}.`.).^.^.^.^.^./././.^.|.|.).`.`.`.pXC.@ = < * = , * = = = = = , = = = = = = = = = = * = * : ; aX].~.).).).).).).).).).).).).).).).)._._.).).~.~.~.~.aXg $ = - % = = = = = = = = = = = = = = = = = = = = * < . f aX`.).).).).^._._._.).).).).).).).).).).).).).).).).).).",
"= = = = = = = = = = = = = = = = = = = = = = = = = = - @ D.sX/.~.~.).).).).).).).).).).).).).).).^.^.~.~.|.).].aXC.@ * = * = = - = = = = = = = = = = = = = = = = % = * > ; aX].~._._.^.^._._.~.^.^.^.~.~.)._.`.`.).~.^.^.).).{.{.sXh $ % = % 1 > $ 3 . o hXs.w.e.u.r.r.e.a.lX4.u r v | 3.=.) ) ( %.%.&.&.&.&.%.%.%.%.%.%.%.%.%.%.*.*.! ! &.;XZ.M.J.T.; % 4 4 , > > > $ $ * * & * > > > , = = = = * , * < < - % $ . = = s 5 s 1 1 s d f f s p 1 5 5 5 5 5 p p p 5 5 1 1 , * * * * * , 5 5 5 2 = % 4 7 7 4 6 6 5 2 5 5 5 1 1 1 5 5 5 5 < = * = = * * = , = , 1 5 5 5 5 5 5 5 5 5 5 5 5 5 5 5 s 1 > % = * , = % - $ % - - * = < 5 5 5 5 p p 1 < < < 5 s - 8 . . h IX|. X_.~.).|.~.).).).).).~.~.).).}.~.~.>X:.2.2.L o & & & , < * = = = = = = = = = < 2 = % 0 4X@.o.! [ o.%XdX[.{.).|.^.~.].|.~.`.`. X XQ.F.J.P.G.I.z.*X>.,.J O % : = = = = = = = = = = = = = = = = = = = = = = = > i E.].~.~.)._._.).).).).).).).).).).).).~.~.~._._._._.|.sXV.$ 6 % 4 4 , 1 : # O xXy.e.r.e.r.e.r.e.lX4.u r z @.3.=.=.=.) ( *.*.@.@.( %.) *.*.*.*.=.=.&.&.*.=._ _ _ P 0.mXmXNXo $ , - - = = * * $ * & * = * = < - = = = > = = = - = @ C.sX/.~.~.).).).].~.|.).`.sXV . , , 5 s 1 5 5 5 1 5 5 5 5 5 1 5 1 5 s * 5 @ < < 5 5 6 4 4 4 6 s 8 6 8 - * 5 5 , 8 = 8 6 , 8 s , 8 , 5 1 1 9 9 8 8 8 5 p 6 7 4.a.9.q.i.lXcXe @ i i i s > < 6 6 6 , = , , > * = = = = = = = = * < . f aX`.`.).).).).).).).).).).).).).).).).)._._.~.~.).~.|.aX; % = = = = - - = = = = = = = = = = = = = = = = = - - @ C.sX~.^.~.]./.~. X`.`.`.}.|.].]..X].].].!..X.X{..X~.~.aXC.@ = < = = , * = = = = = = = = = = = = = = = = * = * : ; aX].~.).).).).).).).).).).).).).).).)._._.).).~.~.).~.aXg $ = - % = = = = = = = = = = = = = = = = = = = = * < . f aX).).).).).^._._._.).).).).).).).).).).).).).).).).).).",
"= = = = = = = = = = = = = = = = = = = = = = = = = = - @ D.sX/.~.~.).).).).).).).).).).).).).).).^.^.~.~.|.).].aXC.@ * = * = = - = = = = = = = = = = = = = = = = % = * > ; aX].~._._.^.^._._.~.~.).).~.~._._._._.^.^._.`.[.{.{..X].h $ & * . = # = 6 % O xXa.e.y.y.e.r.r.a.lX4.u t H U >.*.^ =.( &.&.&.&.&.&.&.&.&.&.&.&.%.( ( ^ *.-.&.&.#.;XZ.M.I.T.; $ * = * * $ * & . % % $ % = = , , = = = = % - = < = * = 2 > 1 2 s 2 p 1 1 p s d d s p 2 2 5 1 1 5 5 5 5 5 5 5 1 2 , = = = * 2 1 1 2 2 , = % 7 4 6 6 , 5 1 5 5 5 5 1 1 p 5 1 1 < = * = = * * * = * , < 5 1 5 5 5 5 5 5 5 5 5 5 5 5 5 5 1 > * , > 2 * & < = % % * > 2 1 5 5 5 5 5 5 5 1 1 1 i p , 5 # ; g aXaX|.pX|.).~.~.~.).).).).).).~.).~.{.}.>X .@.<.H o X - $ 3 2 % = = = = = = = = = , , = % u 4X@.@.*.:.:.&X^.[.`.).}.(.(.`.[.(.(.[.oXQ.K.j.F.K.OXP.k.&X$.$.m O % * = = = = = = = = = = = = = = = = = = = = = = = > i E.].~.~.)._._.).).).).).).).).).).).).).).).}.[.{..X!.Y.d @ . = % = - * * . o xXy.e.r.e.e.r.w.w.lX4.u t G | -.@.-.=.) ) =.-.@.%.%.%.&.%.&.&._ *.*.%.%.%.*.*._ &.} i.mXmXNXX $ , * * * & * * $ * $ * = % % = % = = = > = = = - = @ C.sX/.~.~.).).).].~.|.).(.aXV $ 6 4 5 5 1 5 5 5 5 5 5 5 p p p p p 1 s 2 5 > > 2 2 2 > 2 > > 3 i ; @ , * . # ; ; 1 @ 3 3 3 3 2 @ 1 # $ @ $ $ @ $ $ ; @ .   o hXnXs.s.s.zXbXS X s 1 5 5 5 s s 1 1 2 2 , , = = = = = = = = = = * < . f aX`.`.).).).).).).).).).).).).).).).).)._._.~.~.).~.|.aX; % = = = = - - = = = = = = = = = = = = = = = = - - - @ D.sX~.~.]..X!.~.}.(.!. XoXoXoXoXoXoXoXoXoXoXoXoXXXoX(. XC.@ = < = = , > = = = = = = = = = = = = = = = = * = = : ; aX].~.).).).).).).).).).).).).).).).)._._.).).~.~.).~.aXg $ = - % = = = = = = = = = = = = = = = = = = = = * < . f aX).).).).).^._._._.).).).).).).).).).).).).).).).).).).",
"= = = = = = = = = = = = = = = = = = = = = = = = = * - @ D.sX~.~.~.).).).).).).).).).).).).).).).^.^.~.~._._.|.aXC.@ * = * = = - = = = = = = = = = = = = = = = = % = * > ; aX].~._._.^.^._._.~.~.).).~.~.~.~.].~.^._.`.`.}.E.,X;X;X .......o 4 6 % = $ O xXr.d.y.r.e.r.r.e.lX4.F I I I I K I -.) ( %.%.%.%.%.%.%.%.%.%.%.%.%.%.) ( =.%.%.@.$. .T ;X#X% $ > * = % 4 e k e e k e k 4 = - = = = = = = - = = * * > 1 2 2 > 2 # s s s s d d d d s s s s s p s s s p 5 6 6 4 4 4 4 4 6 6 6 6 = = 6 6 4 7 k e k e 7 6 6 6 6 6 5 2 2 2 , < < , * * = = * * , 2 2 1 5 5 1 5 5 5 5 5 5 5 5 5 5 5 1 2 < 2 , = , * , * = k k k 7 % * 2 2 , 6 < < < < 5 5 p p s p 1 5 : i i V V g R.|.~.).].].~.).).).).).)._.^.^.pX>X .W >.U G K J 0 % 1 % % = = - - = = = = = , > % 0 4X@.@.*.*.%.$.;X;X;X,X>X~.~._.)./.2X:XhXhX:X:X:X2XC.R.c.&X#.1.U G G J 4 = = = = = = = = = = = = = = = = = = = = = = > i aX].~.~.)._._.).).).).).).).).).).).).~.~.)._.dXdX<X;X$X .......O - 6 % < % o xXy.e.r.u.r.r.r.w.lX6.F U I I K L I $.*.) ) *.^ *.*.*.*.*.) ) ) ( %.%.%.%.@.@.%.( ~ ;.6.6.hXo & = = * % - 8 k e k e k k 4 % < = - = = > = = = - = @ C.pX/.~.~.).).~.].~.|.)._.aXV % 6 6 6 , = 1 1 1 1 5 5 5 p 5 2 2 s , p < 5 6 6 6 5 5 6 6 6 6 5 s % 8 ..............7 4 s s p 8 7 ............................M b b N N A A k % 5 6 6 % 8 , * 2 2 = = = = = * = = = = = = = = * < . f aX`.`.).).).).).).).).).).).).).).).).)._._.~.~.).~.|.aX; % = = = = - - = = = = = = = = = = = = = = = = = - - @ D.sX~.~.].].~.).|.R.E.gXgXhXhXhXhXgXgXhXhX$X .;X,X>XE.aXC.@ > < = = , * = = = = = = = = = = = = = = = = * = = : ; aX].~.).).).).).).).).).).).).).).).)._._.).).~.~.).~.aXg $ = - % = = = = = = = = = = = = = = = = = = = = * < . f aX).).).).).~._._._.).).).).).).).).).).).).).).).).).).",
"= = = = = = = = = = = = = = = = = = = = = = = = = * - @ D.sX~.~.~.).).).).).).).).).).).).).).).^.^.~.~.|.`.|.aXC.@ * = * = = - = = = = = = = = = = = = = = = = * , * : ; aX].~._._.^.^._._.~.).`._.~..X.X.X.X]._._.(.~.E.&X*.[ 8.t.zXnXhX+ o = , 2 $ X xXa.9.y.w.r.y.e.e.jX6.~ 6X:.L w q H :.` &.%.%.%.%.%.%.%.%.%.%.%.&.&.&.&.! ) #.@.! ] ] [ 1.$.+ % > > , 7 7 n J J L K J T 7 4 - * * - = = < * % * , < = = - * & , # d f f d d g d d d f g g f f f f f d s 7 7 7 7 7 7 7 7 7 7 4 4 O 7 7 7 0 J J J r + 7 7 7 7 7 4 = - * = = , , * * = = * = < 1 5 5 5 p 5 5 5 5 5 p p 5 5 1 5 5 2 > , , = = - % - % 7 b J J r 7 % - * % = = : % = < 5 5 5 2 1 5 8 < s $ X . $ C.aX`.`.|.].~.~.).).).).).).|.~.|.>X:.~ 2.` 2.rX<.0 X 3 * = = = - - = - = = , , > % 0 4X$.%.#.*.o.o.o.&.*.;X>X[.[. X(.>X4.e.9.9.9.q.u...V k.k.,X' ] 1.1.3.qX7 = = = = = = = = = = = = = = = = * = = = = = > i ].].~.~.)._._.).).).).).).).).).).).).).).).^.dX>X:.~ o.6.zXzXvXo o 8 # 2 > O xXp.r.r.u.r.r.r.w.jXtXQ 7X#.H 0 q L | :.*._ _ _ _ _ _ _ *.*.*.*.%.*._ _ ` *.@.%.2.' ' ' Y <.o , * * - X 7 b { J L L J x 7 X - * - = = > = = - - = @ C.pX/.~.).).).~.].~.|.).(.aXV % 8 4 4 = % , > > 2 1 5 5 5 1 p 1 s , p 5 5 5 5 5 5 p p 1 < < 1 5 X e 0.nXa.a.s.nXhX7 X p d i = + hXnXs.a.a.a.a.a.a.a.s.s.s.NX7 # @ ; @ @ $ : s s 2 5 % 6 % * = = - = = = = = = = = = = = = = * < . f aX`.`.`.).).).).).).).).).).).).).).).)._._.~.~.).~.|.aX; % = = = = - - = = = = = = = = = = = = = = = = = - - @ D.sX~.^.~.).).|._.R.2XvXp.p.p.r.r.r.9.r.p.7.8.Q 4X,XdXaXC.@ * , * = , * = = = = = = = = = = = = = = = = * = = : ; aX].~.).).).).).).).).).).).).).).).)._._.).).].~.).~.aXg $ = - % = = = = = = = = = = = = = = = = = = = = * < . f aX).).).).).^._._._.).).).).).).).).).).).).).).).).).).",
"= = = = = = = = = = = = = = = = = = = = = = = = = * - @ C.sX/.~.~.).).).).).).).).).).).).).).).^.^.~.~._._.].aXC.@ * = * = = - = = = = = = = = = = = = = = = = * , * > ; aX].~.~._.^.^._._.~.).).).^._.).).~.~.).).~.^.).>X:.o.P 6.u.u.hXo X & & & & o xXy.y.u.y.w.p.9.a.a.6.P *.:.G v v L >.( &.%.%.%.%.%.%.%.%.%.%.%.%.%.%.%.=.&.*.*.%.%.@.^ >.<.O $ 2 : > = X k N x z z G N 7 & 2 # = $ & $ & & * 1 < , , = - = - * 2 s d g f f d d f d d d d d d d d f f 5 7 7 7 4 4 4 7 7 6 6 % - = 4 8 7 0 N x N 8 4 4 4 4 4 8 6 & > = 4 = = * * * = = = = < 5 5 5 5 5 1 5 5 5 5 5 5 5 5 5 1 1 , , , , 2 = % 4 4 & % N G J 0 . & 2 & , % - - * 2 5 5 5 s p p 5 s 6 s , , 6 @ R.sX).|.).!.~.~.).~.~./.~.).`.(.{.>X| ) &.( W | <.u % 5 = % = , = = = = = = 3 & * o 0  .3.) =.-.^ -.X.<. .,XE.[.oXXX!.R.:Xu.6.6.6.6.kX:Xk.M.N.,X:.! &.) ( <.7 @ : p $ 1 % = = = = = * * = > = = = = = = = > ; E.].~.~.)._._.).).).).).).).).).).).).).).).~.|.>X| o.P 6.jXu.hXo X # & 3 @ o xXy.e.y.r.w.p.r.y.lX6.X.Q ,.G c v L -.( =.( %.*.*.*.%.%.%.&.%.@.@.@.%.( *.*.&.) @.^ -.) 2.<.O . * > = % % k N z x x x N 4 % , = = = = > = = - - < @ C.sX/.|.~.^.|.]./.].}.(.`.aXV % 8 7 4 o = > 1 1 p s 5 5 1 1 1 1 5 5 5 5 5 p 5 5 6 5 p p 9 1 s i % 7 hXzXy.q.r.lXcX+ % d i i < O xXa.r.r.r.y.y.y.y.y.r.y.a.xXe 4 p s s s p s 5 5 5 1 1 1 2 2 , , , , , , = > > > > , = = , , = 4 . f aX(.).^.^.^.^.^.~.~.~.^.^.^._._.`.`.).).~.^./.^._._. X].# & - = : : 4 - - = = = % % < = = = = = = = = = = = - . C.aX/.^.~.}.~.(.(.I.2XvX0.u.u.u.w.w.a.p.lX5.Q R -X,X^..XC.@ > , = = = = = = = , = = = = = = = = = = = = % = * : ; aX].~.).).).).).).).).).).).).).).).)._._.).).~.~.).~.aXg $ = = * , > = = = = = = = = = = = = = = = = = = = , . f aX).).).).).~.).).).).).).).).).).).).).).).).).).).).).",
"= = = = = = = = = = = = = = = = = = = = = = = = = * - @ C.sX/.~.~.).).).).).).).).).).).).).).).^.^.~.~._._.].aXC.@ * = = = = - = = = = = = = = = = = = = = = = * , * > ; aX].~.~.).^.^._._.~.).).).^._.).).~.~.).).^.^.).>X:.o.P kXlXlXhX+ O % $ % % + hXw.e.y.r.e.a.q.u.jX6.Q %.$.G v v L >.( &.%.%.%.%.%.%.%.%.%.%.%.%.%.%.&.*.) &.=.&.&.&.&._ :.O X = X % % 7 l N z z z c N 4 & * % 8 7 7 4 % = - % % * , , = = = * , 5 s s s d s d d d d f d d d d d f d 5 6 4 7 8 7 7 7 7 7 7 - = < 4 6 7 0 N z n 0 7 7 7 7 7 0 7 % * = , = = = = , , = = * < 5 5 5 5 5 1 5 5 5 5 5 5 5 5 5 5 1 1 1 2 1 2 , * = % * - B B B e O 4 = $ * < - = = , < 1 < 1 5 p 2 5 , 8 > 2 < ; C.].R./.sX X X X X X X}.}. X}.(.}.>X .! &.( -.$. .+ % 1 * % = = - - - = = = % = 7 7 j  .4X#.^ &.( >.^ >.;X,X>XE.!..X.XE.1XhXi.w.e.i.hX:XV C.Z.&X:.! ( ( &.,.+ X 7 6 . 3 & < * * = = - = = , = = = = = = = > i E.].~.~.)._._.).).).).).).).).).).).).).).)._._.>X:.&.Q 6.lXs.0.+ O - % & . o xXp.r.y.p.a.a.9.t.kX6.o.%.,.G v t L -.( =.( *.*.*.*.%.%.%.&.%.*.( ( ( _ %.%.&.*.@.#.-.%.>.<.O 4 4 4 7 O 7 k N l z x x N 4 % , = = = = > = = - - - @ C.sX~._.~._._._.).|.}.~.`.pXV % 7 % p : < . - % $ - 1 5 < 5 5 5 5 5 5 5 5 p p p 5 6 5 5 6 4 6 6 7 e 0.s.a.lXlXhXhX7 7 8 6 8 4 + hXxXa.lXlXlXa.p.a.a.a.a.lXxXe % < 8 6 6 2 2 1 1 1 < 2 2 , , , , = = = = = = - - = = - = > > > < @ f aX(.).).).).).).).`.`.`.`.`.`.`.).~.^.^. X|.|.|.`.`. XaX# - - = * > = = & $ * = * * - * = = = = = = = = - - * @ D.sX~._._._.^.dXaX>X2XhXjXr.e.q.r.r.q.q.u.5.$.| =X,X>XaXC.@ , , - = = = = = = = = = = = = = = = = = = = % = * : ; aX].~.).).).).).).).).).).).).).).).)._._.).).~.~.).~.aXg $ = = * = * = = = = = = = = = = = = = = = = = = = , . f aX).).).).).~.).).).).).).).).).).).).).).).).).).).).).",
"= = = = = = = = = = = = = = = = = = = = = = = = = * - @ D.sX/.~.~.).).).).).).).).).).).).).).).^.^.~.~.`._.].aXC.@ = < = , = - = = = = = = = = = = = = = = = = - , * > ; aX].~._._.^.^._._.~.).).).^._.).).~.~.).).^.^.).>X:.o.P 6.u.u.xX~ 2.2.3.3.>.P xXr.w.w.y.u.t.O.X.%.=.^ =.#.G t t L ,.( &.%.%.%.%.%.%.%.%.%.%.%.%.%.%.%.@.@.@.%.%.@.W ( ) ,.t b N H J J r n c z z M z N 4 % % 7 B n n N N N k 6 = < - - - = - % * , < 1 > 5 p p s d d d d d d d d d s 6 7 7 e n m c c c x l 7 7 7 7 7 7 0 n z J l b n m N N N e % - % % * , , < < < , = * < 5 5 5 p p 1 5 5 5 5 5 5 5 5 5 5 5 5 5 5 5 5 5 5 8 7 7 7 7 4 = 8 k N b 7 % < & * = , = = = = % 6 % < = 6 > 1 6 * > p $ p E././.!.~.~.!.E.R.R.|.).).>X .! &.) ( #.<.u % < % = = = = - * * * * 9 3 3 $ $ % % O R >.:.>.^ 1.[ ) &.$. .,X].!.].].(.(.`.`. XXX(.}.>X&X:.=.` ^ ! &.2.>.6X .7 4 % % = = = = = > , , , = , , = = = > i aX].~.~.)._._.).).).).).).).).).).).).).).).).`.>X:.! ~ 6.jXt.xXP =.6X3.6X2.=.jXe.q.u.e.u.t.O.X.-.&.! _ ,.G z z L -.( =.( *.*.*.*.%.%.%.&.%.*.-.&.( *.@.@.%.%.#.#.-.! =.<.r b N N N B b N J z M n z N 4 % = = = = = > = = - - - @ C.sX/.~.~._.~.~.~.].]./._.aXV % a a E.].aXR.: = < 5 s p 2 p p p 5 5 5 5 5 5 1 1 1 5 5 5 1 1 i i i @ 8 % @ $ X $ s @ p p p i s @ s = X X % $ # $ ; ; $ $ # : s i i p 2 5 1 2 2 , , , = = = * = = = = = = = - - - = = - - = = = 4 . f aX/.^._.).).^.^.^.^._.`.).`.).).~.~.).).~.~.~.~.~.~._.aX; - 4 = * , , = , = < < = = = = = = = = = = = = - - - @ D.sXE./.E.E.>X1XvXw.9.p.p.w.r.e.jXkX-./ =.) / ^ ! ! ( <.J X 4 = = , = = = = = = = = = = = = = = = = = = % = * : ; aX].~.).).).).).).).).).).).).).).).)._._.).).~.~.).~.aXg $ = = * = = = = = = = = = = = = = = = = = = = = = , . f aX).).).).).~.).).).).).).).).).).).).).).).).).).).).).",
"= = = = = = = = = = = = = = = = = = = = = = = = = * - @ D.sX~.~.~.).).).).).).).).).).).).).).).^.^.~.~.`._.].aXC.@ = < = = = - = = = = = = = = = = = = = = = = - , * > ; aX].~._._.^.^._._.~.).).).^._.).).~.~.).).^.~.).>X:.o.~ 6.u.q.kX~ 1.1.) ] ] ~ jXr.r.r.r.u.jXX.U / _ ( =.$.G t l H <.( %.%.%.%.%.%.%.%.%.%.%.%.%.%.%.%.%.%.%.&.-.&.%.=.! $.t l M M z m m m c c n z c N 4 = % 7 N m H J v J k O % = - - = = = & & * - * * 5 5 1 s f f f d d f f d f d 5 7 7 e N J H H J { b 7 7 7 4 7 7 0 N z J x m J J v m N 0 4 4 6 5 > 2 < 5 5 5 < , > < 5 5 p p p 1 5 5 5 5 5 5 5 5 5 5 5 5 5 5 5 p p 5 8 7 7 7 % # . k N J n 7 X = * - , = * = = % % 8 * = $ % > s 5 8 X % . : aX|.].|.}.).).|.].~.|.|.~.>X .! &.&._ ,.<.u X * * 5 = = - - * * - = , > 2 2 > > & X Y 1.*.*.X.*.&.) ) _ %X,X/.(.(.(.(.!.(.'.Y.].].dX,X;XR ( >.' >._ ) ) 3.I O % % * = = = , = = = = = = = , = = = > i E.].~.~.)._._.).).).).).).).).).).).).).).)._._.>X$.! P 6.lXu.u.8.o.&.%.%.W X.lXr.r.y.e.u.kXQ Q ^ ` ` =.,.G x z L -.( =.( *.*.*.*.%.%.%.&.%.*.-.*.*.-.@.@.=.=.%.*.) ) ) >.G J J c c m z x v t z z c N 4 % , = = = = > = = - - - @ C.sX~.^.~.).).`.`.`.|.~.`.aXA O 7 4 dXsXsXM.@ - < 1 5 2 1 s 5 5 p p p 5 5 5 5 5 6 6 5 5 6 6 2 p d i s 2 s d i ; i p f 5 s 2 d i i ; i : i i i 2 2 i 2 > 2 1 1 2 5 5 4 4 6 = * = = = * * * * = = = = = = = = > > > > - = = = - 4 @ g aX(.[.[.[.[.`.).^.^.dX^.^.^.~.~.~.~.`.`.(.~.|.|.|.|.).].; % 6 * * = # > = % = % % * * , = = = = = = = = - - - . D.sX/.}.{.(.R.1XxXp.9.r.y.q.r.9.p.u.X.~ W @.#.$.@.! ! ;.{ o 4 4 = , > , = = = = = = = = = = = = = = = = * = * : ; aX].~.).).).).).).).).).).).).).).).)._._.).).~.~.).~.aXg $ = = * = = = = = = = = = = = = = = = = = = = = = < . f aX).).).).).~.).).).).).).).).).).).).).).).).).).).).).",
"= = = = = = = = = = = = = = = = = = = = = = = = = = - @ D.sX/.~.~.).).).).).).).).).).).).).).).~.^.~.~.`.).~.aXC.@ * < * = = - = = = = = = = = = = = = = = = = * = * > ; aX].~._._.^.^._._.~.).).).^._.).).~.~.`.`.^.^.).>X:.o.8.t.zXlXjX} $.$./ #.#.O.jXp.p.p.r.a.jXO.O.%.&.=.%.$.G z l J ,.( &.%.%.%.%.%.%.%.%.%.%.%.%.%.%.&.&.=.=.&.=.1.=.2.3.>.G z l b l b n c c m m z c N = = % 7 N z v v N T k 4 = < - * = = = - * - - * 2 p p p d f f f f f f f f f f s 6 4 0 b n l l l n e 7 7 4 4 4 7 0 N l m z z v v N N N e % % % % , 2 1 5 5 5 2 > * 2 1 1 5 5 p 5 5 5 5 5 5 5 5 5 5 5 5 5 5 5 5 p 5 # - X O 8 $ 1 % k J H l 7 . & * = , , * - , * * 8 . - X % > 2 2 d > 5 2 f sXsXsXsXsXsXsXsXsXsX!.|.).>X%Xo.%.*.#.:. .u o - $ & > > = = - = = = = = = = = 6 4 O K -.#.*.^ -._ _ :.%X,X>X~.XXXXXXsXsXsXsXsXsXsXpX>X<X/ / %.@.-.%.X.@.,.K O - * > > > > = = = = = = = = = = = = > i aX].~.~.)._._.).).).).).).).).).).).).).).).).~.>X| o.X.kXlXlXjXO.&.! ! ! ( X.lXp.p.p.r.a.jXO.O.%.&.) &.-.D z t L -.( =.( &.*.*.*.%.%.%.&.%.*.%.^ _ *.&.=.1.&.=.>.=.2.1.:.G v c z c m m c H G z c c N 4 % , = = = = > = = = - = @ C.sX/.~.~.~.~.).`.`.|.~.`.aXV % % : E.aXaXC.. . X $ # > < 5 5 5 5 5 5 p p p 5 5 5 5 5 5 6 6 6 6 8 6 4 - 6 5 s 8 6 6 6 % 8 6 5 5 5 5 s 5 s 5 p p p p 5 6 5 p p p a p p i p 2 > * * * = = = = = = = = = = = = , , , , = = = , > 2 $ g aX!.[.[.`.`.[.`.`.`.`.`.`.).~.^.^.^.).`.XX}.|.|. XXX}.|.; % < * & * # 1 & . & X % = & * * = = = = = = = = - - @ D.sX(.{. X).R.2XvXw.i.u.u.w.s.w.a.a.O.@.%.=.>.=.] ) ] >.J o 4 4 = , > , = = = = = = = = = = = = = = = = * = = : ; aX].~.).).).).).).).).).).).).).).).)._._.`.).~.~.).~.aXg $ = = * = = = = = = = = = = = = = = = = = = = = = < . f aX).).).).).~.).).).).).).).).).).).).).).).).).).).).).",
"= = = = = = = = = = = = = = = = = = = = = = = = = * - @ D.sX/.~.~.).).).).).).).).).).).).).).).~._.~.~.`.).].aXC.@ * = * = = - = = = = = = = = = = = = = = = = * = * > ; aX].~.)._.^.^._._.~.).).).^._.).).~.~.`.`.^.^.).>X:.o.Q ;.6.5.6.W &.! ) ) ) o.6.5.5.5.5.5.6.P Q / &.=.&.#.G z z L ;.! &.%.%.%.%.%.%.%.%.%.%.%.%.%.%.%.@.-.$.I I I I I I I t c v J c c x x c N m z c N = > % 8 N n n e 7 e 6 % % = = = = , , = = = - = = 5 6 < 5 p p p s p p p p p s 6 8 7 e N c c c c x x 0 e k 0 7 7 0 N l n z m H N e k k 8 = 5 5 5 1 1 1 1 < < , , * , < 2 < 5 5 5 5 5 5 5 5 5 5 5 5 5 5 5 5 5 5 5 p 4 l c H N X # % 8 k e k k e k 6 * * , * = < , # 6 X k N N k % = 5 % = $ 2 C.k.V V V V V k.k.k.I. X).>X%Xo.-.*._ / #.E G J k % = = = = = = - - * = & * * 9 < X K 4X#.#.( &.o.! ) / :.;X&X,XA.V V V V V V C.C.V C ;X:.%.o.Q o.W o.^ 2.R O 4 6 , , , = = - - - - = = = = = = = > i aX].~.).)._._.).).).).).).).).).).).).).).).)._.>X:.&.Q ,.5.5.5.U @./ #.#.:.@.6.5.5.5.7.5.6.X.@.^ W ! ( :.G c z L -.( =.( &.*.*.*.%.%.%.&.%.*.*.@.*.#.^ %.@.Y I I I I I } z x n z z z z z v v x x c N 4 % , = = = = > = = = - = @ C.sX/.~.~.^./.]././.].].).|.D.k.C.k.V V k.k.k.V k.k.k.C.g ; 1 < 1 1 1 1 1 1 1 1 9 1 i i i p p 1 p p p p p p , < 1 p s > s 2 s s 1 , 5 < 1 s 5 1 1 5 < - = 1 > 1 1 < = - - - - = = = = = = = = = = = = = = = = = = = * = = , = < . k 1X;X&X;X;X&X>XdX^.)._._.`.`.).~.^.^.).^.>XA.A.A.R.pX|.aX; % 6 = - = = k e 0 e e k k 4 = = = = = = = - = - - - @ D.sX/.>X&X;X .9Xa.9.r.a.r.y.t.5.6.wX' ' ` _ _ _ $. .;X&XA X 4 = = , = = = = = = = = = = = = = = = = = = * = = : ; aX].~.).).).).).).).).).).).).).).).)._._.`.).~.~.).~.aXg $ = = * = = = = = = = = = = = = = = = = = = = > = < . f aX`.).).).).~.).).).).).).).).).).).).).).).).).).).).).",
"= = = = = = = = = = = = = = = = = = = = = = = = = = - @ C.sX/.~.~.).).).).).).).).).).).).).).).^.^.~.)._._.].aXC.@ * = * = = - = = = = = = = = = = = = = = = = % = * > ; aX].~.)._.^.^._.).~.).).).^._.).).~.~.`.`.^.^.).>X:.) ] ' ' ~ _ / >.#.@.#./ / ` ' / / / U >.' >.>.>.` =.:.G z z L ,.! &.%.%.%.%.%.%.%.%.%.%.%.%.%.%.%.W -.| G l l l e r b l n b N z z x z x m z z G N 4 = % 7 B x b 7 % = - * & - = = * , , = = = = = % = - % - - % - - % * < < 6 6 4 7 O 0 N x z m M m J n N N e 7 7 0 N l n l n x B % * 1 2 > p 5 5 5 1 2 , , , = = * , , * , 1 5 5 5 5 5 5 5 5 5 5 5 5 5 5 5 5 5 5 5 7 R 7X7X4X7 * & & & . % k J { e * % , - * , = , 7 7  .6X6X .+ 4 = 8 8 9 - $ .           o   . C.pX}.>X%X! &.) -._ 3.2.2.eXT O = - = = = = = = * = * = = = 6 O Y 2.! %.%.@.$.$._ ` ) ! &.o.y + + + + + + + + + + } $.&.&.( >.*.$./ ,.I O * * > , , = = = = = = = = = = = = = > ; E.].~.)._._._.).).).).).).).).).).).).).).)._._.>X:.1.Q ( ~ ~ &.! 2.` >.` ` ` ' ' ' ' / / _ Q >.>._ =.%.:.G z z L -.( &.( %.*.*.*.%.%.%.&.%.*.*.*.>.$.^ #.| D t l 0 r q z l b n n m m m n m J n n c N 7 % , = - = = > = = = - = @ C.pX/.~.^._.`.`.).~.|.).`.}.pXpXsXaX6 o X k sXsXsXsXsXsXT.; 2 2 , 2 2 1 1 5 5 5 5 5 5 5 p 5 p p 5 5 5 6 < < 5 s 5 5 1 1 5 s 6 6 p 5 p p 6 6 5 5 6 6 5 , < 1 , 1 > 2 > > 2 = = = = = = = = = = = = = = = = = * * - - & * = = = 4 o q ,.) ] [ ) *.;X>X>X^.^.^._.`.).~.~.).).^.#XB l k A.dX^.aX% X 6 , = % O b J G J J J N 7 4 = = = = = = - = - - - @ D.sX/.>X:.&.Q 6.u.q.q.r.y.jX;.Y ~ ! ^ ,.@.@.#.:.*X>X`.XXC.$ , , - = = = = = = = = = = = , , = = = = = = % = = , ; aX].~.).).).).).).).).).).).).).).).)._._.`.).~.~.).~.aXg $ = = * = = = = = = = = = = = = = = = = = = = = = < . f aX).).).).).~.).).`.).).).).).).).).).).).).).).).).).).",
"= = = = = = = = = = = = = = = = = = = = = = = = = = - @ C.sX/.~.~.).).).).).).).).).).).).).).).^.^.~.~._.).].aXC.@ * = * = = - = = = = = = = = = = = = = = = = % = * > ; aX].~.).).^.^._._.~.).).).^._.).).~.~.`.`.^.^.).>X:.o.o.o.1.o.&.( 1.) ) %.@.-.! &.@.$.>.W =.^ @.@.%.! %.$.D t z J ,.( *.%.%.%.%.%.%.%.%.%.%.%.%.%.%.%.^ ,.| G v N n x n m c H v H z J m z x n z z G N - & X 8 N J N 7 % % * < - - = - - = , = = = = = , , * * , # & * = % * 5 p p 5 6 7 7 e N x z m t t m v N n 0 7 7 u N z m z m m B 4 # p i p s p 5 p 5 , * * * * = * = , * * , 5 5 5 5 5 5 5 5 5 5 5 5 5 5 5 5 5 2 9 X L >.#. .O X 4 % = % 7 B m M k 4 % = - % = * * % + { -.>. .o 6 $ p i 1 8 # < < < < , < 5 5 i k.pX X>X .! =.( :.U &.! ! ,.J o - - = = = = , , = > * < > # > X K ,./ *.) ) @.@.-.@.%.^ 2.4XN 7 7 7 6 8 8 8 8 7 +  .4X/ ` ) &.&.&.W 2.R O & & & , , = = = = , , = * = = = = = > ; E.].~.)._._._.).).).).).).).).).).).).).).).).).>X| 1./ >.&.&.%.^ >./ @./ =.&.-.%.W =.%.^ -.%.^ ^ ( &.&.-.G t t K -.( =.( %.*.*.*.%.%.%.) %.*.( ( =.( ( ,.| D z N l N z c v c z M c z x x x c n n c N 7 X < = = = = > = = - - = @ C.pX/.~.~._._.|.~.~.}.`.~.}.).(.`.aX4 4 7 V aX(.`.).!.aXC.@ * * - , 2 2 p 1 5 5 5 5 5 p p p 2 p 1 p p p p s 2 s p 1 5 8 , 5 5 6 s 1 2 s > 1 1 1 1 1 2 2 2 1 * = X % = % = = = = = = = = * * = = = = , , , , = = = = * * = = > < X k 4X^ &.) ) :.&X>X).{.).)._.).).).~.).`.^.>XC l l Z.pXXX|.# . > > * % O b N t z z N b 7 % - - = = = = = = = = = @ D.sX(.>X:.o.Q 6.lXe.w.w.d.a.6.W =.1.@.@.@.@.` >.4X;X/. XC.@ > , = = = = = = = , = = - = = , = = = = = = % < = , ; ].].~.).).).).).).).).).).).).).).).)._._.`.).~.~.).~.aXg $ = = % = = = = = = = = = = = = = = = = = = = = = , . f aX).).).).).~.).).).).).).).).).).).).).).).).).).).).).",
"= = = = = = = = = = = = = = = = - - - = - - , , - 4 - @ D.sX!.!.].).).).).).).).).).).).~.~.).~.~.^.].^._.`.|.aXC.@ 8 * % 1 , * = = = = = = = = = = = = = = = = * % , # ; aX].|._.~.|.|.~.].].~._._.~.).`.`.`.).dX/._./.dX>XR 1.W -.&.( =.&.W %.-.&.) &.@.%.%.&.&.&.%.%.%.&.) %.-.| G t t G | $.%.%.%.%.%.%.%.%.%.%.%.%.%.%.%.&.( -.| G v N z z M m x x c x z r z m b b x x m N 4 X 7 0 b N B 0 % * = & * , > > > * % - . 9 = % , > 3 @ % 6 . & & 3 & 1 1 p 6 7 7 7 e N n z m z m x l N b e 7 + 0 n b J v N N b 4 . 2 2 # s 5 5 s 3 * 6 . 2 @ 3 & @ > . s @ s 2 1 p 5 5 p p p p s p p 2 s s % 8 % 7 G :.2.:.O * > * - X O B N N e X 6 * = 5 $ & % o + J <.<.L + O 6 $ 9 s p , % = * = , > 2 > i R.pXaX#XeX` / *.! =.&./ &.:.J + X < . & < % 6 % % , = = = & - o K 2.( ( -.^ *._ *.*.) &.( ,.m O 7 7 7 7 7 7 7 7 +  .,.( -.%.%.%.@.W 2.R O - & , 6 4 , * - = = = = > , = = = = , ; aX].!.pX`.^.~.).).).}.].].].).|._.|._._._.|._.pX>XR &.! =.=.) o.&.-.>.&.( ) ! %.%.&.&.%.%.@.@.-.) ( -.#.| L t D L | $.*.^ ( *.&.&.%.%.%.%.%.&.=.&.( ( W *.$.D M n n x c c n n n n n m n m c v c c B k 4 % & % % 6 6 * * - - - - @ C.aX!.).~.|.~.^.|.|.^.~.~.~.~.^.].E.h @ 6 Z aXsX}.XX X].D.i i # > * 6 5 # s p 5 5 5 5 5 5 5 5 p p p p p 1 1 p p p p p p p p 5 5 5 5 5 5 5 5 8 5 s p 1 < 6 = $ , . - X   < . % * = = * * = = = = = = = = = = = , % 2 2 # > $ % X X r | >._ *.o.:.,X>XdX^.oXoX`._._.`.XXoX(.pX>XC V V R.dXpX].i 3 # : : ; 2 k b M z M n k 7 % 2 3 $ > < * = * = * & ; D.sX'.dX;X_ ~ 6.y.r.a.q.a.lX6.o.W *.#.=.! ! #.| ;X&X>XaXC.@ p = * 3 > # = 4 = * = , = - = = = = = = = = = = * 2 ; aX].~.].].[.[.^.^.{.[.[.[.(.). XXX`.}.}.).^.^.~.~.~./.aXg @ i $ 1 . & $ . % 6 . & 2 , % 6 = = * * < . 4 = % 2 @ g aX~.].|.{.}._.|. X!.~.pX~.|.~.)./._.~.^.^.^.).).)._.).).",
"= = = = = = = = = = = = = = = = - = > > - - = = X - - @ C.pX~.|.).~.).).).).).).).).).).).~.~.).~.^.^.^._.`.|.aXC.@ , = * < * - = = = = = = = = = = = = = = = = > > 1 # ; ].^.(.`.`.`.`.~._._._.^.^.].~.~./.!.(.~.!.[.{.[.R.l D D } $.W ( -.%.*.=.) ) ) &.) ) ) &.%.@.@.@.) ) ) &.-.@.*.*.%.=.) &.%.%.%.%.%.%.%.%.%.%.%.%.%.%.&.W -.| G z m z m z x z z x m m m c N c c c c m N b b B k 4 - 4 % 8 s 5 6 6 5 2 > , = = 6 % 6 1 1 5 6 s 7 G 4X:.3X7 8 6 s 5 p 1 8 7 7 e N m z c z N l 7 7 7 k b N l J n n 0 6 7 0 4X:.4XJ 7 1 2 2 5 7 c <.@.,.L J H I ,.$. .0 7 % , 5 1 2 1 1 2 p 5 5 5 2 5 7 0  . .$.*.2.) $.O 2 5 1 = % % B b N 8 . * * % 4 O e 9X:.^ 1.] ] 2.-.$. .k 6 4 6 , 5 < < < < < = = * $ 2 2 7 | o.%.-.! &.-.-.=.2.:.U >.4X0 X 4 % - < * , * * * * < X K 2.&._ -.^ *._ *.*.) &.( ,.m O 7 8 7 7 7 7 7 7 +  .,.( -.%.%.( &.( 3.R O * * > , , , * = = = = = = = = = = = , ; aXaX!. X(._._._._.~.~.].~.~.^._._.`.|.).).].~.{.R.c D D I | / @.%.$.:.$.@.%.@.@.%.%.) %.%.@.@.&.) ) ) =.-.$.| | $.#.-.&.) ) &.&.%.@.@.%.%.%.&.%.) ( *.( -.$.D c m m c c G c m c c c c z n n z m m J N z x c l 7 4 4 - * = - = 2 ; D.sX).`.`.`.`.).).).~.].|.).pX`._.pX].].aXR.7 7 7 k x m J r N r M r b k 4 6 = * * = = = * > , < 1 1 1 1 1 1 5 5 5 5 p p 5 5 5 1 1 1 1 1 1 < = = 2 , % * > ; R.aX|.|.~.].pXk.; * , = * * = = = = = = = = = = , < * 6 < % 4 O %X:.$.#.2.=.! ! o.o.$.:.$. .>X>XE.E.E.E.>Xz.B N m v y y z c N N t y y M m z t H v v v c H m x l B k 4 = 6 = 6 % = - O + K 6XR $.jXy.9.y.a.u.t.O.P %.( ! =.>.#.:.:.;X>X/.^.`.`.XXC.@ 1 = < * * = = = = % * = = - * * * * * > > : > , > i i ].].).~.~.^.>X%X_ ) ) ` ' %X;X>X/.!.!.}.}.}.}.}.}._.^.aXg $ 7 u  .:.>.,.>.>. .7 = > * * , & > 2 * 6 = > > 2 1 ; g aX/.^.^./.>X&XR >.;X>X|./.|.(.}.!.).].]._._.}.}.|._.).).",
"= = = = = = = = = = = = = = = = = > > > - - = = - - - @ C.|.(.)././././.~.~.~.~.~.~.~.~./.~././././././.!.!.~.].C.@ # = < , % = = = = = = = = = = = = = = = = - & * 6 $ ; aXaX~.}.}.~.~.]./.^.].].}.].].^.dXpXpX^./._.~.|.E.x D w } <.^ ( =.%.^ %.%.@.@.@.@.@.%.&.&.%.@.@.@.%.&.! ) &.1.1.&.) W &.%.%.%.%.%.%.%.%.%.%.%.%.%.%.&.) >.| G z c c J H c n x x x z m n x c c m z z v t m J k X . 3 1 2 1 5 5 p p 2 & & < = 5 = 5 p s 1 2 9 O L 3.2.4X7 5 i s 5 p 4 7 4 O e N m v c z n k 7 7 7 b N c z v G N s > 3 7 6X2.7XL % 3 2 p > 7 G 3.1.,.D v t K 3.2.qXu X % < 5 5 1 5 1 1 5 1 2 s p 5 7 0 9X2.1.) ) W  .4 1 p 5 = % O b z m k % = < * - O q 6X1.) 1.o.W -.&.2.6X0 X % 2 2 s 9 p 5 5 < = = - % X . o | =.) / _ _ #.#.! ! &.2.] ,.0 . 9 & & * 4 7 = 6 % 4 , O I >.&.( -.^ *._ *.*.&.&.( ,.m O 0 7 7 7 7 7 7 7 +  .,.( =.) &.) ) ) 3.I X & < 2 > > , > = > = * = = = = = = = 2 ; E.].!.~.!.].~./.~././././././.^.~.].].~.~./.!. XR.k r t I :.>.! ) _ _ _ *.%.*.%.%.&.&.%.%.@.@.@.) ) ) ) ) =.=.-.-.( ) ) ) ) ) &.%.@.@.%.%.%.%.@.@.( =.&.#.| D v n n n c c n x N m c c c x z m v v z z n N J n 7 6 4 4 = = - - X @ C.aX/.~.!./.)._.~.!.~.]./././././.^.|.pXpXC.o + + r v t G G H H J H J B % # , * * = = = = , , , , 1 5 5 5 5 5 5 5 5 5 5 5 5 5 1 < < < 2 , , , > = - X - % ; R.sXsXXX_.sXaXg ; * = = = = = = = = = = = = = = % = = , 2 2 - O <.3.2.1.1.! ! =.*._ ! [ [ #.>X^.[.[.{. XdXC t t z n M M t t t t H H H J J J c c c c z z z c H J { l 4 % & & < 2 2 i = O I 3.! o.a.p.w.e.e.u.kXP W ' ' ` =.&.! @.| ;X].[.[.(.!.aXC.@ 2 * 9 * - 6 - = = * = , = = = = - = = = = = - = % % : aX].~.).).~.>X%X) o.! ! #.%X,XE.].|.|./././.~.~.(.~./.IXh # 4 u ,.3.] ] ] 3.$.+ X % 6 6 6 , , 1 # * - = - - - . f aX`.XX[.(.dX&X/ [ 1.>X^.R.dX!.]././././././././.~.~././.",
"= = = = = = = = = = = = = = = = = = = = = = = = < = * : R.sXsXsXsXsXsXsXsXsXsXsXsXsXsXsXsXsXsXsXsXsXsXsXsXsXsXsXC.; : > < * * < = = = = = = = = = = = = = = = = % = 6 : i ].sXXX[.XX[.oX[.oXoXoXoXoXoX[.oXXXXXoXsXsXsX`.pXE.C J D | 3.2.1.2.2.1.( ` ) ) %.%.( &.&.&.&.%.%.@.@.@.*.*.( ^ ^ @.#.#.@.%.%.%.%.%.%.%.%.%.%.%.%.%.%.%.@.$. .t r z l b b l b b r r r r n r z x z n z c c J J l 4 # , 1 5 p 5 p 2 # % $ . & . * : 1 p p 5 p 1 % G ,.$. .X $ 3 3 3 s = 6 7 7 e b c c G c z e 7 O O k b x J c J N 8 % $ %  .X.-.t % p p p p 4 v <.^ $.r b r J $./ 4X0 % 2 < 5 5 5 5 5 1 p 5 1 p s s % 0 %X| ^ @.%.-.4X7 2 p 5 = 4 7 b H { e % X = & & . 0 4X) Q @.@.$.@.Q ! ,.0 X 2 1 > 1 p p p 5 < , * = 5 1 3 %  .=.) ( =.^ #.*.! ! =.>.2.4X0 . < = % = 4 , & & . & .   } -.*._ *.@.&.*.*.*.&.&.( ,.m O 7 7 7 7 7 7 7 7 +  .,.( =.) &.%.@.@.,.K O o - . & = , , = > = * = = = = = , 2 i h aXsXsXsXsXsXsXsXsXsXsXsXsXsXsXsXsXsXsXXXsXsXsXsX>XB c v | -.2.1.1.2.*.=.1.) _ %.&.&.) &.&.@.@.@.@.%.%.( ( ( &.) ( ! ( ) =.&.( %.%.@.%.%.%.&.%.*.*.( *.%.$.| D t z l l r r l l l k l x x z z N m c c x n n n l 7 8 6 4 , , = = , i D.sXsXsXsXsXXXXXsXXXXXXXXXXXXXsXsXXX X|. XD.$ 7 7 b N c z c l z v l N k . . & & & & $ $ $ & 2 3 3 2 1 1 p 1 5 5 5 5 5 5 5 5 5 1 < < < , , * < = = - - - = ; E.sXsXsX XsXsXg ; * = = = = = * = = = = = = = = 4 6 , $ $ & . o  .#.@.Q W %.%.*.#.#._ ) _ ;X>X`.XXXX(.XXpXA.B N n n x x m m m c c c x x x n x l x c n n l r z x N e X . . $ & @ . $ . X G <.W O.jXe.e.r.r.lXlXO.o.&.( ^ @.o.! ) 2.-XdXsXsXsXsXsXA.: 2 @ = . . . & > > 2 , 2 2 > , , = = - = * & & & # ; i .X{.[.oXoX[.^.&X:.X.O.@.| ;X>X^.XXXXXXsXsXsXsXsXsXsXsXsXh ; X +  .$.W ( #.<. .O . & & . . $ . & * = 4 % , % % # V sXsXXXXXoX_.>X;X' ;XE.{.[.sX[.XXsXsXsXsXsXsXsXsXsXsXsXsX",
"= = = = = = = = = = = = = = = = = = = = = = = = = * * ; g C.C.k.k.k.k.k.k.k.k.k.k.k.k.k.k.k.k.k.k.k.k.C.k.k.C.C.g : < * , * , < = = = = = = = = = = = = = = = = , = , > i V C.V Z.>X,X,X,X>X,X>X,X#X,X,X,X,XR.V k.k.Z.Z.#XZ.l x v K I I I I I I / *.&.( &.&.( &.@.@.%.&.&.&.%.%.&.&.&.) ) ) &.&.%.%.%.%.%.%.%.%.%.%.%.%.%.%.%.%.%.*.$.I I I H z z z K I K I K K { v z x x n c N k k e 7 = > 1 1 p s p s 2 = e l l b % 2 2 1 5 5 6 5 s 7 L 6X>.:.G z N k 4 8 4 e e e e n x x c c m z e e 0 b n J B k k k k B B j <.%.,.G 7 s 1 2 s 7 v ,.-.>.G J v I >./ 9X0 % , 2 1 1 1 5 5 1 5 p 5 1 2 1 4 0 %X:.:.*.*.=.4X7 > 5 2 & - % k e e 0 e 0 k = = $ 0 4X=.=.=._ _ =.] ) qX0 . = 6 = 4 6 5 5 5 2 2 2 2 = = # 7 $.&.&.-.&.W @.*.=.>.| G K J 7 % = = < = * & & = 7 B l t U -.*._ *.@.&.*.*.*.&.&.( ,.m O 7 7 7 7 7 7 7 7 +  .,.( =.) &.%.@.@.>.U w l b 7 % - = = = = = = = = = = = = = , : V C.k.C.k.C.V C.C.k.k.k.k.k.k.C.k.k.k.V k.A.#XZ.Z.B J z K I Y U I I I U -.( *.%.%.&.&.) ) &.%.@.@.@.*.*.*.%.%.( &.&.*.*.%.%.%.%.%.%.%.&.&.&.&.*.*.( &.%.#.$.I I { H z l z K K I I I I K G z n n n n n x m c z 7 8 7 4 = , * = = # g C.k.k.k.C.V A.Z.Z.Z.Z.Z.Z.C.k.C.k.A.#X#XC 0 e 0 q m c z c z H c v m l 0 e e 7 8 e 0 0 0 s 6 = = < < 6 1 2 < < < < < < < < 1 < < < 2 , * % * % * * * > > ; C.C.k.C.k.C.C.d # * = = = , = * = = = = = = = = = < < % 7 B l w $.>.*.@.&.=._ / %.&.o.o.&.:.;X,X&X;Xx.Z.#XB z v M v v v z z t z c c c z t M m M c c m m m x x z B b e 0 e 7 0 7 0 b l w U -.W O.lXw.y.i.+.6.6.W ! W ^ #.#.*._ ` 2.R V k.C.k.k.k.g : < X k l b k % * > > : , > > > > > > , , > * % e B j B &X,X,X,X>X>X&X:.` o.o.&.( #.4X;X,XZ.V k.k.k.k.k.k.k.k.A Z B w D <.$.>.>._ =.$.t l l j r l k X - < = * # > , 2 * s C.k.V #X&X;X .$.@.$.;X,X<X>XV k.C.k.k.k.k.k.k.k.k.k.k.k.",
"= = = = = = = = = = = = = = = = = = = = = = = = - - - . $ . . .                                               . - X - - - % < * = = = = = = = = = = = = = = = - - & - - $ % o o D O.[ [ [ [ [ [ [ [ [ ) ! -.L + o o 0 t t D y D r b l l r r r q } $.#.^ @.@.@.@.@.@.%.&.&.&.%.%.%.^ &.&.) &.( ) &.%.%.%.%.%.%.%.%.%.%.%.%.%.%.&.&.=.1.) 2.2.I G H L -.2.] 2.=.>.$.G c M z x z N X . % = 2 5 s s 5 p 2 p 1 7 I 6X6X .7 8 s 1 s 1 2 1 p % v ,.W ( 2.2.3.I + 7 7 n N c c N c z x c m J m { N N v x k % , 7 K 6X6X2._ ^ ,.G O p 2 9 9 % t ,.! #.t l q K >.W <.u % > 2 p 5 1 p p p p 6 p s 2 5 7 0 4X/ *.! ! ) <.4 2 p 2 & * @ , % . e J J J 7 % % 0 <.! ! -.#.*._ ( ! 6X0 . * = 4 4 = < 5 5 1 1 5 5 8 8 2 7 <.1.( _ -._ _ / ) :.J o   . $ > 2 = < & * * - 7 q 6X2.3.W -.*._ *.%.) =.*.*.&.&.( ,.m O 7 7 7 8 7 8 8 7 +  .,.( *.%.%.( ) ( =.>.>.,.4Xq X * = = * = = = , , = = - - - -   X                                       o 0 r l n t H r z x l r l l t I #.^ -.%.%.%.&.&.) ) ) =.&.^ ^ %.*.&.%.%.&.%.%.@.@.%.-.%.%.&.&.&.&.&.) *.*.( =.=.=.>.^ >.,.I G G K :.2.2.2.1.2.$.L t z l l n n l x n x 7 7 7 4 = , % - - . X .         o 0 y y y w y t +     o r y t y J J J c H c x x x N c c J J N J J J J J J J J J 7 4 % 4 4 4 = = * * * * * * * * , , > , > : % # # $ # # ; 3 # @ . .   .         * = = = = , = * = = = = = = = = % % - O G 6X2.3.! &.-.%.) =.-.*.*.%.%.&.! ! &.%.o.Q D v m r t z x N N N N n n n l n M n z z c x m v v z c m m m c N c J J J J H I ,.3.>.2.=.( X.jXr.u.5.Y / ' ' >.=._ =.-.-.%.%.$.t o .       . $ % = 7 | 6X6X .O - = = - = = , = = * = = 4 = 4 + H 3.&.! 1.1.] [ [ o.&.] ] =.#._ / ) ) ! -.L +                 O J qX1.1.3.! ^ *.( ) 3.1.7X7X7X3.6X4X0 7 , = & % = - - X . $ o + { -.o.! o.o.o.1.] 1.Y +                           ",
"= = = = = = = = = = = = = = = = = = = = = = = = * * 6 % - . = * > > > > > > > > > > > > > > > > > : : > > > > > $ % < % < % - - = = = = = = = = = = = = = = = = * * , 5 2 # % X q <.>.` ] ` >.*.( ( >.>._ 4XJ o : X k N l n n n c c v c m m v D U *.=.` &.&.( &.%.%.%.%.%.%.%.%.-.@.#.@.@.-.@.-.%.%.%.%.%.%.%.%.%.%.%.%.%.%.%.%.^ W %.%.=.,.K q z G $.=.( =.( #.<.G m M t m x N X * , 1 p 1 1 1 s s 2 p 3 7 I 6X2.| O # 2 2 s 8 s 5 s % G ,.%.&.&.@.,.L O 7 7 B J G G H x z n n x c v G z c v N B 6 1 O K 2.) ( #.| 4Xv % s 2 5 s 7 G ,.) ,.G n x K ,.*.<.u 4 2 > 5 1 2 2 1 2 1 2 p s 2 1 % 0 4X#.=.( ) =.<.O 2 5 1 * < > p 2 = 7 N m N 4 $ % e eX&.W W ^ >.-.&.&.4X0 & & * - & & 3 5 5 5 5 5 p p 2 3 7 <.=._ _ =._ =.( *.,.J o 6 < , 6 6 % < = , > & X u <.<.*.@.%.*._ %.%.) =.*.*.&.&.( ,.m O 7 8 8 8 8 7 7 7 +  .,.^ -.@.%.( =.) &._ 2.,.4X0 X * , , * * = = = = = = = = = > 5 2 ; ; : ; : : > > > > > > > > # # # # $ 7 k J r t t J r n x l B B n v I >.^ %.%.%.%.%.%.&.&.&.=.) ( ( ( ( ( ( ^ ^ ^ ^ ^ %.%.*.&.&.&.&.) ) %.%.( *.( =.*.( 2.1.=.>.L t q G *.2.( ( ^ #.| L w M M c m c x m m b 7 7 4 4 , , > > 8 = , : # > # > . k N N c z M N 8 $ & % N m N N r z x c m x z n z z b l l z v v v z z z v z n N 8 % & = - % * & * * * * * * * * * * * * > : % % # # : ; # 3 3 $ * * # = > % = < = , = * * = = * = = = = = = = = 6 = = o t ,.%.( ( %.*.*.( &.*.*.*.:.:.#.&.) ) ) o.X.D z n z m n l x n m x z M M M z M m c c c z n M z z z z z x x N c G G v G D F -.=.o.o.Q / Q lXp.a.5.Q ( &.2.) ( ( ^ W @.*.@.qXG % @ % % , > $ = % O | 2.2.I + % * * & % * * - - & & * * 3 > o N qX>.-.( #./ *.*.*.=.&.&.&.&.! ! -.%.) ,.J X 4 , * * * # & % o J 6X&.! ) %.*.@.%.~ o.X.#.W ^ @.$. .+ X * = , = = % 6 = $ # % o  .6X2.` _ ' ' ` ` >. .O $ 3 3 3 : 2 2 > > , , > > ",
"= = = = = = = = = = = = = = = = = = = = = = = = < : 2 # > $ > $ # # # # # # # # # # # # # # # # & & # % % & & # > < < % < % 2 2 = = = = = = = = = = = = = = = = - = = , # @ . o q ,.>.( _ ^ :.@.@.@.#./ Q ,.{ o $ . k J v G H z x x c c n m z t I :.*.( &.-.^ &.&.&.%.%.@.%.%.&.) ! =.( ( =.W ( %.%.%.%.%.%.%.%.%.%.%.%.%.%.%.*.>._ =.) =.#.K r r t | -.W -.^ #.<.E G H G H H { 7 = % # & 3 3 2 1 s : i 3 % L -.$. .X & 2 : 1 1 3 3 3 $ v ,.( ) &./ ,.K O 7 7 b n z z c z z n n x G c J z J m N k 7 p 7 K ,.Q -.>.' 6XG 4 s 2 2 > % z ,.%.,.G v t L -.@. .+ . @ $ 3 3 & 3 3 3 3 1 1 2 3 3 $ 7 %X$.-.^ ) ` <.O p p 1 $ < & , & X e { c N 4 % % 0 ,.! &.-.( =.( ) ) 4X7 . @ $ , > 3 2 5 p 5 5 1 p 3 3 3 4 | o.( =.o.o.%.^ ( ,.J O 6 , % , = & & < * , * % u 4X@.W @.%.*._ %.%.( =.*.*.&.&.( ,.m O 7 7 7 7 7 7 4 O +  .<.^ *.@.%.@.*.#.#.^ ^ #.4Xq X & , , > > = , , , = = = = = > 2 # @ * * $ % * # % # # # # # # : # 3 # . % e J x N v J l m H c m z z t U 3.@.%.&.) &.%.@.@.%.%.^ ( -.-.*.%.%.%.*.&.*.=.-.*.( W &.) &.&.%.%.@.@.( =.&.-.@.W *.=.) :.H r r z $._ =.=._ :.| G q l l l l l l x l l 7 8 6 4 , , = - - X & # : : @ @ . k N c c t v N 7 . @ X B c n z m z c m c x x c c x n N n c H t z z n x c v c N 7 % % < = = 6 = = = = = = = = = * * = = , * # # # $ # # $ # # $ @ > # : : $ $ % < < = * * = = * = = = = = = = > : $ $   q 4X| ^ =.` ( _ ) ) ) ( ) ( #.$.%.) _ _ #.<.c l M z N l c c v z z z x x m z z c x x m M z x m n n x v v c c l x n b n z G <.$.^ &.) ] %.a.w.y.+.W >.W ! ! &.=.>.:.:.#.W ,.D X ; # @ 3 @ @ # . o } ,.,. .o @ $ $ @ @ $ $ $ $ $ $ @ $ $ . o z ,.~ ) ) -.#.#.*.&.&.#.#.*.` ` ` -.X.! 3.T X % : # # $ @ @ $ X J | ( ) ! -.%.^ =.( ) ^ *.! =.W $. .+ . & . $ & @ . - - . @ $ o { <./ o.o.o.&.o.( >.} o   & . # # # # # # $ # # # ",
", = * * - = > = , , , , * * * = = = = = = = = = < * - , * # $ # # # # # # # # $ # # # # # # # # $ # $ % % % % @ % , , = = * % 4 - = * * = = = = - * 3 & 8 % - = * * % 4 7  .:.^ %.%.@.%.&.) _ _ &.%.%.%.%.&.) ) &.,.L t M l c c m m c z z M t w I $.*.^ @.%.^ &.( ( ( ( ( ( ( ( -.-.-.-.%.%.@.@.%.%.%.%.%.%.%.%.%.%.%.%.%.%.%.%.-.*.%.%.*.-.=.=.=.&.) ( ^ @.&.:. .+ % = = * * , 1 p = 0 ,.Q qX0 = 6 0 <.@.%.%.&.=.=.W *.,.v % 6 0  .>.` =.%.@.X.-.@.6XL O 7 7 b z z z z z l l l M z l n B 7 X - = , > O K 3.@.#.>.^ 6Xw % < +  .:.>.{ z v c z x r K @.=.&.=.=.) %.%.*.*.! &.1.| O 6 % T ,.Q %.%.@.^ =.! =.:.7 * 2 2 - * - = = , * < $ % b N z L :.-.&.( %.*.*.*.%.%.&.! 1.| o * * > * * * = : O L ,.=.( -.%.*._ -.*.%.W _ ,.J O 4 = - * - = 4 4 , % 6 X 0 <.$.-.@.#._ ` %.&.) ) %.-.@./ >.,.J O 7 7 7 7 O r 6X` ` _ @.%._ ) *.#.-.-.$.-.*./ 4X0 O - 2 # 6 % - & - - * - = = = = > # $ $ $ @ $ , > # 3 @ $ = $ # # # # # # . l J z b z z x x x b n n m t I ,.^ =.&.%.%.%.%.%.%.%.%.%.%.%.%.%.%.%.%.%.%.%.%.%.%.%.%.%.%.%.%.%.%.%.%.%.%.%.%.%.%.%.%.%.%.%.%.%.%.%.%.%.%.%.%.%.%.%.%.=.^ =.( ( 2.I + 4 8 4 % = * * = 4 $ 2 $ 4 N c x x c c c c c c x x x c c c x x x x x x x x x x x x x x x x x x x m x x n x c N 8 X 6 = = * = = = , , , 2 > * & * & - = - - $ # * # # # # * $ @ # > # # > # # > * = = = * * * > * * < X < % * 4 +  .4X( ` ) &.-.&.&.) %.#.#.*.*.&.&.%.%.%.&.&.%.$.| t t N x N m J c c x x n z N c c x x x c c c z z z z z z x x b n m x c c x v E ,.X.X.=.( %.X.jXy.jX5.Q >.-.@.%.%.&.&.%.%.%.%.&.&.) #.4Xu X X 0 4XR *.=.( =.>.=.=.&.1.1.1.=.=.=.=.=.=.=.=.=.=.&.&.) ) &.&.&.%.@.%.) ` *.#.*.*.%.@.%.W / 6X .O % & @ & . 7 4X) ) &.&.%.) ) &.&.%.( ( ( %.%.&.) &.*.*.*.=.=.=.=.) ,.7 % X e ,.) ) ) #.@.%.&.%.@.^ &.&.&.%.@.4Xw X & & # # # # : # $ ",
"& * * = = % % % & * < < & & % % = , , , = = = = - - * # # $ 3 3 > > > > > > > > : : : : > > > > > 1 : # $ $ 2 3 & , = * , > & & - = = , , , = = = = = % 6 % 6 < < 6 = O + <.2.1.] ) ) &.&.%.@.@.%.%.%.%.%.) ) ) 2.,.K t n l N J v G G G m N m D R >.=.) =.=.) =.-.-.-.-.-.-.-.-.&.) ( ( ( ) ) =.&.%.%.%.%.%.%.%.%.%.%.%.%.%.%.&.=.=.) ) ( ( ) ) ) ) =.=.=.*.%.$.3X0 % 3 2 * = , p p % e 0X2.4Xu = 6 q qX,.-.-.-.( =.&.2.6XJ 7 5 0 <.6X` ) ! &.) ) ( 6XK + 7 0 N m G G G c m m m J J c J N e % , = = % O L 3.( &.W W 3.t O 4 u 4X2.2.I v v c n N q K #.=.) ] 1.] ] 1.1.` ) 1.2.| O 5 7 T 0X] 2.&.&.W %.! 2.<.7 < s 5 1 , < < 6 6 = 6 % 7 B J G L >.=.) ) ) &.%.%.&.&.&.) 3.:.O < < < , , , 1 2 7 G ,.=.! =.&.=.` _ _ =.&.=.,.J o 4 6 6 6 6 4 = = 1 > < X 0 4X@.! %.*._ _ %.%.&.) ( *.*.*.2.<.n o e 0 7 0 + c 0X2.` ` &.%.) &.%.#.^ *.^ _ ` _ 4X0 % * 9 # 5 , 6 6 = = = = = = > > > # # # 3 # # @ @ $ # 3 > * # $ : # # # > % B J m m m m c c m m N c G G U ,.` 1.&.%.%.%.%.%.%.%.%.%.%.%.%.%.%.%.%.%.%.%.%.%.%.%.%.%.%.%.%.%.%.%.%.%.%.%.%.%.%.%.%.%.%.%.%.%.%.%.%.%.%.%.%.%.%.%.%.=.^ =.( ( >.U + 8 8 7 7 6 < = 6 5 > 1 # 4 N c c x c x c c c c x x x x c c c c x x x x x x x x x x x x x x x x x m x x m x c N 8 X 4 * = * = % - - - = = = - - = = , 5 5 2 : : ; : : # $ # , 2 $ # # # # $ $ * * = = = * = = 4 * & 6 = 8 6 , 7 +  .6X*.>.*.%.^ %.&.) %.#.*.*._ *.*.*.*.) ) ) *.-.| D z N n N c z z m x x m z c x x n b b b n x z z m m H H G c m N m c c H m c L ,.X.W =.` &.X.u.e.y.+.~ ) *.=.&.&.&.&.%.%.%.%.&.&.&.>.4Xu . X 0 qX:.>.>.) -.%.-.*.&.&.&.&.=.=.=.=.=.=.=.=.=.=.&.&.&.&.&.&.&.%.%.%.) ) #.#.*.*.%.^ %.&._ 6XK o 4 , % , % 0 6X] ) ) ) &.` ) &.&.%.) ( ( &.&.&.&.&.&.&.*.*.*.*.=.1.6X7 % X e 4X1.) ) #.#.%.&.%.*.( *.=.*.*.#.4Xq X > > 3 3 : : : > > ",
"% = , 4 4 4 4 6 , , , , * * = = = = , , = = = = = 4 6 = % # # # @ . . . . . . . @ @ @ @ @ @ @ @ . @ $ 3 : ; # @ & = 4 % 4 6 , * = = 4 4 , > & & & , 1 > 2 @ & . . & .   +  .:._ &.&.%.%.@.@.@.@.%.*.*.*.%.&._ _ #.:.G r r e l l l l b b k b e q } $.@./ @.@./ ^ ^ ( ^ ^ ^ ^ ^ ^ *.*.*.( *.*.=.=.%.%.%.%.%.%.%.%.%.%.%.%.%.%.%.%.@.@.@.%.%.%.*.*.@.@.( ) ( ( @.$. .+ . @ # @ $ $ > > % e 4X>.<.0 X % 0 <.$.^ ^ %.&.=.( #.:.j X $ +  .:._ %.^ %.@.*.$.4XJ O - X e k l l l l l l r l r e k k 4 . . & & & % G -.@.#.#.$.4Xq o . O  .:.$.K r r l r l r K $.*.^ ^ *.-.%.*.*.#.$.$.$. .o % X N <.^ -.W -.( %.^ _  .O . ; $ @ @ . . . . . & . X e l r G <.#.@.@.%.&.%.#.#.#.#.#.:. .o . . @ . . . @ @ o J ,.@.W -.%.=.=.*.*.*.%.*.:.m o . $ $ $ $ $ @ @ & @ $ o 0 <.$.*.&.&._ *.#.#.&.) &.*.*._ >.:.M O 4 % X X o e <./ #.#.@.@.%.%.@.@.@.-.) ( ^ $.4X0 o . & $ 9 # $ % = = = = = > > , * $ $ # $ > < % # > @ $ $ . > $ : ; $ $ # . k B r r r r r r r r r e r q K <.@.^ %.%.%.%.%.%.%.%.%.%.%.%.%.%.%.%.%.%.%.%.%.%.%.%.%.%.%.%.%.%.%.%.%.%.%.%.%.%.%.%.%.%.%.%.%.%.%.%.%.%.%.%.%.%.%.%.%.-.( -.( ( >.| o % & . . @ . . . % . @ . % N J c x x x x x c c x x c c c c c c x x x x x x x x x x x x x x x x x m x x m x c N 8 X = % , * , = = > > 2 , , = = - = = = $ . . . . . . .   . . . * % > , # $ # > = = = = * * = = 9 $ - . . $ & % +  .<._ -.*.@.^ %.%.*._ *.*.&._ *.*.*.*.*._ _ *.$.| w r b l l r l l m m c G v G c c c c c c c c z z z M n c x z z x l r r r e q L :.@.^ =.` _ X.xXlXlX5.X.( ( _ _ _ &.%.*.#.#.#.%.@.@.:. .+   o 0 ,.$.*.*.*.-.^ %.%.%.&.&.&.%.&.&.&.&.&.&.&.&.&.&.&.%.%.%.%.%.%.%.&.) ) #.#.*.*.&.( &.&.*.:.J O . @ . . . O  .#.@.@.@.@.#.@.@.@.%.) &.&.&.&.&.&.&.&.( &.&.&.*.*.%. .O     0 | %.) _ *.#.%.&.*.*.*._ ) _ *.$.4Xq o @ @ @ $ @ @ @ @ @ ",
"= = * & & * > < * * $ & * < 2 > - = = = - - = = * = = > * $ @ # k k k e e e e e 0 0 0 0 0 0 0 e k 6 . $ 3 # : % % = = - & = < = - = = = = = * * % * & $ & % k l 0 e e q w | :.( &.&.&.&.) ) ) ) _ *.*.*.%.%.%.*.^ :.I K K K K L L L L K L L L L @.=.=.) =.=.=.=.=.=.=.=.=.=.=.=.) ) =.=.=.=.) ) &.%.%.%.%.%.%.%.%.%.%.%.%.%.%.%.^ ( *.-.*.%.&.*.=.=.&.&.&.&.-.:. .q e k k 4 8 8 s f 8 k  .I | H e e t <.$.@.*.>.^ #.W @.$.L q l v $.:.( =.=.&.^ W Q :.I q r q J K K K K K K K K K K K K K z r l 0 e e q I -.%.-._ ^ :.G 0 q w | #.#.U K K K K K L R *.*.^ ^ @.@.@.^ _ _ ^ %.=./ q j q I >.) -.-.%.%.%.-.>.<.l k k k k e e e e e e k 0 r H K L I *.=.%.) ) ) ` ` ( ) ) *.=.$.0 e k k k k e k e e I -.@.W @.@.-.=.*.*.%.^ @.$.K q q q e e e e k k e e k q w  .| $.@.&._ *.*.#.&.&.&.&.&.( ) *.K q l l l z r L ,._ *.*.%.&.) ) ) ) %.-.=.%.@.$.<.G q r e X - = = - - = - = = = = = < # & # @ $ # $ @ 2 @ 6 k 0 k X @ $ # # # X B { K K K K K K K K K L K L U >.%.&.%.%.%.%.%.%.%.%.%.%.%.%.%.%.%.%.%.%.%.%.%.%.%.%.%.%.%.%.%.%.%.%.%.%.%.%.%.%.%.%.%.%.%.%.%.%.%.%.%.%.%.%.%.%.%.%.%.-.( -.%.( -.R q l l e k k k k k k 8 8 < 6 b z x x x x x c c c c c c c c c c c x x x x x x x x x x x x x c x x x m x x n x c N 8 X 4 * < = < = - - = = = > > 2 > 2 * = & 5 V f d d d d d d d d 3 @ & & $ $ $ & = = - = - = = * & . k k e 0 e 0 w | :.^ &.( %.%.%.%.*.*.%.*.%.&.*.*.#.*.%.) _ *.*.$.L K K K K K J z z z x x z z c x x x x x x x m z z z z x x z r m K K K K K K I :.@.^ >.` _ o.6.6.6.;.Q ( %.&.*._ %.%.%.%.*.*.%.@.^ / | w 0 0 D ,.^ ^ W &.-.%.@.%.%.%.%.%.%.%.%.%.%.%.%.%.%.%.%.%.%.%.%.%.%.%.*.*.) %.@.@.*.*.=.^ ( %.( $.I q 0 0 0 0 0 q ,.=.%.%.&.&.*._ ) ) &.&.&.&.&.&.&.&.&.) ( ( &.&.) %.%.<.t l q H :.^ %.*.#.*.%.&.*.*.-.) ) ( @.#.,.t + 7 7 7 7 7 7 7 8 7 ",
"4 = = % = * * % - = - - 4 4 % % - * - - = = = = , , % , 5 : $ 7 6X3.3.3.3.3.3.3.3.3.3.7X3.3.3.7X0XK O % > # ; $ % , < = & & * & - - - = = = = 4 4 4 , = = 0 4X8X7X7X3.3.=.3.1.) &.%.%.%.%.*.*.*.%.%.&.&.%.%.%.) ( 1.) *.>.>.2.2.2.2.2.2.2.>.>.2.( &.&.^ @.@.@.@.@.@.@.@.@.%.%.( ^ ^ ( %.%.%.@.%.%.%.%.%.%.%.%.%.%.%.%.%.%.%.%.&.) ) &.%.@.^ ( ( ( ( @.@.@.@.@.! 3.] 2.3.:.L K J L L c n m q H I 6X3.1.3.&.) ) ^ *.=.&.1.3.2.1.3.*.>.( W *.&.! &.-.=.2.2.*.6X2.7X1.1.1.1.1.1.1.1.1.1.1.2.3.2.>.2.3.3.3.>.1.2.&.%.%.&.3.=.,.3.] 3.) =.-.*.>.>.>.=.( =.1.) ) &.=.*.-.&.*.*.%.=.] ` 6X6X>.2.2.! ( ^ @.@.W ! ) 3.&.3.3.3.3.3.3.3.3.3.3.3.2.2.3.3.2.2.] ) &.%.` ` *.*.%.%.! ! ] 3.( 3.3.3.3.3.3.3.3.3.! =.=.( &.%.*.*.( ) &.) ) 2.>./ 3.3.3.3.3.3.3.3.3.3.3.3.] 3.! ) &.%.&.&.*.*.&.%.@.@.*.) ) 2.>.^ 3.3.3.2.*.=.2.] ) %.%.%.*.*.*.*.( ( -.%.-.^ 3.^ 2.5X .0 7 4 4 % * & * - = = , , < $ # 2 : : : % @ , X l ,.,.9X0 X % > % % + I 3.1.1.1.1.1.1.1.=.=.>.>.*.=.1.&.=.&.%.%.%.%.%.%.%.%.%.%.%.%.%.%.%.%.%.%.%.%.%.%.%.%.%.%.%.%.%.%.%.%.%.%.%.%.%.%.%.%.%.%.%.%.%.%.%.%.%.%.%.%.%.%.%.%.*.%.*.%.( -.( 2.3.3.3.3.3.3.3.2.3.U K J G L D v x x x x x x c c c c c c c c c c c x x x x x x x x x x c c x x x m x x m x c N 8 % 6 = 5 < 5 , = = - - * * 2 i p 5 % = % V aXsXsXsXsXsXsXsXsXIXh ; ; : : : : 2 = - = = = = , = 4 0 ,.7X3.3.3.3.*.,.=._ =.) %.-.%.%.*.*.%.%.%.%.%.%.@.@.%.&.) ) =.=.( -.>.=.2.2.:.G v m m m z m x x x x c x n n n c v c c c m m v K :.2.1.] 2.2.Q -.%.%.-._ *.@.Q Q @.W W *.%.%.@.@.%.%.) ) ) ) ( =.=.1.3.2.6X6X^ ,.^ *.( =.%.&.%.%.%.%.%.%.%.%.@.%.%.%.%.%.%.%.%.%.%.%.%.%.%.%.#.*.%.%.%.%.%.*.*.^ @.%.&.>.,.$.7X7X7X3.3.) 3.) ) ) &.&.%.%.*.*.&.&.&.&.&.&.&.&.) &.) &.&.( ( ) ) 3._ ,.>.2.3.( &.%.%.%.&.%.@.@.*.@.%.( ^ @.3.L H { { J J J J J H H ",
"& > , < 1 2 > > 2 2 , > = , 1 5 = = = > , , > > 1 2 # # > # @ 7 <.&.&.( ( ( ( ( W Q W W Q W W W 5XG o . 3 3 3 3 $ # , 6 = = = % = , > > , , = = 6 * 3 & . 7 :.2.! ! ! ( ( &.( &.%.%.@.@.#.#.#.*.&.) ) ) %.%.@.%.( =.( ( =.=.) 1.( ^ ( ) ) ( ) =.&.=.&.%.%.&.*.=.=.=.=.=.=.=.=.=.=.=.*.%.@.@.@.*.%.%.%.%.%.%.%.%.%.%.%.%.%.%.%.%.=.%.@.@.@.*.-.=.=.=.( ^ ^ %.=.=.Q Q -.<.} q r r M z z M l q D | ^ ! W o.Q @.-.#.#.#.@.@.%.o.! 1.1.1.) *.=.&.( %.$.$.W &.^ -.W ! &.&.=.=.=.=.=.=.&.) ( ) ) ) ) 1.[ ! ) ( @.%.@.@.o.W %.( -.-.W ! &.&.( ( ) =.=.%.*.@.@.@.@.-.-.%.*.@.@.#.$.@.-.( ^ *.` =.=.%.-.>.( *.( &.! &.W -.W o.W W X.$.X.X.) ] ) ) ! ! W W &.%.$.$.*.*.#.$.#.#.@.*.W *.^ -.^ ( %.^ W W X.W &.=.=.&.%.%.*.( W &.=.) ) ) 1.=.Q Q X.X.o.! ! ! ! Q Q %.@.-.@.#.@.%.%.&._ _ _ *.^ @.*.-.( ) 2.1.1.1.1.&.@.@.) ! @.@.@.@.#.#.#.*.#.^ *.( =.! 1.1./ ,. .O X * & 3 * = = = , , , , 5 # $ $ : 3 3 3 3 3 . 0 ,.2.4X+ X & 3 $ $ O R 7X-.-.-.=.&.&.=.=.) =.=.&.^ ( W %.%.%.%.%.%.%.%.%.%.%.%.%.%.%.%.%.%.%.%.%.%.%.%.%.%.%.%.%.%.%.%.%.%.%.%.%.%.%.%.%.%.%.%.%.%.%.%.%.%.%.%.%.%.%.%.%.%.&.%.&.%.%.&.@.W o.o.W o.( ( ( -.$.L t z b n M z x x x x x c c c c c c c c c c x x x x x x x x x x x x c x x x x m z z m x c N 8 % 6 , 5 5 5 1 : > > * * = 1 p 5 5 % * @ g sXXX!.'.!.).~.'./.aXa $ X . . & . * = 4 = , , > > 3 $ 7  .>.( W Q X.>.=.( =.=.&.( %.*.*.*.*.%.%.%.%.&.&.%.%.%.%.%.&.( &.&.=.=.) ] =.<.G t z z r r z n n c c c c c x z x c c c z l l r K $.>.] ` ) ( &.&.&.%.%.@.^ _ _ _ _ _ =.=.%.W %.%.%.%.&.) ) &.%.*.%.W ! ( ) / =.-.^ >.&.=.( &.%.%.%.%.%.%.( ( %.%.%.%.%.%.%.%.%.%.%.%.%.%.%.%.#.*.%.%.%.%.&.*.^ ^ %.%.&.=.=.1.! ~ ! ! -.@.=.W @.@.@.%.@.@.#.#.%.%.&.&.&.&.&.&.&.&.( %.&.( ( %.W -.( 2.] 1.) W @.@.%.&.&.&.%.%.%.^ =.( ^ ^ ,.I w z z v v v t v M M ",
". . $ $ . . $ & . . . . % & & & = = , > > > * * . % % . . .   o <.=.*._ _ _ *.*.-.-.*.*.*.*.*.:.<.v o   . . . . = $ & , , = * - , , , , = = * & * $ X % o +  .@.*.-.%.%.%.^ ( =.` ` ) ) ) ) ) ) &.&.` ` *.*.#.$.-.-.%.@.@.@.^ @.( ( =.>.2.=.=.2.2.1.=.1.1.1.1.] 1.1.2.2.2.2.2.2._ _ _ ` ` ) ) ` &.%.%.%.%.%.%.%.%.%.%.%.%.%.%.%.&.( ( ) =.=.-.^ -.=.1.1.] 1.=.1.] 2.2.>.| t H z z z z m n J G | >.2.2.2.1.2.2.] 2.2.2.2.2.1.=.2.` =.=.=.=.1.] ( #.:.^ =.@.#.W W @.@.@.@.#.#.@.@.*.%.@.@.^ ^ ^ ^ %.@.*.*.#._ _ ( =.1._ ( ^ @.$.#.-.=.) ) ( ( ( ( ( ^ ^ ^ ( &.) ( &.( ( ) @.@.%.( %.( =.) ^ ^ ( ( ( =.*.,.@.-.( ( ` _ ` ` _ _ *.@.@.@.%.*.@.@.*.*.&.) @.@.) ) ` _ ( =.=.,.^ =.( ( _ _ _ _ _ *.@.@.=.&.&.*.#.#.@.@.@.%.-.%.^ ( ( ( 2.1.2.2.2.2.2.>.>.2.` =./ =._ =.%.%.%.%._ _ _ _ %.@.%.-.^ W ( ^ Q W W W @.*.*.=.@.%.) ) ) ) ] ] =.*.-.^ -.W ( @.$.<.K + O 4 $ & , 4 , , * = * * . % . . . . . . . . X e <.|  .+   . . . % O J $.@.@.@.@.@.@.@.@.W ( *.*.) ) &.&.%.%.%.%.%.%.%.%.%.%.%.%.%.%.%.%.%.%.%.%.%.%.%.%.%.%.%.%.%.%.%.%.%.%.%.%.%.%.%.%.%.%.%.%.%.%.%.%.%.%.%.%.%.%.%.%.%.%.%.%.%.%.%.-.( =.) ) &.*._ =.^ $.G w v x l b n c c c c c c c x c c x x x c x x x x x x x c x x x x x c c x x x m z z n x c N 8 % 6 , 5 5 p 6 % - - - - - < 5 2 s 3 1 ; g aX'.sXXXXXsXsXsXsXsXi ; ; $ ; ; @ 2 $ . & . . . . . . O  .:.>.>.^ *.( ! W ( ( &.-.@.#.*.*.*.&.&.%.%.&.) &.&.%.%.%.%.*.@.*.%.@.W ^ @.| t t z z z z z z b b b x x n n z n n n l z z G t K | $.@.@.@.@.-.( %.&.%.%.%.( =.=.=.=.-.-.%.( &._ %.%.%.%.&.*.@.@.$.$.@.%.%.%.( ( ^ -.W =.( %.%.%.%.%.%.( ( ( %.%.%.%.%.%.%.%.%.%.&.&.&.) ) *.*.*.%.%.%.%.%.*.*.*.%.%.%.^ ! ( *.@.@.Q #.$.*.*.@.@.) ) &.) ) ) ) %.( ( &.) &.&.&.*.*.&.&.&.) @.$.@.Q %.Q %.^ *.@.%.%.&.*.*.%.%.&.W =.( @.#.,.I t M M z M n b n x x ",
"@.$.R K c v H I $.^ W @.$.K e O = = = * * = 4 7 q  .:.R / _ / ^ =.=.) ( ( ( ( ( %.%.%.%.%.%.%.) =._ U $.*._ #. .l 7 % - - % % % * > = = 4 = * * 4 7 G :.| Y 7X! ( =.=.( _ _ *.=.*.*.%.@.@.@.@.@.#.*.*._ *.*.*.*._ ` ) ) =.&.( -.*.*.$.$.| K G G H c v m c M m m m G m m m m G G H K I $.:.>.=._ *.%.%.%.%.%.%.%.%.%.%.%.%.%.%.%.@.@.( =.-.$.I G D L U $.$.} L v m J n m J q J c x N c c l m q H J v G G H G M m z M G G v G m m H H m G K $.>.` ^ >.` 1.( ( ( -.&.&.&.*.*.` ` ` ) &.%.%.%.-.=.*.-.^ ( *.*.*.-.( W -.%.=.=.) =.#.#.#.@.%.%.%.%.%.&.=.=.=.-.*.%.@.-._ ` =.=.*.-.&.%.%.=.( @.:.>.=.o.&.Q %.Q %.=.=.&._ _ _ =.*.&.( _ _ =.=.( ( *.*.) ) $.@.&.&.@.@.! &.W -.Q -.-.&.( %.-.( ( %.%.%.&.( ) *._ *.&.( =.&.%.%.*.*.&.&.@.U K H G G G H G | @.=.Q %.%.%.%.%.@.@.*._ _ _ =.( %.*.@.@.#.#.*.*.) ) -.*.^ *.@.@.%.%.@.@.@.&.( ) =.Q -.%.@.X.W -.2.Y :. .e O 4 = = = - - - 7 0 K | / / _ / / #.R R R 2.[ 3.U | $./ / | I 1.2.) ` =.*.%.%.@.@.#.*.*.*.*.#.*.^ %.%.%.%.%.%.%.%.%.%.%.%.%.%.%.%.%.%.%.%.%.%.%.%.%.%.%.%.%.%.%.%.%.%.%.%.%.%.%.%.%.%.%.%.%.%.%.%.%.%.%.%.%.%.%.%.%.%.&.%.%.%.^ -.*.*.) ( %.#.@.-.W 3.X.U $.I G G z c c c c c c c x x c x c c c c x x x x x x x x x x x x x x x x x m z z n z c N 7 % 4 > 5 5 p < - % = , > , 6 5 1 s = 6 o 0 yX .;XB 0 0 e 8 7 8 7 O 7 7 8 0 0 H $.( @.@.( ( _ @.| Y 3.! ) =.( =.=.*.-.@.W *.-.^ *.*.*._ &.&.&.%.%.*.*.*.*.*.*._ =.( ) ) ) ) =.1.>./ #.$./ #.#.| G c c c c c c c c m n n z H I #.Q _ =.=.&.=.&.( -./ ^ *.) &.&.&.W ( @.%.%.%.&.=._ *.#.@.@.#._ ` >.( ( =.&.( ( =.( *.-.-.Q -.%.&.%.%.%.%.*.*.*.*.%.%.%.%.%.%.*.&.&.) &.&.&.&.) _ _ *.@.@.@.%.%.*.=.=.) ( -.-.@.%.*.*.2.( 2._ ` _ #.#.) ) %.@.%.*.%.( ( ( ) ) &.&.*.*.*.*.&.&.( ( =.) ) 1.) =./ =.) ) _ *.#.#.%.%.%.Q %.@.#.@.-.L t M c v c c x x c c ",
"1.2.,.U G G L $.2.] 2.) 2.6X7 . < = - = 2 > * O 0 4X3.) 3.1.] 1.&.%.%.%.%.%.%.%.%.%.%.%.%.%.%.%.=.=.=.1.1.] 2.,.K O X 5 , , 4 6 > 2 , = , > > > < O I 3.2.1.! =.*.%.%.%.%.%.%.%.%.%.%.%.%.%.%.%.%.%.%.%.%.%.%.%.%.%.%.%.%.%.%.%.o.&.Q ,.| t z n b b l l b b l l l l l l l l l l r t | >.%.%.%.%.%.^ ( &.*.*.) ) ! @.^ W @.%.%.@.$.@.Q W &.$.K r l z R =.=.Y q b r l n r l N x c c c x x x x x x z l l l l l l l l l l l l l l l b l b q K :.W %.W %.^ ( ( ( >.*.-.@.@.@.^ @.=.&.&.W @.@.@.%.%.&.*.>.*.( &.) ! ( W W W %.&.( ( ( @.@.@.@.@.@.@.@.@.@.^ ^ @.^ ^ ^ &.( ( ( *.%.@.%.@.@.@.%.%.%.%.%.%.%.&.=.) ) ) ) =.=.%.^ @.-.*.^ ( =.&.W @.*.) ) @.$.@.%.&.%.@.@.@.&.&.&.^ %.*.) %.@.@.%.) ) %.@.-.*.%.*.@.@.%.%.%.@.( ( #.@.@.%.=.<.t e N l l l q  .>.( W X.X.%.%.) *.*.%.%.) ( &.) ) ) ) ) &.&.%.%.%.%.%.%.%.%.%.%.%.%.%.%.%.%.%.&.&._ *.*.*.*.-.^ =.&.1.4Xe X - - = 4 > 2 , 4 + 4X6X] 3.2.1.1.1.1.1.1.! %.W =.3.3.2.1.1.1.=.%.%.%.%.%.%.%.%.%.%.%.%.%.%.%.%.%.%.%.%.%.%.%.%.%.%.%.%.%.%.%.%.%.%.%.%.%.%.%.%.%.%.%.%.%.%.%.%.%.%.%.%.%.%.%.%.%.%.%.%.%.%.%.%.%.%.%.%.%.%.%.%.%.%.%.%.%.%.%.%.%.&.%.@.@.&.&.%.%.-.) 1.) =.$.t t M z z c v c c x m m c c H c c N m G m c c m n n z m z m z z n l x x z z z z c J 8 X , > 1 p s 2 = - = = * * , 1 5 6 = = X e ,.( ,.u + 7 O 7 7 7 7 7 8 7 0 0 u I 3.2.1.1.1.1.1.1.) ) &.&.&.&.%.%.%.%.%.%.%.%.%.%.%.%.%.%.%.%.%.%.%.%.%.%.%.%.%.%.%.%.%.%.%.%.%.&.=.=.&.&.&.=.=.-.v z z c c v z c x N l N v G #.2.` ) &.&.%.%.%.%.%.%.%.%.%.%.%.%.%.%.%.%.%.%.%.%.#.#.@.%.%.&.&.&.&.=.&.( ( ( ) *.%.@.-.*.( -.>.^ &.&.&.) %.%.*.*.&.=.%.>./ >.*.) %.@.@.#.*.*.%.%.%.%.%.%.%.%.%.%.%.%.%.%.%.%.%.%.@.*./ >.-.^ -.W ( _ =.=.-.%.( *.%.%.%.%.%.%.%.%.%.%.%.%.%.%.%.%.%.%.%.%.%.%.%.%.%.%.%.%.%.%.%.%.%.%.^ =.*.*.$.L v z N l N z c c c c ",
") =.>.I t w D | :.) =.! 1.,.7 X * % % $ $ & $ X u  .:.^ >.^ #.*.%.%.%.%.%.%.%.%.%.%.%.%.%.%.%.*._ ` -.*.&.&.#.<.N X . & . & & & * = = = 4 = , , 6 o K -.W %.#.,.%.%.%.%.%.%.%.%.%.%.%.%.%.%.%.%.%.%.%.%.%.%.%.%.%.%.%.%.%.%.%.&.=.=.W $.} w r r l r l z z z x z c c c c c c c c z G @.2.=.1.1.1.=.=.) ) -.%.` ) =.2.2.1.1.] ] ] 2.2.2.1.3.2.I G t G #.3.2.R w l c z n z z m x m c c x x x x x x c c z x x x x x x x x x x x c c c c G G U 3.1.3.1.2.] ] 1.) =.^ 1.) 1.1.) ) =.=.2.&.=.-.%.&.^ W @.@.@.-.-.-.-.=.2.1.=.=.=.1.) ] ] ] ] ] ] ] ] ] 1.1.1.1.1.1.1.1.=.=.*.( %.%.( ( ) &.) &.&.&.&.%.@.@.@.@.@.@.@.*.@.%.#.*.*.*.*.*.%.-.=.&.%.-.1.1.=.-.=.1.1.1.1.1.1.] ] ] ) ( ) ) ) ) %.@.%.%.@.#.( ( ( ` ( *.1.) =.2.] ] 2.1.1.2.] 2.L v H z z M t | >.2.) 1.1.=.&.*.*.#.@.*.*.@.@.@.@.@.@.@.@.@.%.%.%.%.%.%.%.%.%.%.%.%.%.%.%.%.%.%.&._ *.*.*.*.#.^ &.! ( 4Xe X 6 = 4 , # & & X +  .<./ *.#.*.-.*.&.) 1.@.,.&.1.) ) ! ! ( &.=.-.%.%.%.%.%.%.%.%.%.%.%.%.%.%.%.%.%.%.%.%.%.%.%.%.%.%.%.%.%.%.%.%.%.%.%.%.%.%.%.%.%.%.%.%.%.%.%.%.%.%.%.%.%.%.%.%.%.%.%.%.%.%.%.%.%.%.%.%.%.%.%.%.%.%.%.%.%.%.%.&.) ) %.%.%.&.%.%.@.^ =.( @.| y r M l x n x x N N l l l l l l l l l l l l l l l l l n l l x c N c c c z z c v G J 0 X 4 = 5 5 p 5 = - = = * * , 1 5 6 = = X e ,.@. .0 O 4 % = = % 4 = = % 4 4 O N :.=.&.) ) ) &.) %.%.%.%.%.%.@.%.%.%.%.%.%.%.%.%.%.%.%.%.%.%.%.%.%.%.%.%.%.%.%.%.%.%.%.%.%.%.%.%.%.%.%.%.%.%.&.$.t M z z m x l n b b k b r t | #.*.*.%.%.%.%.%.%.%.%.%.%.%.%.%.%.%.%.%.%.%.%.%.%.@.@.%.%.%.%.%.%.%.%.%.%.%.%.%.=.W o.@.@.^ %.*.^ *.*.&.&.) &.&._ _ / Q W P ^ ^ _ *.*.%.&.) ) &.&.%.%.%.%.%.%.%.%.%.%.%.%.%.%.%.&.=.) ( Q Q ^ *.=.%.( ) ) _ =.*.*.*.%.%.%.%.%.%.%.%.%.%.%.%.%.%.%.%.%.%.%.%.%.%.%.%.%.%.%.%.%.%.%.&.%.%.-.*.#.:.I q r n r m z m c c c ",
"U R | I L G L | $.$.@.W &.<.7 % * 6 8 7 % 8 e 0 t :.#.@.*.^ ( ^ %.%.%.%.%.%.%.%.%.%.%.%.%.%.%.*.` ` ( %.! ! @.$.L 0 0 0 0 0 e 7 % & & & * * = = - X { 6X( ) ^ Q %.%.( &.%.%.%.%.%.%.%.%.%.%.%.%.%.%.%.%.%.%.%.%.%.%.%.%.%.%.%.%.%.-.W :.| L K H H G L J v x J m n n x x c c c c z G U $./ ^ ^ @.U :.=.) -.-.%.>.| U R / U U / $.U R U U R | K v H G | | I I L L K v c m z x z m c c c c x x x x c c c c c c c c c c c c c c c c z z m v K | U R R | U ^ -.-.#.U R R ^ -.-.*.$.U R U -.-.) =.*.( =.! ) =.^ U U U / R U U / @.$.$.| | $.$.| | | | | | R | | | R U W -.-.%.*.=.=.=.&.&.&.&.&.&.&.&.=.=.=.&.&.&.*.=.( ) ` =.=.` *.=.( ! ) ) U U ^ ^ $.$.$./ $.$./ $.| U ^ =.*.%.-.=.) ) &.%.%.%.%.%.*.=.=.=.%.-.=.^ I | | R R | | | I | H z z v L L I Y / $./ ^ $.U %.=.=.&.) =.=.=._ _ *._ _ _ ` _ &.%.%.%.%.%.%.%.%.%.%.%.%.%.%.%.@.%._ _ %.%.%.%.*.@.&.! ( 4Xk % < & * * . 4 e 0 q  .:.@.*./ _ *.&.W @.@.Y | U @.=.&.@.@.( ( ) =.&.%.%.%.%.%.%.%.%.%.%.%.%.%.%.%.%.%.%.%.%.%.%.%.%.%.%.%.%.%.%.%.%.%.%.%.%.%.%.%.%.%.%.%.%.%.%.%.%.%.%.%.%.%.%.%.%.%.%.%.%.%.%.%.%.%.%.%.%.%.%.%.%.%.%.%.%.%.%.&.) &.%.%.%.&.&.%.^ ^ =.( @.$.L L K v l x n x x c v J J J H H H H H H H H H L L L J K z l n x z x x n b b z z c N 8 X = * 5 1 s 2 = = = = * * , 1 5 6 = = X e ,.^ | t 0 0 e e r q 0 0 e 0 0 0 0 L $.%.^ ^ ^ %.%.%.@.@.@.@.%.%.@.@.%.%.%.%.%.%.%.%.%.%.%.%.%.%.%.%.%.%.%.%.%.%.%.%.%.%.%.%.%.%.%.%.( %.@.@.%.%._ $.t m z z m v v J G L G H G L $.*.&.&.&.%.%.%.@.@.%.%.%.%.%.%.%.%.%.%.%.%.%.%.%.%.&.&.%.*.%.*.*.*.%.@.@.%.@.W ! %.-.-.-.%.%.%.%.%.%.%.*.*.&.&.( ) _ ^ ;.5.;.5.^ _ _ _ &.&.) ) &.%.%.%.%.%.%.%.%.%.%.%.%.%.%.%.%._ ( Q ;.O.;.,.Q -.@.%.&.( ( ` *.#.%.%.%.%.%.%.%.%.%.%.%.%.%.%.%.%.%.%.%.%.%.%.%.%.%.%.%.%.%.%.%.%.&.&.%.-.@.#.:.U L K K v c z c x c c ",
"z t v I :.>.-.2.%.( %.W =.<.7 % % 0 J L L :.6X>.) 2.&.%.*.%.=.W &.%.%.%.%.%.%.%.%.%.%.%.%.%.%.&.) ) %.%.o.! ! &.3.>.3.6X2.6X7X:.7 4 4 = 6 6 6 6 = O K ,.` ) =.-.%.%.%.%.%.%.%.%.%.%.%.%.%.%.%.%.%.%.%.%.%.%.%.%.%.%.%.%.%.%.%.&.( =.( =.=.) =.` 3.=.,.:.L v N l n x x x x x n b l l b l r r e r t } @.^ -.@.^ <.G t r z r r r r r l r r l n b l l q z t t K :.,.<.G G J x z z m x c c c x x x x x x x x c c c c x x x x x x c x l z M r z m r l r r t K $.$.| L r t L | $.| J t z H $.%.! 1.>.*.=.W @.| L r r r l l r r e r r e r r r r r r r r l r r r l l r w L / *./ ^ *.&.&.%.%.%.%.%.%.&.&.^ %.@.^ @.^ ^ ^ *.^ ( *.%.@.@.#.-.$.:.| v e r r r r r e e e e r r t I #.#.@.$.@.&.) &.%.%.&.&.&.%.@.-.%./ #.@.I q r l l l l e r r n l l z K ,.>.@.L t l r e k 0 } @.@.W ^ ^ ^ ^ @.@.#.*.*.*.*._ %.%.%.%.%.%.%.%.%.%.%.%.%.%.%.%.%.*._ _ %.@.@.%.*.*.&.( *.4Xk X 6 4 6 4 7 J 4X,.) 1.&.&.&.) =.%.&.^ -.R w G G R $.@.@.@.*._ ( ) &.%.%.%.%.%.%.%.%.%.%.%.%.%.%.%.%.%.%.%.%.%.%.%.%.%.%.%.%.%.%.%.%.%.%.%.%.%.%.%.%.%.%.%.%.%.%.%.%.%.%.%.%.%.%.%.%.%.%.%.%.%.%.%.%.%.%.%.%.%.%.%.%.%.%.%.%.%.%.%.) %.@.@.%.&.&.&.&.) =.( =.=.^ #.,.I G G H H G E / ,.3.2.2.2.2.1.2.2.1.1.1.2.1.2.=.,.K v J c v c c c x x m z G J 8 X 6 , 5 5 5 < = = = = * - , 1 5 6 = = X e ,.! 3.] 1.2.2.2.1.3.2.3.3.3.3.3.1.7X=.-.%.%.%.*.%.%.%.%.%.%.%.%.&.&.%.%.%.%.%.%.%.%.%.%.%.%.%.%.%.%.%.%.%.%.%.%.%.%.%.%.%.%.%.%.%.%.*.*.*.%.%.*.=.:.D m m m J G L $.2.3.2.2.=.*.2.=.) ) ) &.%.%.#.*.%.%.%.%.%.%.%.%.%.%.%.%.%.%.%.&.&.( %.*.%.*.*.*.%.^ %.-.-.-.>.>._ _ _ ^ &.&.( *.%.%.*.*.*.*.) ) ( X.6.lXu.t.X.@.*._ &.&.) *.#.#.%.%.%.%.%.%.%.%.%.%.%.%.%.%.%.*.` W jXlXlXjXP / *.@.%.%.( &.%.@.%.%.%.%.%.%.%.%.%.%.%.%.%.%.%.%.%.%.%.%.%.%.%.%.%.%.%.%.%.%.%.%.%.%.*.-.( *.=.( #.:.| G v z x x x c ",
"b e q K >.1.( ! ) ) &.) 2.<.7 . & 8 N H D $.3.) 1.] ^ @.@.*.=.( %.%.%.%.%.%.%.%.%.%.%.%.%.%.%.&.=.&.%.%.%.%.&.&.Q ! ) &.) 1.=.I O # & * & & & & & O K 6X>.( -.@.%.%.%.%.%.%.%.%.%.%.%.%.%.%.%.%.%.%.%.%.%.%.%.%.%.%.%.%.%.%.%.%.@.-.( _ =.=.1.] ) ` >.$.G r n b N m m G G G m G G H c x c c c c t | >.=.1.) ^ <.H r l n b b b n z n x l z x x x J x m z r I >.=.4XG v G c x z c x c c c x x x x z z x x x x x x x x x x x x x z z m m z z n l l b l t I >.2.^ E t j Y >.3.#.L q e m | %.! ) #.#.] ` -.,.K v M N l x c c x m c c x n n n n n n n n n n n n n n c L >.,.*.%.*.( ( %.%.%.%.%.&._ ) &.=.-.%.=.1.` =.-.*.%.%.&.( @.%.=.` 2.:.H r m m c c c c x x c x r t U 2.2.` ( W &.&.&.) &.&.*.*.%.( &.` ) 2.>.R v n n n n n z z z c c v q L #.` 3.Y t l z c m t / =.=.=.=.=.&.=.%.%.%.%.%.%.&.&.%.%.%.%.%.%.%.%.%.%.%.%.%.%.%.%.%.*._ &.@.@.@.%.( ) ) ( *.4Xk . 2 > 3 . o c 6X=.2.] ! &.%.@.*.%.&.W ,.R q x j  .-.>.=.>.>.-.( &.%.%.%.%.%.%.%.%.%.%.%.%.%.%.%.%.%.%.%.%.%.%.%.%.%.%.%.%.%.%.%.%.%.%.%.%.%.%.%.%.%.%.%.%.%.%.%.%.%.%.%.%.%.%.%.%.%.%.%.%.%.%.%.%.%.%.%.%.%.%.%.%.%.%.%.%.%.%.%.%.&.%.%.@.%.&.&.&.=.-.-.( ) &.( -.,.I t r b b r w I #.=.( ) ) ( ! ( ! &.&.) ) ) ) =.-.L t M l l n n N n n n x c J 8 % , , 5 5 p 2 = = * = * * 2 1 5 6 = = X e ,.! X.@.-.-.-.@.@.*.^ %.-.&.*.%.Q W *.%.%.( ( &.( ( &.&.&.&.&.&.&.&.%.%.%.%.%.%.%.%.%.%.%.%.%.%.%.%.%.%.%.%.%.%.%.%.%.%.%.%.%.%.%.%.*.*.*.*.@.#.*.:.t l r l z r G <._ ` ) =.&.( -.&.&.&.&.&._ _ _ _ &.%.%.%.%.%.%.%.%.%.%.%.%.%.%.%.&.&.%.%.%.@.%.%.-.( &.*.( _ _ / >.>.` _ =.=.%.&.%.%.*.*.*.*.*.*.( Q 6.a.a.t.X.@._ _ &.&.%.*.#.*.%.%.%.%.%.%.%.%.%.%.%.%.%.%.%.*.` P i.w.p.t.~ 2._ _ @.-.%.( &.( %.%.%.%.%.%.%.%.%.%.%.%.%.%.%.%.%.%.%.%.%.%.%.%.%.%.%.%.%.%.%.%.%.%.-.&.( ) ` ` =.>.$.D v x x n n x ",
"z z t K $.@.*.*.( =.=.) -.| 0 % . - b r q { | $.^ ^ #.:.#._ -.%.%.%.%.%.%.%.%.%.%.%.%.%.%.%.%.&.=.) ) *.*.@.@.*.@.*.@.@.$.@.$. .o . . X . . . X o O G 4X,.*.>.&.%.%.%.%.%.%.%.%.%.%.%.%.%.%.%.%.%.%.%.%.%.%.%.%.%.%.%.%.%.%.%.%.%.*.@.@.@.@.@.^ @.^ $.| t q r r l k r r r r r r r n e l n c c c G | ,.=.=.=.=.,.G t t G z z H G z m N c G G c c z z n m z I >.*.<.G v c c n z x x c c c x x c c x x x x x x x x x x x x x x x c z z m c c m m m N m G I :.,.$.K G G I >.,.#.I G v K $.-.( ) _ *.-.@.:.| H q r r r z n x b n N N c c c c c c c c c c c c c c v v I :.,.#.-.>.&.=.&.&.%.&.) ) ` ) ] 2.=.( =.>.=.=._ =.=.&.) ] &.( %.W *.| t r r r n b n n n n n n n G R ,.=.=.=.&.&.&.%.%.*.*.*.*.-.%.=.1./ *.>.R v z z x n z v G r r b b r J | $.| D r b b x x v / =.=.=.>.=.) 1.) ) ) ) ) ) ) &.&.%.%.%.%.%.%.%.%.%.%.%.%.%.%.%.%.*.) &.@.@.%.&.) =.) &.( <.l O X $ & X O N <./ *.^ ( =.( ( &.) &.W ,.U v c q <.P ! ~ ~ / *.@.-.%.%.%.%.%.%.%.%.%.%.%.%.%.%.%.%.%.%.%.%.%.%.%.%.%.%.%.%.%.%.%.%.%.%.%.%.%.%.%.%.%.%.%.%.%.%.%.%.%.%.%.%.%.%.%.%.%.%.%.%.%.%.%.%.%.%.%.%.%.%.%.%.%.%.%.%.%.%.%.%.&.&.&.&.%.%.%.%.@.@.*.@.@.@.^ @.:.K t r b b r t } $.:.@.@.@.@.$.$.$.$.$.@.%.%.*./ | G t z l l n l l r r r q l n 8 $ , > 1 1 p 2 = = * = * * 2 1 5 6 = = X e 6X( @.*.W ( *.^ ( ^ *._ _ ` -.=.*.-.%.%.%.%.%.%.%.%.%.%.%.%.%.%.%.%.%.%.%.%.%.%.%.%.%.%.%.%.%.%.%.%.%.%.%.%.%.%.%.%.%.%.%.%.%.%.%.%.%.*.&.) %.@.*.$.t r r z t t G | <.*.*.=.*.^ @.@.@.%.%.%.%.) _ _ &.%.%.%.%.%.%.%.%.%.%.%.%.%.%.%.*.%.%.%.%.%.%.&.=.*.&.( Q %.%.Q P P Q ^ W ^ &.*.&.&.%.*.*.*.*._ >.U 6.y.r.t.Q *._ ` ) &.&.&.&.&.%.%.%.%.%.%.%.%.%.%.%.%.%.%.%.) >.W jXzXlXt.P ~ >./ / -.) ( ) ) &.%.%.%.%.%.%.%.%.%.%.%.%.%.%.%.%.%.%.%.%.%.%.%.%.%.%.%.%.%.%.&.*.) -.%.@.%.@.*.^ $.| t c m z n x x ",
"R | U U @.W @.#._ >.| I K { q k l L $./ U :.>.>._ _ -.>._ _ *.*.%.%.%.%.%.%.%.%.%.%.%.%.%.%.%.%.&.( ) ) =._ *.*.*.-.^ ( ^ ^ *./ I I R R I I I I I I K L H L ^ ( &.%.%.%.%.%.%.%.%.%.%.%.%.%.%.%.%.%.%.%.%.%.%.%.%.%.%.%.%.%.%.&.) ) &.) ( ) &.) ) =.=.*.U U / / / / / / / / | | R | H z H c c v t J K L I @.*.@.R U | I v t c v r l n n x x n b n n m c z H K K K G v z c m z c x x x x x c c c x x c c c c c c c c c c n m c c x x n n b n c v l l r c K K J z z z c K K L I U U U #.-.( =.&.=.) ) =.=.@.U | $.U | | K v z z z z z z z z z z z m m m m m m n z v K L L U *.^ ( &.&.%.%.) ) _ _ ^ @.I L L K L L L | :.*.( =.%.@.&.) 1.=.| | $.I v z z z x x x x z r H K G I @.%.) &.@.@.%.*.*.*.@.W *.@.L G L H c x x n b z L | | R / / U / ) ) 1.Q U | K c l z J K L L K L L U $.#.@.%.%.%.@.%.%.%.%.%.%.%.%.%.%.%.%.%.%.%.%.%.%.%.) &.@.@.&.` =.=.&.%.! >.I L R R R I Y / >.^ ) ` =.=.) ( ( ( *.^ >.U D c w 4.kXkX6.-.*.*.@.%.%.%.%.%.%.%.%.%.%.%.%.%.%.%.%.%.%.%.%.%.%.%.%.%.%.%.%.%.%.%.%.%.%.%.%.%.%.%.%.%.%.%.%.%.%.%.%.%.%.%.%.%.%.%.%.%.%.%.%.%.%.%.%.%.%.%.%.%.%.%.%.%.%.%.%.%.%.%.%.%.%.%.&.) &.%.@.@.@.@.@.-.*.*.#.@.-.W Q U U R R U / _ ) ) ) ( ( ) ) ) ) ) ) ) ) ) =.=./ U R U R R | | | | $.U |  .e % 4 , 5 5 p , = = * = * * 2 5 5 6 = = X e ,.( *.*.^ &.&.%.-.%.&.( ( %.@.%.*.=.*.*.%.*.-.-.-.%.%.%.%.%.%.%.%.%.%.%.%.%.%.%.%.%.%.%.%.%.%.%.%.%.%.%.%.%.%.%.%.%.%.%.%.%.%.%.%.%.( ) ) ) %.( ) *.U U R R I | } I K L Y _ *.( %.=.%.&.%.%.@.%.%.%.%.%.%.%.%.%.%.%.%.%.%.%.%.%.%.%.*.*.%.%.%.%.%.*.*.*.-.o.O.6.kX6.t.t.kXtX;.X.%.^ %.&.&.&.%.*.*.*.>.Q 6.u.u.jXQ *.` ` &.%.%.*.&.) &.%.%.%.%.%.%.%.%.%.%.%.%.%.%.%.=.W -.;.O.5.6.t.6.o.Q &._ _ =.&.&.%.%.%.%.%.%.%.%.%.%.%.%.%.%.%.%.%.%.%.%.%.%.%.%.%.%.%.%.%.%.%.=.( *.@.@.*.^ %.@.$. .G H N z m x x ",
"1.3.&.=.1.! ) ( >.,.K y q H v K z K ,.1.=.>./ =.%.@.$.@.( ) =.&.&.%.%.%.%.%.%.%.%.%.%.%.%.%.%.@.@.X.o.&.-.*.*.%.%.-.W -.=.) =.) 2.2.3.2.1.2.2.2.3.,.K r e m $.=.&.%.%.%.%.%.%.%.%.%.%.%.%.%.%.%.%.%.%.%.%.%.%.%.%.%.%.%.%.%.%.%.@.@.%.%.@.@.^ *.) ) ) &.-.>.2.2.>.>.=.1.1.1.=.=.2.>.L t c c m n b n r r G $.>.( =.2.3.#.G r M M m m m x c c n M z m G G x x l r z z c z n m z m x x n x x c c c x x x x x x x x x x x x x x z x G G c m n n m c z m b b z r z l m z l l r v R 7X2.) >.*.#.*.( &.@.*.) ) =.=.&.&.1.2.-.I D t z M c c c c c c c c c c c c c c c x l n r t | :.@.%.%.%.@.@.@.@.#.#.*.$.K t r l r l w K $.*.( ) -.@.@.o.&.&.-.2.2.^ G z z x c c c x J z l r q G $.=.) ) %.@.@.*.*._ *.^ >.| v r z x c c c c z t I ,.2.=.2.2.=.-.*.@.&.) 1.2.R L v m l x r l l r w K $.$.*.` ) ) ) ) &.%.%.%.%.%.%.%.%.%.%.%.%.%.%.%.@.%.&.&.@.%.) ` ( *.@.%.! 1.2.3.3.1.1.2.2.1.&.%.=.%.*.@.@.*.%.%.*.%.2.Y t y y xXlXlX6.X.W #.&.=.&.%.%.%.%.%.%.%.%.%.%.%.%.%.%.%.%.%.%.%.%.%.%.%.%.%.%.%.%.%.%.%.%.%.%.%.%.%.%.%.%.%.%.%.%.%.%.%.%.%.%.%.%.%.%.%.%.%.%.%.%.%.%.%.%.%.%.%.%.%.%.%.%.%.%.%.%.%.%.%.@.@.&.) &.%.@.@.-.&.( ) ) ) -.@.%.%.=.1.=.1.1.=.&.&.( &.&.&.^ *.*.&.&.&.%.%.%.%.( =.=.1.2.1.2.1.1.1.1.1.1.=.>.4X0 X 4 = 1 1 1 > = = * = * = 2 s 5 6 = = X e 6X( ^ *.) =.( W *.^ *.( %.-.*.@.*.( ) ) ( ) &.&.&.( %.%.%.%.%.%.%.%.%.%.%.%.%.%.%.%.%.%.%.%.%.%.%.%.%.%.%.%.%.%.%.%.%.%.%.%.%.%.%.%.@.@.@.@.@.@.&.1.=.2.2.1.=.3.$.D t r K :.>._ ^ *.&.) &.&.%.%.%.%.%.%.%.%.%.%.%.%.%.%.%.%.%.%.%.&.*.&.%.%.%.%.*.*._ *.%.Q O.t.lXy.p.r.lXjX;.X.*.*.*.*.) ( &.&.%.%.=.P q.y.r.jXQ %.&.&.%.@.#.*.%.&.%.%.%.%.%.%.%.%.%.%.%.%.%.%.%.%.o.=.' ' Y O.lXy.lX+.X.%.=.*.%.%.%.%.%.%.%.%.%.%.%.%.%.%.%.%.%.%.%.%.%.%.%.%.%.%.%.%.%.%.%.%.%.%.-.^ %.^ %.=.W ) =.#.| t m m v J x x ",
"#.*.*._ %.%.) &.-.<.{ r r z t c t G ,.` ) =.@.@.%.&.*.*.%.&.&.&.%.%.%.%.%.%.%.%.%.%.%.%.%.%.%.%.%.%.%.%.%.%.%.%.%.%.%.%.%.%.%.%.@.@.( ( @.@.@.@.^ <.H r r G ,.2.=.&.=.1.1.1.=.=.&.=.( %.*.@.%.%.%.%.%.%.%.%.%.%.%.%.%.%.%.%.%.%.%.%.%.%.%.%.%.%.%.%.%.%.%.%.%.%.%.%.@.@.#.#.*.#.$.| H r l b l b l l r w L $.=.) &.%.:.| v r l b l l l l l l l l l l l l l l l l l l r z b b N x m z z z c c c c x c c c c c m c c c m m c c c c z M z z z c m x m v G m n m v v l l b l r G I <.#.*.*.*.%.%.%.%.%.%.%.%.%.*._ _ _ >.:.K v r l l l l l l l l l l l l l l l l l l l n r t | >.=.) ) =.1.2.&.&.&.&.1.6XL t M r z z q K $.#.( ) %.@.%.) ) ) _ *.$.| t t r l l l b l b e l l r L | :.*.*.%.%.%.%.%.&.) _ >.| G r l l l l l b r w K :.#.%.@.@.@.%._ _ =.( #.$.} t r r r b l l b r t K $.$.*._ ) &.%.%.%.%.%.%.%.%.%.%.%.%.%.%.%.%.%.%.%.%.%.%.%.%.%.%.%.%.%.%.%.%.%.%.%.%.%.%.%.%.%.%.%.%.%.%.%.%.%.%.@.@.>.R j m u kXu.u.6.~ -.*.^ =.%.%.%.%.&.%.W %.@.^ -.%.! -.@.*.#.@.@.%.o.&.&.) _ _ #.@.%.%.^ &.&.( @.%.*.*.#.*.*.%.%.%.%.*.*.*.*.%.%.%.%.%.%.%.%.%.%.%.%.%.%.%.%.%.%.%.%.%.%.%.%.%.%.%.%.%.%.%.) *.*.( ) *.&.*.%.@.@.@.@.@.%.%.@.@.@.@.@.%.%.%.%.^ ^ *.*.*.*.( %.%.%.%.%.%.%.%.%.%.%.%.%.%.%.*._ ^ %.! 1.! 2.qXq O % , 6 s 5 * & * - - % * 2 5 8 8 & = X j 6X1.3.) ) &.%.@.( =._ _ %.%.&.&.%.%.%.%.%.%.%.%.%.%.%.%.%.%.%.%.%.%.%.%.%.%.%.%.%.%.%.%.%.%.%.%.%.%.%.%.%.%.%.%.%.%.%.%.%.%.%.%.%.%.%.%.%.%.%.%.&.&.-.^ @.^ $.$.@.D y w L $.*.( ) ) ) ) ) &.&.&.%.%.%.%.%.%.%.%.%.%.%.%.%.%.%.%.%.&.*.&.%.%.%.%.*.*.>.=.%.Q O.t.lXr.w.r.a.jX;.Y _ _ _ *.&.&.` _ &.! ' Y 5.a.y.jXQ / _ _ ` Q &.! >.=.&._ _ _ &.&.%.%._ / >.( ' >.*.( ' ' ' 2.Y X.lXe.lXO.Q / _ ` =.( #.*.&.! o.%.#.*._ *.-.%.#.#.*.>.@.-.&.) =./ W W ( / _ >.( %.%.*.%.%.%.%.@.@.*.*.*.:.| G w z l m x x ",
"*.*.*.*.@.%.%.&.@.$.U G L J t l t H ,.^ ) =.%.-.%.&.*.*.%.&.&.&.%.%.%.%.%.%.%.%.%.%.%.%.%.%.%.%.%.%.%.%.%.%.%.%.%.%.%.%.%.%.%.%.%.( ) ) ) ( %.%.-.>.I L G K | | #.( ( _ *.#.@.^ W =.( %.*.@.*.) %.%.%.%.%.%.%.%.%.%.%.%.%.%.%.%.%.%.%.%.%.%.%.%.%.%.%.%.%.%.%.&.&.&.%.%.%.%.*.*.*.@.I G G G G G G H G G I $.-.@.-.@.$.| L G H m v v z M z z z z z z z v z z z c G G G K m z m z z z l l n x x x x x x x x x x x x x x x x x x x z z l z x c x x c z c x b b z J L L L L G L U #.*._ &.&.%.&.&.&.&.&.%.%.&.&._ _ _ >.#.U L G H H G c c c c c G c c c c c c c G G G H m G U *.*.*.@.| @.@.@.^ @.$.| <.K m m v J L L U :.*.) ) *.@.@.@.@.@.@.@.$.| G G G H G G H H L G G L L I @.*._ _ &.&.%.&.) ) -.@.$.| L G H c H H H H H G I #.@.&.%.%.%.%.*.*.=.( #.$.U L D G G H G G H G G I $.#.%.&.%.%.@.@.%.%.%.%.%.%.%.%.%.%.%.%.%.%.%.%.%.%.%.%.%.%.%.%.%.%.%.%.%.%.%.%.%.%.%.%.%.%.%.%.%.%.%.%.%.%.%.%.%.@.>.U j m u kXu.jX6.U $.$./ ^ %.) &.&.&.( ( *.*./ =.&.( %.^ *.%.@.@.%.%.%.&.) *._ ^ ^ %.( _ *.=.&.%.@.@.@.#.-.%.%.%.%.%.*.*.*.%.%.%.%.%.%.%.%.%.%.%.%.%.%.%.%.%.%.%.%.%.%.%.%.%.%.%.%.%.%.%.%.^ ^ %.*.*.*.) ) &.&.&.&.&.) &.&.&.&.&.&.=.=.=.=.&.( ( *.*._ *.) %.%.%.%.%.%.%.%.%.%.%.%.%.%.%.*.( _ *.*.,.Y  . .0 % 2 2 6 5 < 1 , , < , > > 2 1 5 5 3 > % k  .| Y W -.&.@.@.%._ _ _ %.%.&.&.%.%.%.%.%.%.%.%.%.%.%.%.%.%.%.%.%.%.%.%.%.%.%.%.%.%.%.%.%.%.%.%.%.%.%.%.%.%.%.%.%.%.%.%.%.%.%.%.%.%.%.%.%.%.%.%.&.&.*.( %.@.^ #.$.Y L D Y @.%.) =.-.%.%.%.) &.&.&.%.%.%.%.%.%.%.%.%.%.%.%.%.%.%.%.%.*.*.%.%.@.%.%.*.( ( ( W o.6.kXt.y.t.t.tX;.O.;.X.W &.&.) ( / @.3.-.X.i.u.u.jXQ -.~ o.;.;.3.X.( ! %.%.*.*.%.%.@.@.%.^ -.%.^ W Q ;.O.;.O.O.O.5.kXt.t.+.O.O.;.Q o.%.#.*.&.) &.%.%.*.-.%.W W @.%.W ^ ( &.( W W o.;.;.5.o._ =.%.&.( %.@.%.&.&.@.@.*._ ^ #.| L L K v z x x ",
"%.%.*.*.#.%.&.) ) =.=.( >.:.L c t H ,.( ) ) %.-.) &.#.#.@.%.&.&.%.%.%.%.%.%.%.%.%.%.%.%.%.%.%.%.%.%.%.%.%.%.%.%.%.%.%.%.%.%.%.%.@.@.%.&.&.&.%.%.) 2.` _ >.| G r r e e r r r r w I $.@.@.%.( =.) &.%.%.%.%.%.%.%.%.%.%.%.%.%.%.%.%.%.%.%.%.%.%.%.%.%.%.%.%.%.%.&.&.) %.%.%.&.&.) =.=.#.@.>.>.=.2.>.>.=.&.&.=.) ( ) ( ) =.( =.2.=.2.2.2.2.2.2.2.2.2.2.2.2.2.2.2.2.2.>.>.,.| G v v H m n n m m c x c x x x x x x x x x x x x x x x c z n m m c c J N c G c c c H | #.*.*.#.$.@.%.=.&.&.&.%.%.&.&.&.) ) %.%.@.@.*.*.^ *.>.*._ -.>.>.2.2.2.2.2.2.2.2.2.2.2.2.2.2.2.2.1.1.=.) ) ] &.| t r r r l l r r w c z z v L $.>./ ( &.&.) =.*.&.&.) ) ) ) ) ) ) =.=.>.>.2.2.2.2.2.>.>.>.#.*.>.=._ _ &.%.%.&.&.) ) ! ) =.%.-.>.>.>.>.-.>.*.-.1.2.) &.&.&.%.%.%.%.( ( *.=.-.*.-.>.>.2.>.>.2.-.=.3.) ) ) ) ) ) ) &.&.%.%.%.%.%.%.%.%.%.%.%.%.%.%.%.%.%.%.%.%.%.%.%.%.%.%.%.%.%.%.%.%.%.%.%.%.%.%.%.%.%.%.%.%.%.%.%.%.( >.U t M u kXa.a.t.X.@.-.*.-.%.*.=.-.%.( %.( -._ *.%.%.%.@.*.%.%.%.%.%.%.%.%.%.%.^ &.*.*.=.=.=.>.>.=.( ( %.%.*.*.*.*.*.*.*.*.%.%.%.%.%.%.%.%.%.%.%.%.%.%.%.%.%.%.%.%.%.%.%.%.%.%.%.%.%.%.%.%.*.@.*.*.*.^ ^ @.@.@.@.@.@.@.@.@.@.@.@.^ ( %.@.^ *.%.*.@.*.*.*.*.%.%.%.%.%.%.%.%.%.%.%.%.%.%.%.%.*.*.*.$.K + O % 5 1 p 1 , , : 5 5 5 5 1 2 2 2 , % 6 5 s 2 % 4 o u } <.@.@.-.%.( _ _ &.&.&.&.%.%.%.%.%.%.%.%.%.%.%.%.%.%.%.%.%.%.%.%.%.%.%.%.%.%.%.%.%.%.%.%.%.%.%.%.%.%.%.%.%.%.%.%.%.%.%.%.%.%.%.%.%.%.%.%.&.&.&.( *.*.^ @.*.^ -.@.-.2.&.&.*.@.@.@.%.&.&.) &.&.%.%.%.%.%.%.%.%.%.%.%.%.%.%.%.%.*.*.%.%.@.%.%.&.=.=.=.( Q ^ o.U ~ ~ P O.6.lXlXkXQ =.) ) -.X.O.jXjXu.a.a.a.t.Q -.o.6.jXu.jX;.%.=.%.%.*.*.%.%.%.%.%.o.o.=.3.%.;.jXjXlXlXu.jX6.P Q o.6.jXjXjXO.@.-.@.@.&.&.%.%.%.%.^ &.%.-.*.-.&.) %.*.) *.o.5.jXu.jX;.X._ %.=.( ( @.%.&.) %.%.&.) =.=.-.^ #.<.K v c x ",
"&.) *.*.*.*.&.&.W &.1.] 2.>.G r r H <._ =.) ( ( &.&.#.#.%.%.&.&.%.%.%.%.%.%.%.%.%.%.%.%.%.%.%.%.%.%.%.%.%.%.%.%.%.%.%.%.%.%.%.%.#.#.@.%.%.&.%.%.^ ) ) ` 2.$.t z H G H J N m c G I :.*.( %.%.-.%.%.%.%.%.%.%.%.%.%.%.%.%.%.%.%.%.%.%.%.%.%.%.%.%.%.%.%.%.%.%.%.%.%.%.@.@.%.%.&.&.W ) ( ( -.&.) 1.1.1.=.=.=.&.%.%.-.( ) =.) 1.1.=.%.@.%.%.%.%.@.@.%.%.%.%.@.@.@.&.! ) ) >.| G m n l l b n x m G c c c c m c c c c c c c c c c c c c c m x c x l b b b z z z v G $.=.1.=.=.-.&.%.&.&.%.%.%.@.@.@.%.%.%.%.@.@.@.@.@.^ &.=.=.=.1.1.=.&.&.&.&.&.&.&.&.&.&.&.&.&.&.&.&.=.*.$.$.( %.$.| r r n x m c l l n N b n t L #.2.=.=.&.&.%.%.*.*.&.&.&.&.&.&.&.) ( ( ( ( ) ) ) ) ) ! ( &.( %.-.( &.%.%.@.@.%.%.%.%.W &.=.*.=.2.=.) ] =.=.%.=.&.) &.&.&.&.&.&.%.%.%.&.&.&.&.=.1.=.) &.( ) =.( W %.%.%.%.%.@.@.@.@.%.%.%.%.%.%.%.%.%.%.%.%.%.%.%.%.%.%.%.%.%.%.%.%.%.%.%.%.%.%.%.%.%.%.%.%.%.%.%.%.%.%.%.%.%.%.%.%.%.%.-.U t m u kXlXu.6.~ Q ) ` =.W ^ ( =.%.( -.-.*.*.*.%.*.%.^ *.%.%.%.%.%.*.@.@.%.%.&.=.=.( ( ! Q *.*.=.*.) %.( %.*.*.*.%.%.*.*.%.%.%.%.%.%.%.%.%.%.%.%.%.%.%.%.%.%.%.%.%.%.%.%.%.%.%.%.%.%.%.%.>.*.) *.( %.-.=.*.=.&.&.&.&.&.%.-.%.=.=.=.=.-.%.%.-.*.@.@.*.) *.%.%.%.%.%.%.%.%.%.%.%.%.%.%.%.%.%.%.&.,. .O % & 2 p 2 1 = - % < 8 5 5 5 5 1 , * - 4 5 p p 9 3 4 o { ,.^ %.-.%.%.%.%.%.&.) ) %.*.%.%.%.%.%.%.%.%.%.%.%.%.%.%.%.%.%.%.%.%.%.%.%.%.%.%.%.%.%.%.%.%.%.%.%.%.%.%.%.%.%.%.%.%.%.%.%.%.%.%.%.%.%.%.&.&.&.( ) =.( ( -.-.=.&.&.) ( ( *.@.@.@.%.&.&.) &.&.%.%.%.%.%.%.%.%.%.%.%.%.%.%.%.%.&.&.%.%.@.@.%.%.W W ) *.( _ =._ 2.2./ X.q.a.r.i.P >.] ' -.} O.lXr.9.9.9.a.t.Q / Y 5.a.a.jXO.Q _ *.*.&.&.*._ _ *.( &.! ( ^ Y ;.xXe.w.p.r.a.t.P _ F tXlXa.u.P Q _ @.@.%.*.*.*.%.*.( >._ >./ / *.>.-.=.=.*.U ;.lXr.lX+.Q @.*.=.( ) %.%.&.) %.%.%.&.) ) =.( >.,.I t z x ",
"%.%.&.&.*.*.%.%.@.@.@.^ -.$.G r t L :._ =.) =.=.&.) #.#.%.%.%.%.%.%.%.%.%.%.%.%.%.%.%.%.%.%.%.%.%.%.%.%.%.%.%.%.%.%.%.%.%.%.%.&.` _ %.%.&.&.) &.-.-.-.W #.U q r r r k k e e e q K $.@.%.%.&.=.) %.%.%.%.%.%.%.%.%.%.%.%.%.%.%.%.%.%.%.%.%.%.%.%.%.%.%.%.%.%.%.%.*.*.*.*.*.*.&.&.=.=.-.-.-.%.( &.W W W @.@.@.$.#.#.#.#.@.^ W W W &.&.&.&.&.&.&.&.&.&.&.&.&.&.&.&.&.%.$.$.K w r r r l n l l l n z n c c c c x c c c c c c c m c c c z z l z z r b l l l r l r t | @.( ( &.%.( ( ( &.&.*.*.#.#.*.*.%.) %.%.%.%.%.%.%.%.%.( ( ( W Q @.@.@.@.@.@.@.@.@.@.@.@.@.@.@.%.^ ~ ^ &.! ) -.| w r M l l n l N r r r r q G | @.-.&.%.%.%.^ ( *.*.*.*.*.#.#.@.@.%.%.%.%.%.%.%.%.%.( @.*.*.-.-.-.&.&.%.%.%.%.%.@.#.@.@.@.^ W ^ W / ( %.^ W W W W @.%.%.%.&.&.%.%.*.-.%.^ ( ( ! Q &.%.( &.=.-.%.%.@.@.#.#.#.#.*.*.%.%.%.%.%.%.%.%.%.%.%.%.%.%.%.%.%.%.%.%.%.%.%.%.%.%.%.%.%.%.%.%.%.%.%.%.%.%.%.%.%.%.%.%.%.%.%.%.%.o.-.U t m u kXlXu.6.Q Q / ^ ! o.o.Q ` >._ #.*./ =._ ) =.) ( ) &.%.&.&.*.*.#.@.@.%.( =.( Q %.X.X.%.W _ _ ) &.( %.*._ _ %.%.@.%.%.%.%.%.%.%.%.%.%.%.%.%.%.%.%.%.%.%.%.%.%.%.%.%.%.%.%.%.%.%.%.%.*.( ( ) ) =.=.( =.=.=.=.1.1.=.=.1.1.1.1.1.=.=.*.( =.=.( ( *.) =.&.%.%.%.%.%.%.%.%.%.%.%.%.%.%.%.@.%.( ,.I O X . , p 2 p % = & 2 5 1 1 5 p 5 < * - % , : 2 2 @ 4 o  .,.( &.&.@.*.#.*.%.%.&.) &.*.%.%.%.%.%.%.%.%.%.%.%.%.%.%.%.%.%.%.%.%.%.%.%.%.%.%.%.%.%.%.%.%.%.%.%.%.%.%.%.%.%.%.%.%.%.%.%.%.%.%.%.%.%.%.( ( =.( ) =.*.) %.&.^ ( ( ( ^ -.-.%.%.&.&.&.) ) &.&.%.%.%.%.%.%.%.%.%.%.%.%.%.%.%.&.&.&.%.%.%.*.#.#.-.-.-.-.-.%.*.=./ =.Q X.q.a.a.u.8.Q / / *.X.;.xXu.a.a.a.lXt.O.Q Q 6.u.lXjX;.W =.*.&.&.&.*._ _ _ ( 1.( ( W Y +.jXlXa.zXlXa.q.P X.Q kXu.lXjXX.%.&.o.%.%.*.*.%.%._ =.>.Q -.U @.@./ @.%._ *.P O.lXq.lXO.Q *.*.*.( %.%.%.) ) %.@.%.%.^ W ) ^ ) -.K q z x ",
"@.%.%.%.*.*.*.*.-.*.-.%.=.-.U I I R >.( =.^ -.=.) ) *.*.&.%.%.%.%.%.%.%.%.%.%.%.%.%.%.%.%.%.%.%.%.%.%.%.%.%.%.%.%.%.%.%.%.%.%.&.*.*.@.@.%.%.&.) Q W -.&.>.-.Y U R / R R R R U U U -.&.( &.%.-.%.%.%.%.%.%.%.%.%.%.%.%.%.%.%.%.%.%.%.%.%.%.%.%.%.%.%.%.%.%.%.%.%.*.*.*._ _ ` _ _ ^ ( ^ ^ @.@.@.%.-.*.&.&.&.( ) =.) _ =.=.&.*.-.=.&.&.*.*.*.*.*.*.&.&.*.*.*.*.*.&.%.@.@.-.@.U R | U U R I v z m z c c c c c x c x c c c x c c c c x z n z K | I | I I U U U I Y #.#.@.@.%.-.-.*.*.*.*.*.*.*.*.*._ &.&.&.&.&.&.&.&.%.%.%.%.-.-.*.&.) ) ) ) ) ) ) ) ) ) ) ) ) ) ) ) >.#.#.-.&.=.-./ U I | G G G G | | U | | I R #.*.%.) &.%.@.^ ( &._ _ _ _ _ _ _ _ ) ) ` ` ) ) ) &.-.@.@.@.@.%.^ ^ &.&.) ) &.&.%.%.( _ =.=.=.=.=.=.=.=.=.=.&.&.=.-.%.%.%.%.&.&.%.%.@.%.%.%.-.-.=.&.( ) ( &.=.=.=.*._ _ _ _ ` ` ` ` &.%.%.%.%.%.%.%.%.%.%.%.%.%.%.%.%.%.%.%.%.%.%.%.%.%.%.%.%.%.%.%.%.%.%.%.%.%.%.%.%.%.%.%.%.%.%.%.) ( >.U t M u kXa.e.t.+.5.5.6.6.6.6.X._ >.U L L I $.*.( &.%.&.) *.%.&.&.*.*.#.@.o.%.( =.^ o.6.6.6.6.@._ ` ( -.^ @.#.*.*.&.%.%.*.%.%.%.%.%.%.%.%.%.%.%.%.%.%.%.%.%.%.%.%.%.%.%.%.%.%.%.%.%.%.%.%.%.^ *.*.@.:.| L K K K K K K K K K K K I K K L L U #.-.^ #.*.( &.&.%.%.%.%.%.%.%.%.%.%.%.%.%.%.*.*.-.! ,. .+ 7 = a V g g # = > p 1 2 1 p p 5 < = & % f V V g # 4 +  .,.( =.( @.*.*.*.@.%.%._ _ _ &.%.%.%.%.%.%.%.%.%.%.%.%.%.%.%.%.%.%.%.%.%.%.%.%.%.%.%.%.%.%.%.%.%.%.%.%.%.%.%.%.%.%.%.%.%.%.%.&.&.%.%.%.%.%.( &.) ( *.*.&.( ^ -.-.-.-.-.-.%.( &.&.&.&.&.&.%.%.%.%.%.%.%.%.%.%.%.%.%.%.%.%.%.%.&.&.%.%.*.*.*.*.@.^ o.@.@.W %.%.@.>.*.W ;.5.;.5.6.6.6.O.X.W Q 3.;.;.;.;.5.;.6.6.6.5.;.;.3.W ^ ( %.%.o.o.%.%.*.*.&.&.o.6.kXi.4.{ { { { ..{ ..6.6.6.5.;.;.qX@.&.~ %.%.*.*.@.%.%.&.( %.Q 6.6.6.5.Q X.%.) >.Q ;.xXu.jXO.Q =.) ) %.%.%.&.&.&.%.%.@.%.-.%.=.( %.,.{ t z x ",
"@.@.%.%.#.#.*.` ( ( &.( ) 1.) =.:.#.>.( &.W %.( ) &.*.*.) ) @.@.%.%.%.%.%.%.%.%.%.%.%.%.%.%.%.%.%.%.%.%.%.%.%.%.%.%.%.%.%.%.%.%.*.*.@.@.@.%.&.&.=.=.&.W ( =.1.2.1.1.1.1.1.2.=.=.! =.( &.*.@.*.%.%.%.%.%.%.%.%.%.%.%.%.%.%.%.%.%.%.%.%.%.%.%.%.%.%.%.%.%.%.%.%.%.%.&.&.&.) ) &.&.*.*.-.-.*.*.*.*.@.@.^ ^ @.%.%.%.%.%.%.( @.@.@.@.*.*.*.*.*.*.*.*.*.*.*.*.*.*.*.*.( ) ( =.) ) 2.1.2.2.3./ G v c x x x x x x x x x x x x x x x x x n M m G U 3.1.2.2.1.2.2.2.2.] 3.%.^ ^ %.*.) ( *.%.%.%.&.&.) ) ) &.&.&.&.&.&.&.&.-.%.^ @.*.%.( %.@.@.@.@.@.@.@.@.@.@.@.@.@.@.@.@.*.( %.%.%.) %.*.>.>.,.K v G L :.=.] 1.1.=.=.=.=.) ) &.%.^ @.%.%.@.%.%.%.%.%.%.%.%.%.( %.%.*.*.*.%.*.*.*.-.-.-.-.%.&.&.) &.&.%.%.*.*.*.%.%.%.%.%.^ ^ ^ ^ ^ W ^ %.%.%.%.%.%.%.%.%.%.%.%.%.%.%.%.%.@.@.@.@.@.@.#.@.@.@.@.%.%.%.%.%.%.%.%.%.%.%.%.%.%.%.%.%.%.%.%.%.%.%.%.%.%.%.%.%.%.%.%.%.%.%.%.%.%.%.%.%.%.%.%.%.%.%.%.%.%.%.%.*.*._ >.U t m u kXa.r.a.r.p.p.p.a.lXjXX.@.,.L w w G | $.@.%.%.*.@.#.*.&.&.&.*.*.*.o.%.( =.^ O.jXlXlXt.X.%.=.( -.W #.#.*.%.&.%.%.*.%.%.%.%.%.%.%.%.%.%.%.%.%.%.%.%.%.%.%.%.%.%.%.%.%.%.%.%.%.%.%.%.*.@.-.%.@.:.} w r r r r l l l l l l l l r r r q I :.#.^ @.#.^ %.%.%.%.%.%.%.%.%.%.%.%.%.%.%.%.%.*.=.! ,. .O 4 $ V C.C.C.: = 2 5 p p p p 5 5 < = 1 2 C.C.C.V $ 4 +  .,._ =.( %.%._ _ %.%.@.*._ _ &.%.%.%.%.%.%.%.%.%.%.%.%.%.%.%.%.%.%.%.%.%.%.%.%.%.%.%.%.%.%.%.%.%.%.%.%.%.%.%.%.%.%.%.%.%.%.&.&.&.&.&.%.%.%.%.( %.&.( %.%.%.%.@.@.@.^ %.( ( ( &.&.%.%.%.%.%.&.%.%.%.%.%.%.%.%.%.%.%.%.%.%.%.%.%.@.%.%.%.%.%.%.-.-.%.@.%.%.( %.&.-.>./ _ / Y X.lXlXa.+.Q &.! -.Q Q Q Q U X.lXa.a.+.P U =./ 2.=.%.%.%.%.%.%.%.@.>.Q X.kXlXlX0.+ l l 0 q u H xXlXxX+.P Y / Q >.>.*.*.*.*.@.%.%.&.! %.O.jXlXxX6.P @.-.( =.Q ;.jXi.lXO.Q =.) &.%.&.%.&.%.%.@.%.&.&.%.X.%.^ ^ :.K t z x ",
") ) &.%.$.$.#.*.&.&.#.$.$.@.( >.*._ =.( -.^ -.%.&.&.*.*.) ) @.@.%.%.%.%.%.%.%.%.%.%.%.%.%.%.%.%.%.%.%.%.%.%.%.%.%.%.%.%.%.%.%.&.*.=.=.=.=.*.*.&.^ -.@.@.@.@.-.^ @.@.@.%.%.%.@.^ %.-.@.@.#.@.*._ %.%.%.%.%.%.%.%.%.%.%.%.%.%.%.%.%.%.%.%.%.%.%.%.%.%.%.%.%.%.%.%.%.%.%.%.%.%.%.%.@.^ %.*.*.=.=.) ( _ %.( %.-.%.^ %.%.( ( *.*.%.( ( ( ( ( ( ( ( ( ( ( ) ) ( ( ( ( -.-.@.*.%.( *.W ^ @.:.I t r b b x z z z z z z z z z z z z z z z z z M w I >.W ( @.Q @.@.@.@.@.@.*.%.*.=.=.%.@.@.@.@.@.%.&.&.) &.%.@.@.@.%.%.%.%.*.*.#.*.*.*.*.=.) ) ) ) ) ) ) ) ) ) ) ) ) ) ) ) &.&.&.&.%.@.@.=.( ` :.L r t G <.X.o.o.( %.( ^ *.-.-.%.^ ^ %.&.! %.%.%.&.&.) &.&.%.%.%.%.*.*.*.*.( _ _ _ *.( ^ @.@.%.%.%.%.%.%.%.-.*.%.%.-.=.&.&.%.%.( &.&.&.&.&.&.&.%.%.%.%.%.%.&.( ( &.&.( %.=.) ` =.) ^ %.-.%.%.&.&.&.&.&.%.%.%.%.%.%.%.%.%.%.%.%.%.%.%.%.%.%.%.%.%.%.%.%.%.%.%.%.%.%.%.%.%.%.%.%.%.%.%.%.%.%.%.%.%.%.%.%.%.%.%.@.-.U t m u kXlXe.a.y.a.e.y.r.a.t.~ Q 6XI t v D $.-.( ) ) =.( *.%.&.o.&.*.*.*.@.-.( -.Q X.q.y.a.5.P W >._ -.@.$.#.%.&.o.&.%.*.%.%.%.%.%.%.%.%.%.%.%.%.%.%.%.%.%.%.%.%.%.%.%.%.%.%.%.%.%.%.%.%.&.( ) ) ) ,.| t c m n m m G H H c c G c n n z v I *.*.( *.*.^ &.%.%.%.%.%.%.%.%.%.%.%.%.%.%.%.&.! &.Q ,. .O 6 $ g C.C.C.# - 6 6 p p p 1 1 < = = : ; C.C.C.V $ - O  .:._ %.^ -.( ) ) %.%.@.*._ _ &.%.%.%.%.%.%.%.%.%.%.%.%.%.%.%.%.%.%.%.%.%.%.%.%.%.%.%.%.%.%.%.%.%.%.%.%.%.%.%.%.%.%.%.%.%.%.&.&.&.&.&.%.%.%.%.^ *.-.^ ^ %.%.-.%.%.%.&.-.&.&.=.&.%.@.@.@.%.&.&.%.%.%.%.%.%.%.%.%.%.%.%.%.%.%.%.#.#.@.%.%.&.&.&.W ( W ^ ( *._ ) ) ( =.&.) ( Q ;.lXy.a.+.Y ' >./ >.) 1.2.^ X.lXr.zX+.X.' =.Q =.Q _ _ _ _ *.*.%.%.=.~ X.t.y.a.hXu M { z J q H zXw.a.O.o.2.2.( #./ *.*.%.%.o.%.%.*._ %.} t.y.lX6.P @.-.W &.Q ;.lXu.lXO.Q %.&.&.&.( &.&.%.%.@.%.&.) %.W %.^ &.>.I w z x ",
"%.%.%.%.%.%.%.%.%.%.%.%.%.%.%.%.%.%.%.%.%.%.%.%.%.%.%.%.%.%.%.%.%.%.%.%.%.%.%.%.%.%.%.%.%.%.%.%.*.*.*.*.@.@.@.*.( =.&.=.%.%.=.^ / >./ *.1.) =.%.*.%.&.) =.=.&.&.&.&.%.%.%.%.%.%.( %.%.%.%.&.%.%.%.%.%.%.%.%.%.%.%.%.%.%.%.%.%.%.%.%.%.%.%.%.%.%.%.%.%.%.%.%.%.%.%.%.%.%.%.%.%.%.%.%.%.%.%.%.%.%.%.%.%.%.%.%.%.%.&.&.&.%.^ ( =.=.( =.^ >.>.' ( o.X.,.~ ( -.%.( &.%.%.@.%.&.&.&.&.^ @.$.U L t t t z z r l x m m m x x z z z z z M l z c L I $.#.^ *.%.%.%.%.%.%.&.%.%.%.%.%.%.%.%.%.%.%.%.%.%.%.%.%.%.%.%.%.%.%.%.%.%.%.%.%.%.%.%.%.%.^ W &.&.=.&.@.@.@.%.( ) _ ) &.&.&.&.%.%.@.@.$.$.| I D D K | #.*.*.&.&.%.%.%.%.%.%.%.%.%.%.%.%.%.%.%.%.%.%.%.%.%.%.%.%.%.%.%.&.&.&.%.%.%.%.%.%.%.%.%.%.%.%.%.%.%.%.%.%.%.%.%.%.%.%.%.%.%.%.%.%.%.%.%.%.%.%.%.%.%.%.%.%.%.%.%.%.%.%.%.%.%.%.%.%.%.%.%.%.%.%.%.%.%.%.%.%.%.%.%.( ( %.%.%.%.&.&.%.%.%.%.%.%.%.%.%.%.%.%.%.%.%.%.@.%.^ _ ( ( *.@.%.%.&.&.&.*.*.*.) &.$.I D w D 0.jXu.e.r.w.9.r.y.u.jXP $.R I D D L :.>.*.^ @.-.^ =.^ ' _ -.Q >._ _ =.Q o._ Q jXa.a.i.Q >._ / %.-.*.*.%.&.&.&.&.*.%.%.%.%.%.%.%.%.%.%.%.%.%.%.%.%.%.%.%.%.%.%.%.%.%.%.%.%.%.%.%.%.%.( =.) ( -.| t c x x x c c M z x x c c x n z t I :.%.( -.%.%.) %.%.%.%.%.%.%.%.%.%.%.%.%.%.%.*.%.( _ ,. .O 4 : V V A V s > , 5 5 5 5 p p p < - = $ C.k.C.g $ 4 O  .,.( &.( %.*.%.&.%.%.%.*.&.&.%.%.%.%.%.%.%.%.%.%.%.%.%.%.%.%.%.%.%.%.%.%.%.%.%.%.%.%.%.%.%.*._ ( -.W %.Q %.%.&.%.W %.Q -.*.*._ ( ( &.&.&.( ( *.*.*.*.&.&.&.&.%.%.%.%.%.%.%.%.%.%.%.%.%.%.%.%.%.%.%.%.%.%.%.%.%.%.%.%.%.%.%.&.&.( _ _ / ~ 3.%.@.^ *._ #./ ,.^ &.) &.&.@.@.o.O.kXkXt.+.O.O.>.Q _ _ _ ( W ;.t.jXjX7.X.o.~ 3.U -.-.Y ,.! *.=./ =.o.8.5.+.jXlX4.y m n l M r { kXjXkX5.X.X.@.@.^ ( #.#.&.&.@.@.*.*.&.o.O.t.jXt.5.O.O.;.Q ) ~ 5.jXu.lXO.W ( Q %.-.@.@.*.&.&.%.&._ _ %.*.%.) =.:.K t c c ",
"%.%.%.%.%.%.%.%.%.%.%.%.%.%.%.%.%.%.%.%.%.%.%.%.%.%.%.%.%.%.%.%.%.%.%.%.%.%.%.%.%.%.%.%.%.%.%.&.) ) ) ) ) ) %.*.W &.%.%.@.@.*.U w v t I $.Q @.@.X.@.^ ( %.#.@.@.%.%.%.%.%.%.%.%.%.%.%.%.%.&.%.%.%.%.%.%.%.%.%.%.%.%.%.%.%.%.%.%.%.%.%.%.%.%.%.%.%.%.%.%.%.%.%.%.%.%.%.%.%.%.%.%.%.%.%.%.%.%.%.%.%.%.%.%.%.%.%.%.-.*.&.*.%.*.-.%.o.%.Q ( ( X.6.lXe.jXo.*.=.=.( _ &.&.%.%.%.%.%.%.( ) =.=.*.*.-.2.1.1.2.1.1.1.=.=.>.>.>.>.=.=.-.-.>.=.=.=.=.1.=._ &.%.%.%.%.) ) ) &.%.%.%.%.%.%.%.%.%.%.%.%.%.%.%.%.%.%.%.%.%.%.%.%.%.%.%.%.%.%.%.( *.-.=.=.=.&.) %.%.@.%.%.&.%.%.@.@.%.%.%.&.&.&.( &.=.=.=.*.*.=.*.*.*.&.&.%.%.%.%.%.%.%.%.%.%.%.%.%.%.%.%.%.%.%.%.%.%.%.%.%.%.%.&.&.&.%.%.%.%.%.%.%.%.%.%.%.%.%.%.%.%.%.%.%.%.%.%.%.%.%.%.%.%.%.%.%.%.%.%.%.%.%.%.%.%.%.%.%.%.%.%.%.%.%.%.%.%.%.%.%.%.%.%.%.%.%.%.%.%.%.%.%.%.%.%.%.%.%.%.%.&.&.%.%.%.%.%.%.%.%.%.%.%.%.%.%.%.%.( ( _ =.=.=.%.^ %.&.&.&.%.%.%._ =.` >._ >.,.R L q j q l j w I U U P w G G | :.-.U *.@.%.&.! %.@.-.^ Q 6.lXu.jXX.X.&.&.2.>.W e.w.y.6.P *._ ) %.%.%.%.%.&.%.%.*.*.%.%.%.%.%.%.%.%.%.%.%.%.%.%.%.%.%.%.%.%.%.%.%.%.%.%.%.%.%.%.%.%.%.( =.) ( -.| t c x x x c c M M x x c c x n z t I -.%.( -.%.%.&.%.%.%.%.%.%.%.%.%.%.%.%.%.%.%.%.%.%.( <. .+ 4 * 2 p p 1 # % % = 5 5 5 5 p p < * = ; C.C.C.g $ 4 O  .,.( &.( %.*.%.&.%.%.%.*.&.&.%.%.%.%.%.%.%.%.%.%.%.%.%.%.%.%.%.%.%.%.%.%.%.%.%.%.%.%.%.%.%.%.*.^ *.^ -.&.>.>.=.>.*.-.W -.^ *.( ( ( ( &.&.&.&.&.&.&.&.( ( ) &.%.%.%.%.%.%.%.%.%.%.%.%.%.%.%.%.%.%.%.%.%.%.%.%.%.%.%.%.%.%.%.%.%.( =.=.&.O.t.u.y.a.a.a.lXO.O.X.%.-.-.-.*.*.*.%.P P } 6.lXxXkXX.%.) =.=.W Q X.Q Q U Q -.;.jXu.xX5.P ;.o.-.@.X.;.cXjXkXD w r n l v c c J t G $.Q o.W W -.>.*.%.%.%.*.&.&.@.@.%._ >.) Q X.X.Q 5.jXjXxX-.>.Q ;.lXq.lXO.X.2.=._ %.^ %.*.&.&.%.&._ _ %.*.%.( =.:.K t z x ",
"%.%.%.%.%.%.%.%.%.%.%.%.%.%.%.%.%.%.%.%.%.%.%.%.%.%.%.%.%.%.%.%.%.%.%.%.%.%.%.%.%.%.%.%.%.%.%.%.@.@.@.@.@.@.%.%.%.%.&.=.*.*.=.| r r r } ,.) ) ) ) 1.] 1.&.( ( ( &.&.%.%.%.%.%.%.%.%.%.%.%.&.%.%.%.%.%.%.%.%.%.%.%.%.%.%.%.%.%.%.%.%.%.%.%.%.%.%.%.%.%.%.%.%.%.%.%.%.%.%.%.%.%.%.%.%.%.%.%.%.%.%.%.%.%.%.%.%.%.%.-.%.&.*.=.*.( ( =.>.>.2.( P +.a.a.u.O.W ` ` ) =.) ) ) ) %.@.@.@.@.^ ( ) =.=.=.&.%.-.-.&.&.&.=.=.) ) ( ) ) ) ! ) ! ) ) ( ( %.%.@.@.@.@.@.%.( ) _ &.%.%.%.%.%.%.%.%.%.%.%.%.%.%.%.%.%.%.%.%.%.%.%.%.%.%.%.%.%.%.*.=.` *.*./ ( _ 2.*.%.@.%.%.%.@.@.@.@.%.%.%.&.&.&.) ) ) _ =.=.=.) %.%.%.%.%.%.%.%.%.%.%.%.%.%.%.%.%.%.%.%.%.%.%.%.%.%.%.%.%.%.%.%.*.%.%.%.%.%.%.%.%.%.%.%.%.%.%.%.%.%.%.%.%.%.%.%.%.%.%.%.%.%.%.%.%.%.%.%.%.%.%.%.%.%.%.%.%.%.%.%.%.%.%.%.%.%.%.%.%.%.%.%.%.%.%.%.%.%.%.%.%.%.%.%.%.%.%.%.%.%.&.&.%.%.%.%.%.%.%.%.%.%.%.%.%.%.%.*.>.` ` / ) ) _ =.*.&.&.&.&.&.%.@.@.@.&.1.&.3.<.D v B l B l G R 2.2./ c n q I >.! &.=.W %.&.! %.*._ -.P 6.p.9.lX8.X.=._ ' ' W t.a.lXq.P &.&.&.%.%.%.%.&.&.*.*.*._ %.%.%.%.%.%.%.%.%.%.%.%.%.%.%.%.%.%.%.%.%.%.%.%.%.%.%.%.%.%.%.%.%.^ =.) ^ -.| t v c x x x c M z x x c c x n z t I -.%.( -.( *.&.%.%.%.%.%.%.%.%.%.%.%.%.%.%.%.%.%.W ( -. .+ 4 * 2 1 5 1 > = < 6 5 5 5 5 p 5 < * % $ C.C.C.g ; 4 O  .,.( &.%.%.*.%.&.%.%.%.*.&.&.%.%.%.%.%.%.%.%.%.%.%.%.%.%.%.%.%.%.%.%.%.%.%.%.%.%.%.%.%.%.%.%.-.@.%.^ =./ _ ( ! ` ( >./ %.W -.%.( &.&.&.&.&.&.&.&.&.&.( ( &.&.%.%.%.%.%.%.%.%.%.%.%.%.%.%.%.%.%.%.%.%.%.%.%.%.%.%.%.%.%.%.%.*.-.*._ / / X.jXlX9.d.d.r.jXO.~ 3.) ) ( ) ) _ ) ) 2.W ~ 6.lXa.q.8.O.%.&.=.=.=.*./ >.>.>.%.O.t.r.a.6.Q ^ %.-.-.X.5.jXu.xXy 0 l N B n M n N v L :.^ _ ` _ >.*./ ! &.%.%._ _ *.%.&.&.( >._ >.Q 8.+.zXw.lXX._ Q ;.zX9.a.O.P _ _ _ ( &.%.*.&.&.%.&._ _ %.*.%.( =.:.K t z c ",
"%.%.%.%.%.%.%.%.%.%.%.%.%.%.%.%.%.%.%.%.%.%.%.%.%.%.%.%.%.%.%.%.%.%.%.%.%.%.%.%.%.%.%.%.%.%.%.%.%.%.&.&.) ) ) ) 2.=.=.2.1.1.2.#.G v G | 3.1.1.2.2.2.>.>.*.( 1.1.&.%.%.%.%.%.%.%.%.%.%.%.%.%.%.%.%.%.%.%.%.%.%.%.%.%.%.%.%.%.%.%.%.%.%.%.%.%.%.%.%.%.%.%.%.%.%.%.%.%.%.%.%.%.%.%.%.%.%.%.%.%.%.%.%.%.%.%.%.%.%.%.%.( %.%.-.( W -.U Q Q / Q X.5.lXlXjXo.%.( =.@.%.%.&.&.&.%.%.%.%.%.^ ^ ^ @.@.@.$.X.@.@.^ ^ &.-.*.>.>.>.2.2.2.2.1.1.1.2.1.1.2.>.2.&.&.&.%.@.@.@.#.%.%.%.%.%.%.%.%.%.%.%.%.%.%.%.%.%.%.%.%.%.%.%.%.%.%.%.%.%.%.%.*._ Q W @.Q ^ Q _ *.*.%.%.%.*.#.*.%.&.&.&.%.%.%.%.-.*.*.@.^ ^ @.*.%.%.%.%.%.%.%.%.%.%.%.%.%.%.%.%.%.%.%.%.%.%.%.%.%.%.%.%.%.%.%.%.%.%.%.%.%.%.%.%.%.%.%.%.%.%.%.%.%.%.%.%.%.%.%.%.%.%.%.%.%.%.%.%.%.%.%.%.%.%.%.%.%.%.%.%.%.%.%.%.%.%.%.%.%.%.%.%.%.%.%.%.%.%.%.%.%.%.%.%.%.%.%.%.%.%.%.%.%.%.%.&.%.%.%.%.%.%.%.%.%.%.%.%.%.%.%.*.=./ %.Q W Q / >._ _ *.*.&.) ) %.#.#.@.-.Q Q <.L v m x m v G X.,.,.R G t w } 3.>.( =.^ *.=._ _ >._ =.Y 6.lXu.jX} U / / Q Q X.t.lXjX6.W *.( &.%.%.%.&.&.&.*.*.*.) %.%.%.%.%.%.%.%.%.%.%.%.%.%.%.%.%.%.%.%.%.%.%.%.%.%.%.%.%.%.%.%.%.^ *.) ^ -.| t c x x x x c M z x x c c x n z t I -.%.( -.( &.&.%.%.%.%.%.%.%.%.%.%.%.%.%.%.%.%.%.^ ( ,. .+ 4 * s s p 5 2 > = , 5 5 5 5 5 5 < * = > C.C.C.V , 4 O  .,.( &.( %.*.%.&.%.%.%.*.&.&.%.%.%.%.%.%.%.%.%.%.%.%.%.%.%.%.%.%.%.%.%.%.%.%.%.%.%.%.%.%.%.%.%.%.&._ >.Q %.X.W %.Q >.( &.^ %.%.&.&.&.&.&.&.&.&.&.( ( ( ( &.&.%.%.%.%.%.%.%.%.%.%.%.%.%.%.%.%.%.%.%.%.%.%.%.%.%.%.%.%.%.%.%.%.%.&.=.( X.O.jXa.a.a.a.lXjX;.Y ( / / ! Q / / / / / ~ Q 6.kXjXt.X.@.@.W ( &.=.=.=.( =./ Q X.jXlXlX5.Q Q ( ( ) ~ ;.lXy.lXD r n c r l l r r q G <.-.-.*.( / _ =.=.=.%.%._ _ *.%.&.&.( =.*.>.%.X.4.lXlXjXX.~ P ;.lXlXlX4.Q *.=._ &.&.*.*.&.&.%.&._ _ %.*.&.( =.:.K t z c ",
"%.%.%.%.%.%.%.%.%.%.%.%.%.%.%.%.%.%.%.%.%.%.%.%.%.%.%.%.%.%.%.%.%.%.%.%.%.%.%.%.%.%.%.%.%.%.%.&.&.&.&.&.) ) _ *.$.I I I K I I K v c v J I K K K K K K K K I #.*.%.%.%.%.%.%.%.%.%.%.%.&.&.&.&.&.%.%.%.%.%.%.%.%.%.%.%.%.%.%.%.%.%.%.%.%.%.%.%.%.%.%.%.%.%.%.%.%.%.%.%.%.%.%.%.%.%.%.%.%.%.%.%.%.%.%.%.%.%.%.%.%.^ ^ *.( &.^ W 3.6.6.5.5.5.5.+.5.5.5.o.%.%.-.@.%.@.@.%.%.%.&.&.) =.=.=.=.=.*.*.*.=.=.=.) =.-./ I I I I I I I K K K K I K K K I Y #.*.&.&.%.@.@.@.%.%.%.%.%.%.%.%.%.%.%.%.%.%.%.%.%.%.%.%.%.%.%.%.%.%.%.%.) ) ) %.*.Q ;.6.6.tXX.^ *.*.&.&.&.*.*.*.%.%.%.%.%.%.%.%.^ &.=.=.*.) *.=.%.%.%.%.%.%.%.%.%.%.%.%.%.%.%.%.%.%.%.%.%.%.%.%.%.%.%.%.%.%.%.%.%.%.%.%.%.%.%.%.%.%.%.%.%.%.%.%.%.%.%.%.%.%.%.%.%.%.%.%.%.%.%.%.%.%.%.%.%.%.%.%.%.%.%.%.%.%.%.%.%.%.%.%.%.%.%.%.%.%.%.%.%.%.%.%.%.%.%.%.%.%.%.%.%.%.%.%.%.%.%.%.%.%.%.%.%.%.%.%.%.%.%.%.%.%.%.%.^ o.6.6.6.;.Q >._ _ %.&.) _ ) _ *.>./ >.*./ <.L v c x c n c K } K L I I I I I L I :.*._ -.*.*.%.W %.Q ;.6.6.5.6.5.5.6.5.5.6.5.5.6.;.Q _ ^ *.( *.*.*.%.%.*.*.%.&.%.%.%.%.%.%.%.%.%.%.%.%.%.%.%.%.%.%.%.%.%.%.%.%.%.%.%.%.%.%.%.%.%.^ *.&.^ -.| t c x x c x c z z n x c c x n z t I -.%.( *.( &.&.%.%.%.%.%.%.%.%.%.%.%.%.%.%.%.%.%.( ( ,. .O 4 * 2 1 5 6 * % * , 5 5 5 5 5 5 < = = % f d f s % 4 O  .<.( &.( %.*.%.&.%.%.%.*.%.%.%.%.%.%.%.%.%.%.%.%.%.%.%.%.%.%.%.%.%.%.%.%.%.%.%.%.%.%.%.%.%.%.^ %.=.=.>.W 5.6.6.6.X.>._ =.( %.%.&.&.&.&.&.&.&.&.) ) ) &.&.&.&.%.%.%.%.%.%.%.%.%.%.%.%.%.%.%.%.%.%.%.%.%.%.%.%.%.%.%.%.%.%.%.%.*.( =.( o.X.5.5.+.+.5.5.5.5.5.5.6.6.6.6.6.6.6.6.6.5.5.u.u.jXkXP @.*.%.%.%.o.W W &.&.( ^ o.wX6.4.5.6.5.6.%.&.Q ;.lXe.lXD r x J | I I I I Y U @.o.W ! W ^ *.-.-.^ *.*._ _ *.*.&.&.-.-.^ Q %.@.} } ..} 6.6.6.+.} }  .| $.%.-.&.*._ *.*.&.) %.&.&.&.%.*.&.( =.:.K t z c ",
"%.%.%.%.%.%.%.%.%.%.%.%.%.%.%.%.%.%.%.%.%.%.%.%.%.%.%.%.%.%.%.%.%.%.%.%.%.%.%.%.%.%.%.%.%.%.%.%.@.%.#.#._ #.$.| K r r l r l b l b N n l r r r l r l e l r G $._ &.&.&.&.&.&.&.&.*.*.*.*.&.*.&.&.%.%.%.%.%.%.%.%.%.%.%.%.%.%.%.%.%.%.%.%.%.%.%.%.%.%.%.%.%.%.%.%.%.%.%.%.%.%.%.%.%.%.%.%.%.%.%.%.%.%.%.%.%.%.%.%.%.%.=.^ *.( W 6.lXp.p.a.a.lX5.P Q ` Q *.@.-.^ *.%.&.%.%.@.@.%.%.%.&.=.&.( ( ( ^ X.@.^ @.$.| L q r r r r l l l l e l l l l l l t | $.%.&.%.%.) ) ) %.%.%.%.%.%.%.%.%.%.%.%.%.%.%.%.%.%.%.%.%.%.%.%.%.%.%.) &.&.%.>.X.6.lXjXlXO.o.&.) %.%.%.( %.%.%.%.%.%.%.%.%.%.( ( ( _ =.=.) ( ) %.%.%.%.%.%.%.%.%.%.%.%.%.%.%.%.%.%.%.%.%.%.%.%.%.%.%.%.%.%.%.%.%.%.%.%.%.&.&.%.%.%.%.%.%.%.%.%.%.%.%.%.%.%.%.%.%.%.%.%.%.%.%.%.%.%.%.%.%.%.%.%.%.%.%.%.%.%.%.%.%.%.%.%.%.%.%.%.%.%.%.%.%.%.%.%.%.%.%.%.%.%.%.%.%.%.%.%.%.( ( %.%.%.%.%.%.%.%.%.%.%.%.%.%.%.%.W O.lXa.lX5.X.-.%.%.@.%.&.) &.&.! -.Q @.=.-.:.G v m z n b l x z q G ,.2.3.I w t G $.#.( %.@.%.%.W &.=.Q U P 8.jXlXa.p.p.a.jXO.Y W @./ >.( -.^ _ *._ %.%.#.#.%.&.%.%.%.%.%.%.%.%.%.%.%.%.%.%.%.%.%.%.%.%.%.%.%.%.%.%.%.%.%.%.%.%.%.^ =.&.^ -.| t c x x x x c z z n x c c x n z t I -.%.( *.( &.&.%.%.%.%.%.%.%.%.%.%.%.%.%.%.%.%.%.( ( ,. .+ 4 * , 5 5 6 - * , 5 5 p 5 5 5 5 < = - $ 1 # 2 % X 4 O  .<.( &.( %.*.%.&.%.%.%.*.&.&.%.%.%.%.%.%.%.%.%.%.%.%.%.%.%.%.%.%.%.%.%.%.%.%.%.%.%.%.%.%.%.%.%.=.=.( =.X.t.lXlXt.X._ ( =.&.-.&.&.&.&.&.&.&.&.&.&.&.&.&.&.&.&.%.%.%.%.%.%.%.%.%.%.%.%.%.%.%.%.%.%.%.%.%.%.%.%.%.%.%.%.%.%.%.*.*._ >.^ *.Q ^ Q / / / Q P kXlXa.a.a.a.p.a.a.p.p.p.p.p.p.r.y.jXQ o.=.-.-.-.*.%.-.%.%.( _ / _ / Y 5.a.a.lXo.%.W 5.jXu.xX{ z c L ,.=.2.2.3.2.1.=.=.) =.=.*.%.^ ^ W *.%.%.%.%.*._ _ ( *.-.%.=.:.L q 0 u kXxXlX4.u 0 q I $.%.! ! *.=.*.*.&.) %.&.*.*.%.*.&.) =.:.K t z c ",
"%.%.%.%.%.%.%.%.%.%.%.%.%.%.%.%.%.%.%.%.%.%.%.%.%.%.%.%.%.%.%.%.%.%.%.%.%.%.%.%.%.%.%.%.%.%.%.&.) &.*.) ) ` _ #.| t z m v c m n z m n z x n n n n m l m t G :.2.=.=.*.=.*.=.=.=.=.=.*.*.&.&.&.&.%.%.%.%.%.%.%.%.%.%.%.%.%.%.%.%.%.%.%.%.%.%.%.%.%.%.%.%.%.%.%.%.%.%.%.%.%.%.%.%.%.%.%.%.%.%.%.%.%.%.%.%.%.%.%.%.*.%.-.W -.( Q tXlXw.w.d.w.lX6.Q ` 2.%.-.( =.W &.) ) &.%.%.%.@.@.^ ^ @.@.@.*.*.-.%.&.) =.>.:.I w z z z z c c c c c c c v z z t w $.*.&.) %.%.%.%.( ( ( ( ( ( ( ( %.%.%.%.%.%.%.%.%.%.%.%.%.%.%.%.%.%.%.%.&.&.&.&.*.P +.y.e.jXX.W ( _ ) ( ( ( o.o.%.&.%.%.%.%.%.%.>.-.@.^ %.*.*.%.( ( ( %.%.%.%.%.%.%.%.%.%.%.%.%.( ( ( ( ( ( ( ( %.%.%.%.%.%.%.%.%.%.%.%.%.&.&.&.%.%.%.%.%.%.%.%.%.%.%.%.%.%.%.%.%.%.%.%.%.%.%.%.%.%.%.%.%.%.%.%.%.%.%.%.%.%.%.%.%.%.%.%.%.%.%.%.%.%.%.%.%.%.%.%.%.%.%.%.%.%.%.%.%.%.%.( ( ( ^ ^ %.%.%.%.%.%.%.%.%.%.%.%.%.%.%.%.Q X.jXe.a.+.P ( *.*.@.@.%.&.&.&.W -.#.^ / #.:.L t z l n n l m x b G ,.! *.L t x G $.-.( -.%.&.&.=._ >.>.>.2.} jXy.r.r.w.p.lXX./ / =._ >.( -.^ =._ &.&.%.#.#.%.&.%.%.%.%.%.%.%.%.%.%.%.%.%.%.%.%.%.%.%.%.%.%.%.%.%.%.%.%.%.%.%.%.%.( =.&.^ -.| t c x x x x c z z n x c c x n z t I :.%.( *.( &.&.%.%.%.%.%.%.%.%.%.%.%.%.%.%.%.%.%.( ( ,. .O 4 % , < 6 6 * * = < 5 5 5 5 5 5 < = < > 5 2 5 = < 4 O  .<.( &.( %.*.%.&.%.%.%.*.&.&.%.%.%.%.%.%.%.%.%.%.%.%.%.%.%.%.%.%.%.%.%.%.%.%.%.%.%.%.%.%.%.%.%.=.) / / P q.a.a.t.Q / _ ` %.-.%.%.( ( ) ) &.&.*.*.*.*.*.*.*.*.%.%.%.%.%.%.%.%.%.%.%.%.%.%.%.%.%.%.%.%.%.%.%.%.%.%.%.%.%.%.%.%.%.W -.o.-.%.-.*.) *.=.%.X.kXa.9.e.r.r.r.e.e.e.r.9.r.y.a.r.jXkXQ &.=.&.! %.^ ^ *.*.%.*.*._ _ ` Q +.lXy.jXQ ! ~ ;.lXu.lXy q v E ,.@.^ ( ( ( _ ( _ =.=.*.%.^ ( *.>.%.%.&.&.%.*._ _ *.^ =.( ( ,. .v J r u.p.a.0.0 J j  .,.=._ ( =.*.%.*.&.) %.) *.*.%.-.&.( =.:.I t z z ",
"%.%.%.%.%.%.%.%.%.%.%.%.%.%.%.%.%.%.%.%.%.%.%.%.%.%.%.%.%.%.%.%.%.%.%.%.%.%.%.%.%.%.%.%.%.%.%.%.&.&.%.&.) ) _ $. .t M m c m n n n n m n m c z z c G z m t G $.=.=.=.=.=.=.=.=.=.=.=.=.=.) ) &.&.&.%.%.%.%.%.%.%.%.%.%.%.%.%.%.%.%.%.%.%.%.%.%.%.%.%.%.%.%.%.%.%.%.%.%.%.%.%.%.%.%.%.%.%.%.%.%.%.%.%.%.%.%.%.%.%.-.^ ( Q -.^ ~ 6.jXe.r.e.r.u.5.Q ( ) Q W Q =.^ -.%.&.&.&.&.&.&.&.( ( ( ( %.%.@.^ %.&.) ( *.$.K r b b x x x c x x x z z x n n m D $.*.` _ #.@.@.@.^ ^ ^ ^ ( ( ( ( %.%.%.%.%.%.%.%.%.%.%.%.%.%.%.%.%.%.%.%.&.&.&._ _ Y +.a.e.jXX.( ` ` _ _ _ _ @.@.%.&.&.&.%.%.%.%.( ( ( ( ( ^ ^ ^ ( ( ( %.%.%.%.%.%.%.%.%.%.%.%.%.( ( ( ( ^ ^ ^ ^ %.%.%.%.%.%.%.%.%.%.%.%.%.&.&.&.%.%.%.%.%.%.%.%.%.%.%.%.%.%.%.%.%.%.%.%.%.%.%.%.%.%.%.%.%.%.%.%.%.%.%.%.%.%.%.%.%.%.%.%.%.%.%.%.%.%.%.%.%.%.%.%.%.%.%.%.%.%.%.%.%.( ( ( ( ^ ^ ^ %.%.%.%.%.%.%.%.%.%.%.%.%.%.%.&.) X.lXy.lX5.P _ _ #.#.#.*.*.*.*.) ( -.-.^ -.$.G t z l z l r z l l t <.^ ,.I v t L $.*.) >.=.` =.&.( &.=.! o.O.jXu.y.a.y.r.jXO.=.&.=.( *.Q -.%.-._ &.&.%.#.#.%.&.%.%.%.%.%.%.%.%.%.%.%.%.%.%.%.%.%.%.%.%.%.%.%.%.%.%.%.%.%.%.%.%.%.^ =.&.^ -.| t c x x x x c z z n x c c x n M t I :.%.( *.( &.&.%.%.%.%.%.%.%.%.%.%.%.%.%.%.%.%.%.( _ ,. .O 4 * < 5 6 6 = * , < 5 5 5 5 5 5 < * : # p 5 s 2 , % O  .<.( &.( %.*.%.&.%.%.%.*.&.&.%.%.%.%.%.%.%.%.%.%.%.%.%.%.%.%.%.%.%.%.%.%.%.%.%.%.%.%.%.%.%.%.@.-.) ` ` P q.a.y.t.W =.2.=.@.@.%.( ( ( ) ) &.&.*.*.*.*.=.=.=.=.%.%.%.%.%.%.%.%.%.%.%.%.%.%.%.%.%.%.%.%.%.%.%.%.%.%.%.%.%.%.%.%.-.^ -.W *./ *.*.%.o.o.X.X.kXa.y.a.p.p.p.a.a.p.p.a.a.e.a.r.lXjXQ &.1.=.&.-.&.! ! =.&.&.&.=.=.=.Q 5.lXe.lXO.( Q ;.lXs.zXy r x G :.#.%.@.%.%.%.( =.%.%.@.%.%.^ ^ _ &.&.) _ *.*.) ) -.W 1.` ( >.} w z w u.a.lX4.u x w | ^ / >.>.%.W %.*.&.) %.) *.*.%.*.&.( =.:.I t z l ",
"%.%.( %.%.&.( ) ) ) ) ) &.&.%.%.%.%.%.%.%.%.%.%.%.%.%.%.%.%.%.%.%.%.%.%.%.%.%.%.%.%.%.%.%.%.%.&.) &.&.&.&.( ( :.| q m n x c m z v m c z n m n z n m c c c n n b r r r l l l l r r n e t | >.( -.%.%.%.%.%.%.%.%.%.%.%.%.%.%.%.%.%.%.%.%.%.%.%.%.%.%.%.%.%.%.%.%.%.%.%.%.%.%.%.%.%.%.%.%.%.%.%.%.%.%.@.@.*.*.&.&.>.=.^ ;.jXa.y.a.u.y.y.e.y.jX5.P @.X.lXa.lXi.Y =.=.&./ -.*.( _ P y.a.a.i.Q >.^ #.*.*.*.@.%.=.1.) >.:.G v N z m v x x c x n b z D $.*.) ) %.%.%.*.2.Q +.lXa.lX;.Q @.*.*.=.&.&.( ^ o.o.W ^ -.*.( =.=.( *.=.^ $.} cXcXxXlXe.r.jXo.&.~ ;.lXu.lXO.! 2.( =.` =.( ( >.( =.! Q 6.lXr.p.p.r.lX6.Q ^ -.@.%.*.*.*.=.) =.=.Q 5.a.a.u.o.( _ _ X.@.^ *.-.Q ;.lXy.lX;.U @.Q W >._ _ %.%.o.W ( =.&.%.%.%.%.%.%.%.%.%.%.%.%.%.%.%.%.%.%.%.%.%.%.%.%.%.%.%.%.%.%.%.%.%.%.%.%.%.%.%.%.%.%.%.%.%.%.%.( &.&.&.&.&.^ _ >./ =.X.+.lXa.a.;.=.W ( ) ( =.( ( ( %.&.%._ *.*._ ` ! ` P 6.xXu.u.8.X._ *.( &.o.&.) ) ) ) ) ) ) =.=.=.=.=.=.=.=.&.&.( *.$.L t c G -.=.>.K q n l l x w I ,.^ ( ! ! ! ^ ^ / / ( ( %.%.%.%.%.%.%.%.%.%.%.%.%.%.%.%.%.%.%.%.%.%.%.%.%.%.%.%.%.%.%.%.%.%.%.%.%.%.%.%.%.%.%.%.%.%.%.%.@.%.%.%.%.%.` ` =.,.K t m z l n x z M z n l N w I :.&.) ] ) %.%.%.%.%.%.%.%.%.%.%.%.%.%.%.%.%.%.&.&.^ <. .+ 4 # g C.C.C.: , * 6 5 5 5 5 5 5 < * = , 6 8 5 1 = 4 O  .<.( &.( %.*.%.&.%.%.%.*.&.&.%.%.%.%.%.%.%.%.%.%.%.%.%.%.%.%.*.*.%.%.%.%.&.&.=.( ( =.( ! =.( *.X.+.lXu.lX;.Q ' ` ` &.&.&.) ) &.&.&.&.&.&.*.$.w r z l l l l l r r L :.:.W &.( @.@.@.%.#.*.*.*.@.@.#.#.*.*.*.*._ _ *.-.%.^ ^ %.^ ( -.-.*.-.-._ ^ >.^ %.W *./ / ^ ! ` / G q l l j j l l l j r l l x l b r v $.#.) ) %.@.@.@.#.*./ =.' Q u.y.lX4.u v w R >.=.&.-.%.%.%.%.%.%.%.%.%.%.%.( %.-.-.*.#.#.=.! &.W %.%.&.( *./ >.^ =.&.) :.v q r G >.) ) &.#.#.*.` ) ) %.%.%.%.%.%.%.%.%.%.%.%.%.%.%.&.=.=.",
"%.%.@.@.@.#.#.*.@.%.%.&.&.&.&.&.%.%.%.%.%.%.%.%.%.%.%.%.%.%.%.%.%.%.%.%.%.%.%.%.%.%.%.%.%.%.%.%.@.#.@.^ @.^ ( *.| w m n m x n N x c c c c c c m z x z z z l l l l l x x z z z l x m l v #.2.` =.&.%.%.%.%.%.%.%.%.%.%.%.%.%.%.%.%.%.%.%.%.%.%.%.%.%.%.%.%.%.%.%.%.%.%.%.%.%.%.%.%.%.%.%.%.%.%.%.*.%.%.%.*._ &.&.=.( Q O.y.p.w.w.w.e.r.9.r.jX6./ / Q u.y.u.4.Q >.( ) ( =.&.%.>.Q t.r.lXt.~ ! o.1.! ( %.%.&.=.] ) >.$.G t M l M z m m c c n c z G $.*.) ) &.&.) ) ! P +.lXr.jX$.^ %.&.=._ ( ( =.2.) &.=.( @.@.X.X.@.@.%.%.^ @.} cXcXvXlXu.a.jXo.( ! 5.lXe.a.} Q *.-.%.W -.-.%.-.*.-.W ~ 6.lXe.r.r.w.lX4./ >.>.&.! o.W &.&.( _ _ ^ +.u.p.jXO.&.` >.-.-._ _ #.P +.lXe.lX;.W 2.=.%.! o.&.&.-.*.#._ _ *.%.%.%.%.%.%.%.%.%.%.%.%.%.%.%.%.%.%.%.%.%.%.%.%.%.%.%.%.%.%.%.%.%.%.%.%.%.%.%.%.%.%.%.%.%.%.&.*.&.( ( W ! ( =.>.( =.~ ;.lXr.a.O.^ #.>.>.*.*.^ -.%.%.-.-.-.o.-.#._ _ ( Y 6.jXe.jX} @._ *.( *._ &.&.) ) &.) &.&.=.=.=.=.=.=.=.=.&.*.*.>.:.K r z D $.*.:.K q b l l n r K <.$.-.) ( ( ( ( ( ( ( ( %.%.%.%.%.%.%.%.%.%.%.%.%.%.%.%.%.%.%.%.%.%.%.%.%.%.%.%.%.%.%.%.%.%.%.%.%.%.%.%.%.%.%.%.%.%.%.%.%.%.%.%.@.%.` ) *.,.L w z z c J m z z r M z J v I $.&.) -.%.%.%.%.%.%.%.%.%.%.%.%.%.%.%.%.%.%.%.&.&.^ <. .+ 4 # g C.C.C.: , * 6 5 5 5 5 5 5 < * = , 6 8 5 1 = 4 O  .<.( &.( %.*.%.&.%.%.%.*.&.&.%.%.%.%.%.%.%.%.%.%.%.%.%.%.%.%.%.%.&.*.*._ *.*.-.-.*.=.=.` 2.` 2.W O.y.e.u.;.U *._ *.%.@.%.*.*.%.%.%.%.%.%.#.$.v M z z b n x z M t L >.-.( 1.=.@.@.%.&.%.%.%.*._ _ _ _ &.&.&.&.&.&.o.o.o.o.o.%.%.%.( ! ! ! &.&.%.-.W *.( 2.=.=.( ( 2.:.G r x x c c x x c c c c c N l x t G :.>.) ) ) &.%.&.` ) =.=.W Q u.p.s...u c v | ,.=.! ( &.%.%.%.%.%.%.%.%.%.%.( %.-.*.%.&.=.*.*.&.( W ! -.&.-.&.1.! %.&.1.,.v r r H ,.=.&.%.#.*.*._ %.%.%.%.%.%.%.%.%.%.%.%.%.%.%.%.%.&.=.=.",
") ) ) ) ( ( %.&.%.%.%.%.%.%.%.%.%.%.%.%.%.%.%.%.%.%.%.%.%.%.%.%.%.%.%.%.%.%.%.%.%.%.%.%.%.%.%.%.( =.&.&.=.1.2.,.| G H z c q q r l b l l l l l l n n m m m m m m N N m m N N N n l n r t R :./ @.%.%.%.%.%.%.%.%.%.%.%.%.%.%.%.%.%.%.%.%.%.%.%.%.%.%.%.%.%.%.%.%.%.%.%.%.%.%.%.%.%.%.%.%.%.%.%.%.&.&.%.%._ _ &.o.%.%.X.O.jXa.a.a.a.a.s.p.a.a.5.~ ~ O.u.lXlX6.X.W / *.%.-.o.! *.P u.r.u.6.P ~ / / -.*.#.#.*.*.*.*.$.| v r b r r r e r r r r r r w | $.#.#.@.@.#.%.1.Q +.u.q.jX-.( &.&.=.*.^ ^ ^ ( ( *.=.*.@.*.-.( *.-.=.( ( @.I cXvXhXu.w.e.u.~ ~ Y o.u.q.lXO.X.>._ ' Q / ` / Q / *.W } 6.lXa.a.a.a.a.;.Y Q / =.` ! ( =.=.&.( / Y 5.lXlXjXX.~ ~ ( ( *.` ` *.W 5.lXa.lXO.Y Q / _ =.( ( ^ ^ _ *.%.o.%.%.%.%.%.%.%.%.%.%.%.%.%.%.%.%.%.%.%.%.%.%.%.%.%.%.%.%.%.%.%.%.%.%.%.%.%.%.%.%.%.%.%.%.%.%.%.*._ _ *.*.=.=.=.=.=.Q ~ Y ;.lXa.lX;.! &.! ! =.( ( / / / / / ' ' / Q Q ` =.Q 6.jXu.jXX.o._ %.( =._ *.&.&.&.&.%.&.&.&.&.&.&.&.&.&.%.^ ^ ^ #.$.L w w K ,.2.>.I t H c r z w K $.$.%.&.) ) %.%.@.@.%.%.%.%.%.%.%.%.%.%.%.%.%.%.%.%.%.%.%.%.%.%.%.%.%.%.%.%.%.%.%.%.%.%.%.%.%.%.%.%.%.%.%.%.%.%.%.%.%.%.%.%.%.%.@.%._ _ #.$.G r M z l z l l t r M l m w I #.&.( *.@.&.&.&.%.%.%.%.%.%.%.%.%.%.%.%.%.%.%.&.&.^ <. .+ 4 $ g C.k.V $ = * , 5 5 5 5 5 5 < * * , < 5 5 1 = 4 O  .<.( &.( %.*.%.&.%.%.%.*.&.&.%.%.%.%.%.%.%.%.%.%.%.%.%.%.%.%.&.*._ _ _ _ *.%.W @.W W W Q / Q ~ Y +.lXlXlX5.Q %.*.%.%.@.%.#.*.%.%.%.%.%.%.$.| t r t r b n N x t t I 6X,.-.=.! @.@.&.&.&.%.@.%.&.) ) ) &.&.%.%.%.%.^ ^ *.-.>.*.-.&.*.=.=.) ( %.^ ^ ^ >./ _ Q ~ ^ W -.| G r l l l l e e r r r r l l e r r v | $.@.@.@.@.@.@.*.&.&.&.W X.u.a.zX0.u v w R #.=.( ) &.%.%.%.%.%.%.%.%.%.%.( %.*.%.( Q ^ Y ' ' 6X/ _ Q U ^ / =./ =.=.) @.G q r H $.@.%.%.*.*._ _ @.@.%.%.%.%.%.%.%.%.%.%.%.%.%.%.%.%.%.%.",
"%.*.*.&.) ) =.=.) ) &.&.%.%.@.%.%.%.%.%.%.%.%.%.%.%.%.%.%.%.%.%.%.%.%.%.%.%.%.%.%.%.%.%.%.%.%.%.&.) %.*.$.U I R J z x r K K K I I I I I I I K v z M z z z z z z l l l l z z l z L I K I #.=.) =.%.%.%.%.%.%.%.%.%.%.%.%.%.%.%.%.%.%.%.%.%.%.%.%.%.%.%.%.%.%.%.%.%.%.%.%.%.%.%.%.%.%.%.%.%.%.%.%.%.%.%.%.%.%.&.&.=._ *.@.6.5.5.5.6.5.5.5.5.6.6.5.5.6.5.6.6.;.&.) / ' ^ _ ( _ =.~ jXy.y.t.+.6.tX$.@.( ^ ^ ( ( ) =.=.#.I I I I I I I I I I I I I I $.*.) ) &.&._ _ >.Q +.lXy.jXo.Q &.! ^ @.%.-.*.( =.) &.=.( ) ` ` ` ` ) ) &.%.| DXcXcXcXxXxXxX4.5.;.kXcXxXcXX.Q Q O.6.5.+.5.5.5.6.X.%.W ;.6.5.5.5.5.5.6.6.6.5.Q / *.-.*.Q X.5.6.5.6.5.5.5.6.6.6.;.Q @.( ( ( Q O.6.5.5.6.5.6.5./ / *.-.%.^ ^ &.&.o.&.%.%.%.%.%.%.%.%.%.%.%.%.%.%.%.%.%.%.%.%.%.%.%.%.%.%.%.%.%.%.%.%.%.%.%.%.%.%.%.%.%.%.%.%.%.%.%.@.*.*.*._ _ _ ^ P 5.6.5.6.5.5.tX-.W =.Q ( ,.o.5.6.5.5.5.5.5.5.5.6.5.&.&.P 5.a.y.jXX.o.( %.o.=._ *.%.%.%.%.%.%.%.%.%.%.%.%.%.%.%.=.-.%.*.#.U I I K I I I H r z v I I Y U -.&.=.=.&.&.&.%.%.*.%.%.%.%.%.%.%.%.%.%.%.%.%.%.%.%.%.%.%.%.%.%.%.%.%.%.%.%.%.%.%.%.%.%.%.%.%.%.%.%.%.%.%.%.%.%.%.%.%.%.%.@.%.%.@.%.&.&.*.-.I L I K z z z H I I K v m t I -.&.( %.@.=.&.&.%.%.%.%.%.%.%.%.%.%.%.%.%.%.%.&.%.^ <. .+ 4 ; g C.C.C.: < , 5 5 5 5 5 5 5 < * * , < 5 5 1 = 4 O  .<.( &.( %.*.%.&.%.%.%.*.&.&.%.%.%.%.%.%.%.%.%.%.%.%.%.%.%.%.*.*.&.&.&.&.&.&.W -.o.;.6.5.5.6.6.5.5.6.6.6.-.Q *._ &.&.%.%.%.*.&.&.&.&.&.&.*.#.I I I K z n x l n t G I K K @.&.%.%.&.&.%.%.@.%.%.%.%.%.#.#.#.#.^ #.*.#.( *.^ W W W ^ _ >._ ( -.%.@.%.*.U 5.6.6.3.! &.-.I I I I I I I I I I I I K I K I I I $.*.%.&.%.%.%.%._ ) W -.%.W 6.5.6.+.Y R Y $.*.>._ _ %.%.%.%.%.%.%.%.&.*.&.%.%.&.%.W ;.6.5.6.Q &.! 3.tX6.6.X.&.( &.! ) *.I I I U #.%.%.&.&.` ` ` %.%.%.%.%.%.%.%.%.%.%.%.%.%.%.%.%.%.%.%.",
"@.@.@.^ ^ ^ %.%.%.%.%.%.%.&.&.&.&.%.%.%.%.%.%.%.%.%.%.%.%.%.%.%.%.%.%.%.%.%.%.%.%.%.%.%.%.%.%.&.&.( ^ :.| G w v x B m G :.3.3.2.] 1.2.] 1.3.@.E G G c c c c c c c c c c m c v G R >.>.=.1.1.( =.%.%.%.%.%.%.%.%.%.%.%.%.%.%.%.%.%.%.%.%.%.%.%.%.%.%.%.%.%.%.%.%.%.%.%.%.%.%.%.%.%.%.%.%.%.%.%.*.*.*.%.%.%.%.&.&.( ( _ / -.Q W / Q / / ' Q Q 5.lXlXjXX.Y >./ ` =.1.=.o.%.*._ #.P e.w.w.r.e.a.xX+.X.-.*.*.-.%.! o.&.&.! &.1.1.1.1.2.2.2.2.2.2.>.>.) ) ) ) &.&.%.*._ W +.a.q.y.;.^ =.=._ ^ %.%.=.>.-.W W %.@.$.#.#.@.#.@.@.%.X.} GXGXPXPXPXPXHXxXa.lXxXJXGXPX$X@.o.+.lXzXa.p.a.lXjXP &.` ` ` ^ ! Q / Y 6.y.a.jXX.*.@.-.@.Q ;.jXzXa.5.P Q P jXy.lXq.X.-.>.>.-.W Q ^ / U t.y.lXjXX.-.&.=.&.o.%.*.` ' *.%.%.%.%.%.%.%.%.%.%.%.%.%.%.%.%.%.%.%.%.%.%.%.%.%.%.%.%.%.%.%.%.%.%.%.%.%.%.%.%.%.%.%.%.%.%.%.%.%.%.&.( >.>.*.X.lXlXlX6.8.~ Q / W -.^ @.X.8.t.a.a.p.p.p.p.a.a.a.u.X.#.X.5.lXe.jXO.@._ %.%.*._ *.%.%.%.%.%.%.%.%.%.%.%.%.%.%.%.-.-.%.-.=.=.>.,.R G t c n l x G ,.2.&.=.1.&.&.( &.&.%.%.%.%.%.%.%.%.%.%.%.%.%.%.%.%.%.%.%.%.%.%.%.%.%.%.%.%.%.%.%.%.%.%.%.%.%.%.%.%.%.%.%.%.%.%.%.%.%.%.%.%.%.%.@.@.%.&.%.%.&.) =.2.] ) 2.$.L c G U 3.2.$.L H v I #.) ( %.@.&.&.%.%.%.%.%.%.%.%.%.%.%.%.%.%.%.%.*.*.^ :. .+ 4 $ g C.C.V # * > 5 5 5 5 5 5 5 < * * , < 5 5 1 , 4 O  .,.( &.( %.*.%.&.%.%.%.*.&.&.%.%.%.%.%.%.%.%.%.%.%.%.%.%.%.%.%.%.%.%.%._ _ ` ` ) Q 5.lXlXp.a.a.lX6.P Q ^ Q ) &.&.%.*.%.&.&.&.%.%.%.%.%.&.) ) =.,.2./ G v m m N l l z r t | >.%.%.&.%.@.@.#.#.#.*.*.*.*.*.%.%.^ %.%.%.%.&.&.-.=.=.*.*.-.&.! &.! ! %.o.O.jXzXlX6.W W =.%.-.=.2.2.2.2.2.2.2.2.2.2.2.2.2.=.` 1.) ) ) &.%.%.%.%.%.^ -.=./ &.! o.Q -.2.%.2.&.=._ _ *.%.%.%.%.%.%.%.%.*.%.%.%.%.( Q t.lXa.jXX.! Q 5.lXa.u.O.W ` &.! ) =.*.*.>.>.>._ &.%.&.&.) ) &.%.%.%.%.%.%.%.%.%.%.%.%.%.%.%.%.%.%.%.",
"1.1.=.) &.( ^ W @.@.@.%.%.&.) ) &.%.%.%.%.%.%.%.%.%.%.%.%.%.%.%.%.%.%.%.%.%.%.%.%.%.%.%.%.%.%.&.&.` ( >.| H q x l n x t U =.&.! ! &.%.^ @.<.} w z z l x x x z z x x b b b z z v Y #.:.#.*.^ ^ #.%.%.%.%.%.%.%.%.%.%.%.%.%.%.%.%.%.%.%.%.%.%.%.%.%.%.%.%.%.%.%.%.%.%.%.%.%.%.%.%.%.%.%.%.%.%.%.*.*.*.*.*.%.%.&.&.! ( =.( =.^ >.=.&.&.] ] Q Y +.zXr.a.} Q 2.] _ ) ) ` ! ( ` / #.P u.a.r.r.r.y.jXO.P _ >._ >.>.@.@.X.@.@.%.-.%.%.*.( ( ( ) ( ^ @.^ %.%.%.%.@.@.@.@.-.X.+.lXy.jX;.U / / #.#.*.( ) =.>.>._ *.*.( ( ` ` ( ) =._ /  .PXGXGXPXPXGXHXe.9.9.lXHXGXPX%X/ ~ O.u.lXe.w.p.u.i.P %.>._ _ =.=.=.>.Y q.a.a.jXX./ ` ` / ~ o.t.a.y.tXQ _ P jXr.a.6.Y / ' ' =.=.%._ >.P q.p.p.e.P ^ / ' / &.-.%._ =.*.%.%.%.%.%.%.%.%.%.%.%.%.%.%.%.%.%.%.%.%.%.%.%.%.%.%.%.%.%.%.%.%.%.%.%.%.%.%.%.%.%.%.%.%.%.%.%.( ( =.=.` _ =.Q 8.u.u.lX6.P _ ] ] ` =.=.=.~ P kXu.y.r.r.r.r.y.y.zXu.P Q Q 5.lXq.jXX.@._ *.@.*.%.%.%.%.%.%.%.%.%.%.%.%.%.%.%.%.%.^ ^ @.@.&.&.=.*.:.G q x n x z G >.=.) ) &.^ W W %.%.*.*.&.&.) ) %.%.%.%.%.%.%.%.%.%.%.%.%.%.%.%.%.%.%.%.%.%.%.%.%.%.%.%.%.%.%.%.%.%.%.%.%.%.%.%.%.%.%.%.%.%.%.%.*.*.) ) %.%.%.%.( &.1.) >.U t r q I ,.>.$.G v q I :.%.( %.%.%.%.%.%.%.%.%.%.%.%.%.%.%.%.%.%.%.%.&.*.^ :. .+ 4 $ V C.C.V $ * % , 5 5 5 5 5 5 < * * , < 5 5 1 = 4 O  .,.( &.( %.*.%.&.%.%.%.*.&.&.%.%.%.%.%.%.%.%.%.%.%.%.%.%.%.%.%.%.@.%.*._ _ ' >./ P ;.jXa.d.d.w.a.t.P *._ ( =.&.%.*.*.*.*.%.%.%.%.%.%.%.%.) ) %.>.=.Y w r b b n l b N r r R -.%.%.%.%.#.#.*.*.*.*.*.*.%.&.&.&.=.&.( ( / / ' _ / >.*.( &.&.! ) 2.' _ Q } t.r.e.t.U P o.%.-.%.-.( %.%.@.@.@.@.@.-.=.*.*.) ( %.( %.%.@.@.@.@.@.@.&.=.=._ =.` *.( @.%.Q o.Q &.) =.&.%.%.%.%.%.%.%.%.&.%.%.%.%.( Q +.p.r.t.X.@./ 6.lXa.y.} Q ' >._ ( ( &.) ` ) ( ( %.@.@.@.%.%.*.*.%.%.%.%.%.%.%.%.%.%.%.%.%.%.%.%.&.&.",
"-.%.%.=.=.2.=.&.%.%.@.@.%.%.&.&.&.%.%.%.%.%.%.%.%.%.%.%.%.%.%.%.%.%.%.%.%.%.%.%.%.%.%.%.%.%.%.%.*.@.@.#.| L v H r t v D | | $.$.@.W @.@.@.$.| G t t l r l l l l l l r l r t r t I $.*._ *.=.*.=.%.%.%.%.%.%.%.%.%.%.%.%.%.%.%.%.%.%.%.%.%.%.%.%.%.%.%.%.%.%.%.%.%.%.%.%.%.%.%.%.%.%.%.%.%.%.%.%.*.*.%.%.%.%.%.%.%.@.-.( -.( =.=.=.%.Q @.@.X.6.jXjXjX*./ Q / W U / / / :.=./ ^ Q jXlXu.y.a.q.y.+.8.&.) ~ ` ` _ >.-.*.=.=._ ^ ^ @.@.@.@.%.%.%.%.%.&.&.&.) ) ) ` ) ! ~ ;.lXjXjX;.P O.X.^ _ =.>.=.*.~ &.! ~ W ! Q Q Q ~ W Q ~ Q } cXHXHXHXHXDXNXkXi.u.xXHXGXGX| Q 8.5.e.r.y.r.a.lXjX~ o.=.) ) ) ) 1.! X.t.lXjXt.O.~ W Q U Q O.6.jXxX5.Q Q -.kXlXlXkXP o.&.! ! ) *.&.! X.t.lXjXt.X.P >./ / / %.o.o.%.%.%.%.%.%.%.%.%.%.%.%.%.%.%.%.%.%.%.%.%.%.%.%.%.%.%.%.%.%.%.%.%.%.%.%.%.%.%.%.%.%.%.%.%.%.%.%.*._ _ >._ / ^ X.P O.kXlXjX6.P Q @./ / Q Q Q Q X.5.jXlXa.a.p.p.p.a.jXt.O.X.8.5.u.u.jXX.@._ *.#.%.%.%.%.%.%.%.%.%.%.%.%.%.%.%.%.%.&.=.=.-.%.%.%.@.@. .G z x z z r t $.) ( %.%.%.*.*.*.*.*._ &.) %.%.%.%.%.%.%.%.%.%.%.%.%.%.%.%.%.%.%.%.%.%.%.%.%.%.%.%.%.%.%.%.%.%.%.%.%.%.%.%.%.%.%.%.%.%.%.%.%.&._ _ &.%.@.@.%.%.@.$.@.^ @.U D v t I $.U | G G G U -.%.^ @.@.&.&.%.%.%.%.%.%.%.%.%.%.%.%.%.%.%.%.&.&.^ :. .+ 4 $ V C.C.V * 6 , 5 5 5 5 5 5 5 < * * , < 5 5 1 = 4 O  .,.( &.( %.*.%.&.%.%.%.*.&.&.%.%.%.%.%.%.%.%.%.%.%.%.%.%.%.%.%.%.%.*._ _ %.%.Q X.X.5.t.jXlXlXy.t.kXQ =.( &.%.@.%.%.) %.%.#.#.%.&.&.&.@.@.%.@.@.$.#.I t z M r x z v H t G / =.@.@.%.%.%.&.&.%.%.%.%.&.&.&._ _ >.( / #.*.^ Q W Y @.X.Q %.=.) _ Q Q @.X.X.kXjXxX6.W &.&.( =.! ) %.%.@.@.@.@.@.@.^ ^ ^ ^ ( &.&.=.&.&.) ) ) ) ) ) =.&.@.@.( _ ^ ^ @.-.o.-.Q *.( =.&.%.%.%.%.%.%.%.^ %.%.%.%.&.( Q 6.u.lXt.O.8.} +.jXu.jXO.o.-.&.! %.^ =.&.) ) ^ =.%.%.%.@.@.%.*._ %.%.%.%.%.%.%.%.%.%.%.%.%.%.%.%.%.%.",
"y y D K | $.*.( %.&.%.%.@.@.%.%.%.%.%.%.%.%.%.%.%.%.%.%.%.%.%.%.%.%.%.%.%.%.%.%.%.%.%.%.%.%.%.*.@.*.=.` &.^ ^ %.-.%.%.^ 2.( &.) =.( ) 1.) 1.1.W =.-.-.-.-.*.-.*.=.=.=.-.=.*.$.$.^ =.-.W %.&.( &.&.%.%.%.%.%.%.%.%.%.%.%.%.%.%.%.%.%.%.%.%.%.%.%.%.%.%.%.%.%.%.%.%.%.%.%.%.%.%.%.%.%.%.%.%.%.%.%.&.o.&.&.%.%.*.#.#.^ *.^ *.^ -.^ ^ @.O.t.lXt.5.X.o.-./ =.W 6.jXu.y.y.r.y.6.o._ / W @.Q ;.u.e.lX9.u.jXt.O.X.X.X.@.@.^ ) ) ( ( &.-.%.&.%.&.*.*._ ( %.%.%.%.*.*.*.*.>./ ^ ,.8.O.6.lXjX6.o.Q ( =.*.Q +.u.jXkXcXHXHXGXGXGXHXcXkXjX0.JXHXGXHXGXGXPXGXHXHXHXGXHXJX0.u.jX6.-.Q &.! ~ ( ( _ _ _ #.*.@.^ -.>.#.L v u D i.lXu.u.lXlXt.O.Q P 5.u.jXkXy y 0 { kXlXt.7.X.@.@.^ _ _ ^ @.X.;.t.u.u.5.X.^ *.( ^ *.%.%.%.%.%.%.%.%.%.%.%.%.%.%.%.%.%.%.%.%.%.%.%.%.%.%.%.%.%.%.%.%.%.%.%.%.%.%.%.%.%.%.%.%.%.%.%.%.-.@.*.@.X.5.jXjXt.O.P P 5.jXu.e.r.a.r.e.u.lXkX} y r r l l l z r q { i.lXi.lXe.u.jXO.@._ *.( &.) &.%.%.%.%.%.%.%.%.%.%.%.%.%.%.%._ *.*.( ! &.=.%.>.W >.` ` 1.&.%.-.) &.&.@.%.*.*.=._ _ *.*.%.@.@.%.%.%.%.%.%.%.%.%.%.%.%.%.%.%.%.%.%.%.%.%.%.%.%.%.%.%.%.%.%.%.%.%.%.%.%.%.%.%.%.%.%.%.%.%.%.%.&._ _ %.@.@.@.) ) =.%.*.( 1.1./ $.$.>.=.) >./ #./ Q 2.&.^ @.^ %.) %.%.%.%.%.%.%.%.%.%.%.%.%.%.%.%.&.&.^ :. .+ 4 $ : h h d . - = , 5 5 5 5 5 5 < * * , < 5 5 1 = 4 O  .,.( &.( %.*.%.&.%.%.%.*.&.&.%.%.%.%.%.%.%.%.%.%.%.%.%.%.%.*.*._ _ _ ( o.X.O.t.lXjX6.O.Q ! W %.Q 3.Q =.( >.^ *.*.( ) o.&.#.#.*.%.&.&.%.%.%.%.@.@.>.=.$.:.#.E v G I <.$./ 2.) @.@.@.&.&.&.&.%.@.@.@.%.*.*._ *.%.Q O.6.jXu.y.y.y.jX6.X.W *.*.-.X.5.jXjX6.5.P @.-.U -.*.W =.( %.@.@.%.%.) ) ) ) %.%.&.&.=.=.( %.%.%.%.%.%.%.@.#.#.^ @.@.^ ( ) >.^ *.*.>./ -.%.-.%.%.%.%.%.%.%.%.^ %.%.%.%.&.( W =.Q Q O.kXjXjX6.X.W 2./ / #.^ -.*.W =.&.%.*./ =.&.) &.&.%.%._ _ &.%.%.%.%.%.%.%.%.%.%.%.%.%.%.%.%.%.",
"l x q K ,._ ) =.@.@._ ` _ *.@.@.%.%.%.%.%.%.%.%.%.%.%.%.%.%.%.%.%.%.%.%.%.%.%.%.%.%.%.%.%.%.%.%.%.%.%.%.%.%.%.%.%.%.%.%.%.%.%.%.%.%.%.%.%.%.%.%.%.%.%.%.%.%.%.%.%.%.%.%.%.%.%.%.%.%.%.%.%.%.%.%.%.%.%.%.%.%.%.%.%.%.%.%.%.%.%.%.%.%.%.%.%.%.%.%.%.%.%.%.%.%.%.%.%.%.%.%.%.%.%.%.%.%.%.%.%.%.%.%.%.%.%.%.%.%.%.%.%.%.%.%.%.%.%.&.( X.O.lXe.lX5.P X.! 1.&.P 6.lXw.w.r.w.a.6.P @.>.=.( Q O.jXe.e.r.e.u.kXP %.^ %.%.&.&.*.*.%.%.*._ =.=.` ( _ *.^ #.=.=.( >.%.-.Q &.o.&.] ' / ~ t.a.r.t.X.>.>.%.-.Q O.jXlXi.cXGXHXGXGXGXPXcXi.u.u.NXHXGXGXGXHXHXGXGXGXGXGXHXHXhXe.y.kXY X.-._ ' _ >.*.%.%.@.( &.&.o.o.-.K l r y lXu.a.9.q.u.jXO.Q Q +.lXd.lXt l 0 { lXe.lXO.X.%.=._ >.` &.o.P O.u.e.lX+.Q >.-.o.*.*.%.%.%.%.%.%.%.%.%.%.%.%.%.%.%.%.%.%.%.%.%.%.%.%.%.%.%.%.%.%.%.%.%.%.%.%.%.%.%.%.%.%.%.%.%.%.%.%.-.@.@.%.Q 5.lXy.lXP -.~ +.a.w.r.y.e.w.p.w.lXxX{ q l B B B l z z q z xXa.9.9.w.u.jX} ~ =.=._ @.%.%.%.%.%.%.%.%.%.%.%.%.%.%.%.%.%.%.%.%.%.%.%.%.%.%.%.%.%.%.%.%.%.%.%.%.%.%.%.%.%.%.%.%.%.%.%.%.%.%.%.%.%.%.%.%.%.%.%.%.%.%.%.%.%.%.%.%.%.%.%.%.%.%.%.%.%.%.%.%.%.%.%.%.%.%.%.%.%.%.%.%.%.%.%.%.%.%.%.%.%.%.%.%.%.%.%.%.%.%.%.%.%.%.%.%.%.%.%.%.%.%.%.%.%.%.%.%.%.%.%.%.%.%.%.%.%.%.%.%.%.%.%.%.%.&.%.( :. .O 4 * 1 5 5 5 * * = < 5 5 5 5 5 5 1 > < < 1 p p 5 < 4 O  .<.( &.( %.*.%.&.%.%.%.*.%.&.%.%.%.%.%.%.%.%.%.%.%.%.%.%.%.*._ _ %.*._ _ @.P u.y.a.6.Q Q ( =.*.*.*.=.( =.W *.%.%.W W %.@.@.*.#.#.^ -.%./ -./ _ _ ) =.@.,.<.D G t I >.>.` &.o.o.%.%.%.%.*.%.&.%.&.%.>._ / >._ *.#.P 6.lXr.e.r.9.lX6.Q >.Q 3.( U 5.lXe.lXO.W >.*.%.%.%.%.%.%.%.%.%.%.%.%.%.%.%.%.%.%.%.%.%.%.%.%.%.%.%.%.%.%.%.%.%.%.%.%.%.%.%.%.%.%.%.%.%.%.%.%.%.%.%.%.%.%.%.%.%.%.%.%.%.%.*.( ) / X.jXr.a.5.Q ( ) ` _ _ ) &.&.%.%.%.%.%.%.%.%.%.%.%.%.%.%.%.%.%.&.%.@.@.@.@.=.W -.*.$.@.@.%.%.%.",
"z m r K <.^ ( *.@.@.&.) ) ) @.@.%.%.%.%.%.%.%.%.%.%.%.%.%.%.%.%.%.%.%.%.%.%.%.%.%.%.%.%.%.%.%.%.%.%.%.%.%.%.%.%.%.%.%.%.%.%.%.%.%.%.%.%.%.%.%.%.%.%.%.%.%.%.%.%.%.%.%.%.%.%.%.%.%.%.%.%.%.%.%.%.%.%.%.%.%.%.%.%.%.%.%.%.%.%.%.%.%.%.%.%.%.%.%.%.%.%.%.%.%.%.%.%.%.%.%.%.%.%.%.%.%.%.%.%.%.%.%.%.%.%.%.%.%.%.%.%.%.%.%.%.%.%.%.*._ W } lXu.lX;.Y ^ / / / Q 5.lXa.p.a.a.lX6.X.U / _ _ o.;.lXa.p.a.r.u.kXP %.^ %.%.&.&.*.*.%.%.*.*.^ $.$.@.) ) ) ` ~ ~ ~ ^ ~ =.( %.@.#.#._ W O.r.p.zXq.~ Y Q / ' Y O.u.y.i.cXHXHXHXHXDXHXcXi.e.i.NXHXGXGXGXHXHXGXGXGXGXHXHXJXxXlXxXkXQ %.@.^ Q Q Q ^ *.*.%.( &.*.*.=.,.J q r y xXa.p.p.a.u.kXX./ Q 5.zXa.xXD t r ..cXlXjXO.P Q / ' Q / / >._ 3.lXlXlX5.Y Q ( ^ _ ' *.%.%.%.%.%.%.%.%.%.%.%.%.%.%.%.%.%.%.%.%.%.%.%.%.%.%.%.%.%.%.%.%.%.%.%.%.%.%.%.%.%.%.%.%.%.%.%.&.( =.=.Q ;.jXq.jXX.~ Y 5.jXlXlXa.a.p.a.p.a.lX{ y z m c c c c v r y lXa.p.a.a.lXjXO.X.&.` ` ) ( %.%.%.%.%.%.%.%.%.%.%.%.%.%.%.%.%.%.%.%.%.%.%.%.%.%.%.%.%.%.%.%.%.%.%.%.%.%.%.%.%.%.%.%.%.%.%.%.%.%.%.%.%.%.%.%.%.%.%.%.%.%.%.%.%.%.%.%.%.%.%.%.%.%.%.%.%.%.%.%.%.%.%.%.%.%.%.%.%.%.%.%.%.%.%.%.%.%.%.%.%.%.%.%.%.%.%.%.%.%.%.%.%.%.%.%.%.%.%.%.%.%.%.%.%.%.%.%.%.%.%.%.%.%.%.%.%.%.%.%.%.%.%.%.&.%.( :. .O 4 * 1 5 5 5 * * = < 5 5 5 5 5 5 < * * % 2 2 2 > % 4 O  .<.( &.( %.*.%.&.%.%.%.*.%.%.%.%.%.%.%.%.%.%.%.%.%.%.%.%.%.&.&.! o.%._ _ ( Q jXu.jX6.Q / / / Q Q Q W ~ ` / ` ` _ ( _ =.*.( -.=.=.^ &.%.^ -.^ %.&.&.) W @.$.D t w K <.>._ _ ^ -.=.*._ _ _ ( ) *.-._ -.*.^ -.^ %.@.X.6.lXa.a.a.a.jX5.P Q P / _ Q ;.jXq.jXX.Q ( %.%.%.%.%.%.%.%.%.%.%.%.%.%.%.%.%.%.%.%.%.%.%.%.%.%.%.%.%.%.%.%.%.%.%.%.%.%.%.%.%.%.%.%.%.%.%.%.%.%.%.%.%.%.%.%.%.%.%.%.%.%.%.%.=.=.^ o.jXu.lX6.X.^ &.&.#.#.%.%.%.%.%.%.%.%.%.%.%.%.%.%.%.%.%.%.%.%.@.@.@.%.%.&.) Q ) ) ) =.&.&.1.1.",
"m J t { <.@.@.-.@.@.&.) ) ) %.%.%.%.%.%.%.%.%.%.%.%.%.%.%.%.%.%.%.%.%.%.%.%.%.%.%.%.%.%.%.%.%.%.%.%.%.%.%.%.%.%.%.%.%.%.%.%.%.%.%.%.%.%.%.%.%.%.%.%.%.%.%.%.%.%.%.%.%.%.%.%.%.%.%.%.%.%.%.%.%.%.%.%.%.%.%.%.%.%.%.%.%.%.%.%.%.%.%.%.%.%.%.%.%.%.%.%.%.%.%.%.%.%.%.%.%.%.%.%.%.%.%.%.%.%.%.%.%.%.%.%.%.%.%.%.%.%.%.%.%.%.%.%.%.%.-.X.O.jXe.y.5.+.;.;.;.5.5.+.+.4.4.4.4.+.+.6.7.6.&.( =.-.6.6.5.t.y.u.kXP %.^ &.%.&.&.*.*.%.%.*._ ) =.=.=.) ) ) Q tXtXtXqXU =.&.%.&.( &.&.&.X.6.6.5.6.5.5.5.;.3.5.+.u.e.0.cXGXHXHXGXHXGXcXkXkXhXHXHXGXGXGXGXHXGXGXGXDXcXcXNX0.+.6.5.%.-.X.5.5.5.;.W ) ` _ %.%._ _ ! -.K v J v 9X4.} i.a.e.e.+.+.5.+.} +.4.t z t H 4.4.+.6.+.7.5.5.+.5.$._ W o.6.6.5.5.+.5.5.X.*._ *.%.%.%.%.%.%.%.%.%.%.%.%.%.%.%.%.%.%.%.%.%.%.%.%.%.%.%.%.%.%.%.%.%.%.%.%.%.%.%.%.%.%.%.%.%.%.%.o.W -.-.Q 5.lXe.e.+.+.4.4.} 4.4.4.4.4.4.4.4.4.{ y t m n z z M M m t 4.4...4...4.4.X.X.^ ^ *.@.@.%.%.%.%.%.%.%.%.%.%.%.%.%.%.%.%.%.%.%.%.%.%.%.%.%.%.%.%.%.%.%.%.%.%.%.%.%.%.%.%.%.%.%.%.%.%.%.%.%.%.%.%.%.%.%.%.%.%.%.%.%.%.%.%.%.%.%.%.%.%.%.%.%.%.%.%.%.%.%.%.%.%.%.%.%.%.%.%.%.%.%.%.%.%.%.%.%.%.%.%.%.%.%.%.%.%.%.%.%.%.%.%.%.%.%.%.%.%.%.%.%.%.%.%.%.%.%.%.%.%.%.%.%.%.%.%.%.%.%.%.%.%.%.%.%.&.( :. .O 4 * 1 5 5 5 * * , 6 5 5 5 5 5 5 < * < : f g f d # 6 O  .<.( &.( %.*.%.&.%.%.%.*.&.&.%.%.%.%.%.%.%.%.%.%.%.%.%.%.%.%.&.o.o.%.) *.%.Q t.e.y.9.+.7.5.7.5.5.7.5.;.6.-.o.%.*.=.=.-.%.W @.&.=.( ( &.&.%.%.%.&.&.&.^ *.#.Y K L U @.@.^ %.*.( ( W o.o.^ %.&.&.-.( ( -.%.%.^ %.-.W ;.6.5.5.5.6.6.5.5.+.6.Q >.Q 5.lXy.lXO.W ( %.%.%.%.%.%.%.%.%.%.%.%.%.%.%.%.%.%.%.%.%.%.%.%.%.%.%.%.%.%.%.%.%.%.%.%.%.%.%.%.%.%.%.%.%.%.%.%.%.%.%.%.%.%.%.%.%.%.%.%.%.%.%.%.&.-._ o.6.5.6.;.X.^ &.&.#.#.%.%.%.%.%.%.%.%.%.%.%.%.%.%.%.%.%.&.&.&.@.@.%.%.%.%.-.@.-.=.=.-.| I I I ",
"z z w K -.( ! ) %.%.%.&.%.%.&.&.%.%.%.%.%.%.%.%.%.%.%.%.%.%.%.%.%.%.%.%.%.%.%.%.%.%.%.%.%.%.%.%.%.%.%.%.%.%.%.%.%.%.%.%.%.%.%.%.%.%.%.%.%.%.%.%.%.%.%.%.%.%.%.%.%.%.%.%.%.%.%.%.%.%.%.%.%.%.%.%.%.%.%.%.%.%.%.%.%.%.%.%.%.%.%.%.%.%.%.%.%.%.%.%.%.%.%.%.%.%.%.%.%.%.%.%.%.%.%.%.%.%.%.%.%.%.%.%.%.%.%.%.%.%.%.%.%.%.%.%.%.%.%.%.*.Q X.jXe.y.y.a.a.lXa.a.lX} u 0 k 0 q u { xXa.lXO.Q *.Q Q P Y 6.u.u.kXP %.( &.%.&.&.*.*.%.%.*._ ) %.$.@.#.@.$. .PXPXLXcXU -.&.&.*._ *.#.#.U / / U ;.jXlXp.p.p.a.r.lXu.i.NXGXGXGXGXGXGXcXhXhXvXGXGXGXHXHXHXGXGXGXGXcXi.q.t.O.Y ` ^ ^ ( Q t.lXlXjXQ ( _ *.%.%.&.) ! ;.I v c 0 v q u ..kXu.a.r.lXcX..0 q l l N B l q q u hXu.lXa.a.p.lX5.*.=.~ X.P P 6.lXlXt.X.Q ( %.%.%.%.%.%.%.%.%.%.%.%.%.%.%.%.%.%.%.%.%.%.%.%.%.%.%.%.%.%.%.%.%.%.%.%.%.%.%.%.%.%.%.%.%.%.%.*.) ( >.>.U ;.jXw.r.a.jXxX4.u q 0 0 q 0 0 0 q r 0 l b n z b z z x B j H q 0 q q q G U -.( ^ *.%.-.%.%.%.%.%.%.%.%.%.%.%.%.%.%.%.%.%.%.%.%.%.%.%.%.%.%.%.%.%.%.%.%.%.%.%.%.%.%.%.%.%.%.%.%.%.%.%.%.%.%.%.%.%.%.%.%.%.%.%.%.%.%.%.%.%.%.%.%.%.%.%.%.%.%.%.%.%.%.%.%.%.%.%.%.%.%.%.%.%.%.%.%.%.%.%.%.%.%.%.%.%.%.%.%.%.%.%.%.%.%.%.%.%.%.%.%.%.%.%.%.%.%.%.%.%.%.%.%.%.%.%.%.%.%.%.%.%.%.%.%.%.%.%.%.%.&.^ :. .O 4 * 1 5 5 5 * * , 6 5 5 5 5 p 5 < * , ; V C.C.V $ 4 O  .<.( &.( %.*.%.&.%.%.%.*.&.&.%.%.%.%.%.%.%.%.%.%.%.%.%.%.%.%.*.%.%.*._ =.*.Q jXy.a.a.y.lXlXa.a.a.a.a.a.lX+.} o.^ _ ` ` >._ =.^ =._ ( -.%.@.%.^ ( &.=.-.>.>.^ 3.2.1.1.) ( =.=.=.&.%.-.@.@.%.%.( &.) ) =.*.( ( _ >./ _ *./ / U Y Y 5.lXa.xXQ ) Q 5.u.e.u.} W 2.*.%.%.%.%.%.%.%.%.%.%.%.%.%.%.%.%.%.%.%.%.%.%.%.%.%.%.%.%.%.%.%.%.%.%.%.%.%.%.%.%.%.%.%.%.%.%.%.%.%.%.%.%.%.%.%.%.%.%.%.%.%.%.%.^ =.>./ -.~ o.Q ( _ *.-.*.*._ ) %.%.%.%.%.%.%.%.%.%.%.%.%.%.%.&.) ) %.@.%.&.%.@.$.@.#.^ #.$.L r r l ",
"c c t I ,.1.) 1.&.%.%.@.@.@.&.&.&.%.%.%.%.%.%.%.%.%.%.%.%.%.%.%.%.%.%.%.%.%.%.%.%.%.%.%.%.%.%.%.%.%.%.%.%.%.%.%.%.%.%.%.%.%.%.%.%.%.%.%.%.%.%.%.%.%.%.%.%.%.%.%.%.%.%.%.%.%.%.%.%.%.%.%.%.%.%.%.%.%.%.%.%.%.%.%.%.%.%.%.%.%.%.%.%.%.%.%.%.%.%.%.%.%.%.%.%.%.%.%.%.%.%.%.%.%.%.%.%.%.%.%.%.%.%.%.%.%.%.%.%.%.%.%.%.%.%.%.%.%.%.%.( W X.jXy.y.w.r.d.w.d.p.zX..0 B N B n 0 { xXa.jX;./ 6XfX_ / Q kXy.u.kXP -.( &.%.) ) *.*.@.%.*._ 1.1.W ) ) ! ` U GXGXLXvXY ) ! &.W ^ %.%.;.%.=.( ! o.u.e.r.w.r.e.9.r.9.i.cXHXHXGXHXGXGXcXhXhXvXHXGXGXHXHXHXGXGXGXHXcXd.a.u.O.Y >.' _ ! P q.a.p.i.X.^ _ _ @.@.&.( @.:.K t m b n M u 4.lXy.p.9.9.u.4.0 t v x x c z J z u kXa.a.9.r.r.lXo.Y ` ` _ >.Y 6.jXu.jXX.W _ *.%.%.%.%.%.%.%.%.%.%.%.%.%.%.%.%.%.%.%.%.%.%.%.%.%.%.%.%.%.%.%.%.%.%.%.%.%.%.%.%.%.%.%.%.%.%.&.( ! -.%.Q 5.lXp.9.p.w.xX0.u n x N J c x c c J J x m m m c c c x N b N l b B B z w | ,.*.*.*._ _ %.%.%.%.%.%.%.%.%.%.%.%.%.%.%.%.%.%.%.%.%.%.%.%.%.%.%.%.%.%.%.%.%.%.%.%.%.%.%.%.%.%.%.%.%.%.%.%.%.%.%.%.%.%.%.%.%.%.%.%.%.%.%.%.%.%.%.%.%.%.%.%.%.%.%.%.%.%.%.%.%.%.%.%.%.%.%.%.%.%.%.%.%.%.%.%.%.%.%.%.%.%.%.%.%.%.%.%.%.%.%.%.%.%.%.%.%.%.%.%.%.%.%.%.%.%.%.%.%.%.%.%.%.%.%.%.%.%.%.%.%.%.%.%.%.%.( :. .+ 4 * 1 5 5 5 * * = 6 5 5 5 p p p < * # ; C.C.C.V $ 4 O  .<.( &.( %.*.%.&.%.%.%.*.&.&.%.%.%.%.%.%.%.%.%.%.%.%.%.%.%.*.=._ *.*.*.=.@.} t.u.w.r.w.r.p.9.9.q.q.y.u.jX;.Y >._ *.^ W %.Q W W ( *._ *.( ^ -.%.%.^ _ =.*.W ( / ` ` _ =.-.#._ ( / ) _ ( =.=.` ( ) _ _ =.&.! &.( =.( ( &.( ) _ 6XQ 5.p.w.lXX.=.P 7.lXa.jX} Q ` *.%.%.%.%.%.%.%.%.%.%.%.%.%.%.%.%.%.%.%.%.%.%.%.%.%.%.%.%.%.%.%.%.%.%.%.%.%.%.%.%.%.%.%.%.%.%.%.%.%.%.%.%.%.%.%.%.%.%.%.%.%.%.%.^ =.>.` ) Q ) _ _ =.*.*.*._ ) _ %.%.%.%.%.%.%.%.%.%.%.%.%.%.%.&._ *.@.@.&.) &.&.@.@.=.` 2.,.I t z z ",
"N N v K :.*.^ 2.&.&.*.*.#.#.&.&.&.%.%.%.%.%.%.%.%.%.%.%.%.%.%.%.%.%.%.%.%.%.%.%.%.%.%.%.%.%.%.%.%.%.%.%.%.%.%.%.%.%.%.%.%.%.%.%.%.%.%.%.%.%.%.%.%.%.%.%.%.%.%.%.%.%.%.%.%.%.%.%.%.%.%.%.%.%.%.%.%.%.%.%.%.%.%.%.%.%.%.%.%.%.%.%.%.%.%.%.%.%.%.%.%.%.%.%.%.%.%.%.%.%.%.%.%.%.%.%.%.%.%.%.%.%.%.%.%.%.%.%.%.%.%.%.%.%.%.%.%.%.%.%.%.X.O.jXu.a.a.a.lXlXu.u.lX+.w m y t H t ..lXlXlXX.P ~ / ^ W P 5.u.u.kXP %.( &.&.&.&.*.*.@.%.*.` Y ) Q Q ! ~ ~ Y GXDXGXvXY 1.! =./ ' ' ~ ` / ` ` ! O.lX9.9.e.q.q.q.w.w.i.cXHXHXGXHXHXGXcXvXvXcXHXGXGXHXHXGXGXGXDXJXcXu.lXu.+.Q / U ~ Q X.6.jXlXjXX.@.#.*.#.%.*._ >.#.L t v z r y y 4.xXa.a.a.s.zX..y H H H t t H H m y hXlXa.a.zXa.lX5.P W W Q / U 6.u.u.jXP -.>.*.%.%.%.%.%.%.%.%.%.%.%.%.%.%.%.%.%.%.%.%.%.%.%.%.%.%.%.%.%.%.%.%.%.%.%.%.%.%.%.%.%.%.%.%.%.%.%.o.o.o.O.X.5.u.y.a.a.e.lX4.u t t r r r e r r e r r r r r r l l l r q y r M z z t L $.$.$.@.*.*.^ %.%.%.%.%.%.%.%.%.%.%.%.%.%.%.%.%.%.%.%.%.%.%.%.%.%.%.%.%.%.%.%.%.%.%.%.%.%.%.%.%.%.%.%.%.%.%.%.%.%.%.%.%.%.%.%.%.%.%.%.%.%.%.%.%.%.%.%.%.%.%.%.%.%.%.%.%.%.%.%.%.%.%.%.%.%.%.%.%.%.%.%.%.%.%.%.%.%.%.%.%.%.%.%.%.%.%.%.%.%.%.%.%.%.%.%.%.%.%.%.%.%.%.%.%.%.%.%.%.%.%.%.%.%.%.%.%.%.%.%.%.%.%.%.%.%.( :. .+ 4 = 1 5 5 5 * * = 6 5 5 5 5 p 5 < > , 2 V C.V g : 4 O  .<.( &.( %.*.%.&.%.%.%.*.&.&.%.%.%.%.%.%.%.%.%.%.%.%.%.%.%.%.*.( %.&.%.%.o.X.lXlXa.a.a.a.a.r.a.a.p.a.a.lX5.X.^ / ] ` / ` ` ` >.W %.=._ ( ^ -.-.%._ _ =.^ ~ ;.Q o.W Q @.*.@.@.>.=.=.( Q W %.Q -.^ #.>.*.) ( &.%.%.%.%.%.%.=.=.` W i.lXu.t.X.P X.5.jXjXjXO.Q ! &.%.%.%.%.%.%.%.%.%.%.%.%.%.%.%.%.%.%.%.%.%.%.%.%.%.%.%.%.%.%.%.%.%.%.%.%.%.%.%.%.%.%.%.%.%.%.%.%.%.%.%.%.%.%.%.%.%.%.%.%.%.%.%.%.%.%.( =.&.=.=.%.%.%.%.%.%.%.&.%.%.%.%.%.%.%.%.%.%.%.%.%.%.%.%.*.*.#.#.%.) &.) =.=.=.( #.,.I G G c ",
"v x l z K L L $.#.*._ _ *.*.*._ %.%.%.%.%.%.%.%.%.%.%.%.%.%.%.%.%.%.%.%.%.%.%.%.%.%.%.%.%.%.%.%.%.%.%.%.%.%.%.%.%.%.%.%.%.%.%.%.%.%.%.%.%.%.%.%.%.%.%.%.%.%.%.%.%.%.%.%.%.%.%.%.%.%.%.%.%.%.%.%.%.%.%.%.%.%.%.%.%.%.%.%.%.%.%.%.%.%.%.%.%.%.%.%.%.%.%.%.%.%.%.%.%.%.%.%.%.%.%.%.%.%.%.%.%.%.%.%.%.%.%.%.%.%.%.%.%.%.%.%.%.%.%.*.>.^ Q -.X.@.O.X.X.@.*.@.,.} q c N N N l r m y y u.u.i.y.u.u.i.y.r.u.kXP %.( &.&.&.&.*.*.@.%._ #.<.DXDXDXGXHXGXGXPXHXLXvXU 1.! 6.u.y.6.X.o.o.-.>.U <.GXHXHXHXHXHXHXNXNXNXGXGXGXGXGXGXGXHXHXHXDXGXGXGXGXGXGXHXcXkXlXi.X.o.O.6.kXjXjXt.jX6.5.X.@.X.@.%.*.%.( *.*.*.=.=.*.R :. .J N q x { G J M t z J j x c c c z x l x q { H t t y y y 4.u.u.jXt.jX6.u.a.lXjX8.X.@.%.%.%.%.%.%.%.%.%.%.%.%.%.%.%.%.%.%.%.%.%.%.%.%.%.%.%.%.%.%.%.%.%.%.%.%.%.%.%.%.%.%.%.%.%.%.%._ _ >._ / ^ ( >.-.W o.-.,.-.U :.#._ _ *._ >.>._ >._ _ ( ^ ( *.*._ *.#.#./ #./ #.@.Q =.( ( &.) &.) &.%.%.%.%.%.%.%.%.%.%.%.%.%.%.%.%.%.%.%.%.%.%.%.%.%.%.%.%.%.%.%.%.%.%.%.%.%.%.%.%.%.%.%.%.%.%.%.%.%.%.%.%.%.%.%.%.%.%.%.%.%.%.%.%.%.%.%.%.%.%.%.%.%.%.%.%.%.%.%.%.%.%.%.%.%.%.%.%.%.%.%.%.%.%.%.%.%.%.%.%.%.%.%.%.%.%.%.%.%.%.%.%.%.%.%.%.%.%.%.%.%.%.%.%.%.%.%.%.%.%.%.%.%.%.%.%.%.%.%.%.%.%.%.%.%.( :. .+ 4 = 1 5 5 5 * * = 6 5 5 5 5 5 5 < > = > s d s p * 4 O  .<.( &.( %.*.%.&.%.%.%.*.&.&.%.%.%.%.%.%.%.%.%.%.%.%.%.%.%.%.&.%.&.&.( =.-.W X.@.X.@.#.@.-.*.-.&.W o.X.;.W W o.;.t.u.i.r.e.jX6.X.X.-.( _ ( &.%.%.*.( -.W X.6.t.jX6.o.o.-.@.@.W %.&.o.O.6.jXt.6.X.X.-.%.&.) *.*.*.*.#.^ ^ _ _ =.Q X.O.O.O.kXkXt.5.;.o.3.W W -.%.%.%.%.%.%.%.%.%.%.%.%.%.%.%.%.%.%.%.%.%.%.%.%.%.%.%.%.%.%.%.%.%.%.%.%.%.%.%.%.%.%.%.%.%.%.%.%.%.%.%.%.%.%.%.%.%.%.%.%.%.%.%.%.%.@.W %.%.*.%.( @.@.@.%.%.%.%.&.%.%.%.%.%.%.%.%.%.%.%.%.%.%.%.*.*.#.*.*.%.%.%.%.^ #.| L G J z r z z ",
"c m b l b r t | $.*.` ` *.*.*.*.%.%.%.%.%.%.%.%.%.%.%.%.%.%.%.%.%.%.%.%.%.%.%.%.%.%.%.%.%.%.%.%.%.%.%.%.%.%.%.%.%.%.%.%.%.%.%.%.%.%.%.%.%.%.%.%.%.%.%.%.%.%.%.%.%.%.%.%.%.%.%.%.%.%.%.%.%.%.%.%.%.%.%.%.%.%.%.%.%.%.%.%.%.%.%.%.%.%.%.%.%.%.%.%.%.%.%.%.%.%.%.%.%.%.%.%.%.%.%.%.%.%.%.%.%.%.%.%.%.%.%.%.%.%.%.%.%.%.%.%.%.%.%.&.( =.( =./ / _ _ ` ^ ` Q #.| j N M v m c x x q u i.lXr.y.e.u.y.r.r.u.kXP %.( &.&.&.&.*.*.@.%._ $. .GXPXGXGXGXGXGXGXDXPXvXY ! X.kXa.lXtXQ ( ) 1.1.W <.PXGXPXPXPXPXGXPXPXGXGXGXGXGXGXHXGXGXGXGXGXGXGXHXGXGXGXcXa.9.y.6.~ Q Q t.a.w.p.9.a.u.;.Y ` ` ) &.o.o.! &.%.%.^ ( =.=.-.$.D t N r z q v v v v z N z z z m z M z H z v j j N l l u 4.zXw.r.w.p.p.e.e.u.kX~ -.^ %.%.%.%.%.%.%.%.%.%.%.%.%.%.%.%.%.%.%.%.%.%.%.%.%.%.%.%.%.%.%.%.%.%.%.%.%.%.%.%.%.%.%.%.%.%.%.%.^ -.o.&.=.( _ / >.' ` ~ ) =.1.! &.&.=.) =.=.=.=.=.=.-.-.-.-.-.=.) 2.2.` 2.( &.&.=.2.=.>.-./ &.&.%.%.%.%.%.%.%.%.%.%.%.%.%.%.%.%.%.%.%.%.%.%.%.%.%.%.%.%.%.%.%.%.%.%.%.%.%.%.%.%.%.%.%.%.%.%.%.%.%.%.%.%.%.%.%.%.%.%.%.%.%.%.%.%.%.%.%.%.%.%.%.%.%.%.%.%.%.%.%.%.%.%.%.%.%.%.%.%.%.%.%.%.%.%.%.%.%.%.%.%.%.%.%.%.%.%.%.%.%.%.%.%.%.%.%.%.%.%.%.%.%.%.%.%.%.%.%.%.%.%.%.%.%.%.%.%.%.%.%.%.%.%.%.%.%.%.( :. .+ 4 = 1 5 5 5 * * = 6 5 5 5 6 5 5 < * = = = < < , = 4 O  .<.( &.( %.*.%.&.%.%.%.*.&.&.%.%.%.%.%.%.%.%.%.%.%.%.%.%.%.*.*._ *._ _ >.=.^ W &.W ( ( / ` ' ' ' / ( ~ _ / 2.~ ;.jXlXw.p.e.u.jXO.Q -.( =.&.( %.&.-.^ %.Q X.jXa.lX6.X.W =.&.-.&.=.=.W X.6.lXu.kXX.Q %.! &.&.` *._ *.-.%.&.=.=.*.@._ ' ` ~ jXy.lX+.Q ~ 2.' _ #.%.%.%.%.%.%.%.%.%.%.%.%.%.%.%.%.%.%.%.%.%.%.%.%.%.%.%.%.%.%.%.%.%.%.%.%.%.%.%.%.%.%.%.%.%.%.%.%.%.%.%.%.%.%.%.%.%.%.%.%.%.%.%.%.=.&.%.-.&.*.) &.( %.) ) ) ) _ *.&.%.%.%.%.%.%.%.%.%.%.%.%.%.%.*.*.#.*.*.%.%.%.%.@.-.| D q l l n n c ",
"z m z c H v L :.>.>.=._ &.&.%.%.%.%.%.( ( ) ^ *.*.*.*.*.*.*.%.%.%.%.%.%.%.%.%.%.%.%.%.%.%.%.%.%.%.%.%.%.%.%.%.%.%.%.%.%.%.%.%.%.%.%.%.%.%.%.%.%.%.%.%.%.%.%.%.%.%.%.%.%.%.%.%.%.%.%.%.%.%.%.%.%.%.%.%.%.%.%.%.%.%.%.%.%.%.%.%.%.%.%.%.%.%.%.%.%.%.%.%.%.%.%.%.%.%.%.%.%.%.%.%.%.%.%.%.%.%.%.%.%.%.%.%.%.%.%.%.%.%.%.%.%.%.%.%.%.%.%.&.&.&.&.%.%.%.*.%.*.$.L w r l l k l b l r u lXa.p.p.p.p.p.p.a.lXq.O.Q *.=._ *.*.%.%.%.&.&.@.| GXLXPXPXPXPXPXPXPXLXcXE W P jXa.a.6.U Q ' ! ` Y ,.GXGXHXHXHXGXGXGXGXGXGXGXGXGXGXGXGXGXGXGXGXGXHXGXGXGXHXHXu.r.u.6.P Q Y kXu.r.y.e.r.lX;.W &.&.#.#.%.%.#.#.@.%.) ` =.^ $.| t r l l l l l l l l l l l l l l l l e r l r r z m M t y 0.zXa.p.p.p.a.a.r.lXu.O.~ >.*.%.%.%.%.%.%.%.%.%.%.%.%.%.%.%.*.*.-.*.@.*.%.( ) ) &.%.@.%.&.) =.&.&.&.%.@.*.%.%.&.%.&.&.&.) &.&.%.%.%.%.%.%.%.%.%.%.%.%.%.%.%.@.@.@.%.@.%.@.@.%.%.%.%.%.%.%.%.%.%.%.%.%.%.%.%.%.%.%.%.%.%.%.%.%.%.%.%.%.%.%.%.%.%.%.%.%.%.%.%.%.%.%.%.%.%.%.%.%.%.%.%.%.%.%.%.%.%.%.%.%.%.%.%.%.%.%.%.%.%.%.%.%.%.%.%.%.%.%.%.%.%.%.%.%.%.%.%.%.%.%.%.%.%.%.%.%.%.%.%.%.%.%.%.%.%.%.%.%.%.%.%.%.%.%.%.%.%.%.%.%.%.%.%.%.%.%.%.%.%.%.%.%.%.%.%.%.%.%.%.%.%.%.%.%.%.%.%.%.%.%.%.%.%.%.%.%.%.%.%.%.%.%.%.%.%.%.%.%.%.( :. .+ 4 X = , > 5 % = * < 5 5 5 5 5 5 < * * , < 5 5 1 = 4 O  .,.( &.( %.#.%.&.%.%.%.*.&.&.%.%.%.%.%.%.%.%.%.%.%.%.%.%.%.%.%.%.%.%.%.%.%.%.%.%.%.%.%.%.%.*.#.#.@.%.%.*.#.@.P O.jXa.p.p.w.a.jXW Y / ' =.*.&.=.( ) ` / Y Q kXa.a.6.P Q ` =._ =.=./ ^ X.t.a.zXkXQ ~ Q =._ %.! &.=.>.=.%.o.%.%.^ *.( &.Q O.jXlXzX6.X.Q &.=.&.-.%.%.%.%.%.%.%.%.%.%.%.%.%.%.%.%.%.%.%.%.%.%.%.%.%.%.%.%.%.%.%.%.%.%.%.%.%.%.%.%.%.%.%.%.%.%.%.%.W &./ / ' ' &.%.o.%.( _ ` ` &.( ! _ Y *./ >.( ( @.@.@.*.&.) _ _ *.%.%.%.%.%.%.%.%.%.%.%.%.%.%.%.%.=.W ^ *.@.-.=.2.2.-.E v n m x x x ",
"x n z x m z G I | U / -.=.&.&.&.=.=.=.=.1.=.=.>._ _ _ _ *.*.*.*.%.%.%.%.%.%.%.%.%.%.%.%.%.%.%.%.%.%.%.%.%.%.%.%.%.%.%.%.%.%.%.%.%.%.%.%.%.%.%.%.%.%.%.%.%.%.%.%.%.%.%.%.%.%.%.%.%.%.%.%.%.%.%.%.%.%.%.%.%.%.%.%.%.%.%.%.%.%.%.%.%.%.%.%.%.%.%.%.%.%.%.%.%.%.%.%.%.%.%.%.%.%.%.%.%.%.%.%.%.%.%.%.%.%.%.%.%.%.%.%.%.%.%.%.%.%.%.%.%.%.&.&.&.%.%.%.^ &.( -.-.U L I K L L L K K L D tX6.6.6.6.6.6.6.6.t.5.X.X.=.*.( %.%.@.@.%.%.%.#.<.cXcXcXcXcXDXcXvXcXcXkX$.;.;.5.6.6.6.5.;.;.<.,.<.9XGXHXHXGXGXGXGXGXGXGXGXGXGXGXGXGXGXGXGXGXGXGXHXGXGXGXHXHXkXkXkXi.O.5.O.t.e.9.e.e.r.lX;.W &.&.#.#.%.%.#.#.@.%.@.@.*.^ #.$.I K L L L L L L L J K K K K K K K K K K K K J K H r m y ..0.4.0.0.0.4.i.6.6.6.o.W =.&.%.%.%.%.%.%.%.%.%.%.%.%.%.%.*.*.=.*.#.@.*.-.-.*.*.*.#.#.#.*.*.%.&.&.&.) ) ) ) ) ) ) &.&.%.@.%.%.%.%.%.%.%.%.%.%.%.%.%.%.%.%.%.%.%.%.%.%.%.%.%.%.%.%.%.%.%.%.%.%.%.%.%.%.%.%.%.%.%.%.%.%.%.%.%.%.%.%.%.%.%.%.%.%.%.%.%.%.%.%.%.%.%.%.%.%.%.%.%.%.%.%.%.%.%.%.%.%.%.%.%.%.%.%.%.%.%.%.%.%.%.%.%.%.%.%.%.%.%.%.%.%.%.%.%.%.%.%.%.%.%.%.%.%.%.%.%.%.%.%.%.%.%.%.%.%.%.%.%.%.%.%.%.%.%.%.%.%.%.%.%.%.%.%.%.%.%.%.%.%.%.%.%.%.%.%.%.%.%.%.%.%.%.%.%.%.%.%.%.%.%.%.%.%.%.%.%.%.%.%.%.%.%.%.%.%.%.%.%.%.%.%.$. .+ 4 # s d f f # * * 6 5 5 5 5 5 5 < = * , < 5 5 1 = 4 O  .,.( &.( %.#.%.&.%.%.%.*.&.&.%.%.%.%.%.%.%.%.%.%.%.%.%.%.%.%.%.%.%.%.%.%.%.%.%.%.%.%.%.%.%.%.*.%.%.&.&.&.*.*.-.-.tX6.6.t.6.t.+.+.4.5.-.Q ^ _ =.^ Q -.5.4.+.5.6.6.6.;.;.;.X.@.*.>.=.=.! wXtX6.5.;.5.5.%.W &.&.&.&.=.=.( &.%.%.^ *._ >.^ X.6.6.6.;.X.@.=.=._ %.%.%.%.%.%.%.%.%.%.%.%.%.%.%.%.%.%.%.%.%.%.%.%.%.%.%.%.%.%.%.%.%.%.%.%.%.%.%.%.%.%.%.%.%.%.%.%.*.>.*.,.;.;.-./ _ >.>.>.=.>.>.#.@.;.5.;.5.Q =.( &.&.%.*.*.&.&.%.%.%.%.%.%.%.%.%.%.%.%.%.%.%.%.%.%.( =.( &.*.%.*.Q U R  .v m n m x c c ",
"x m z z n n l m q w L | @.@.%.^ W W W ^ %.^ ^ %.%.%.%.%.&.&._ _ %.%.%.%.%.%.%.%.%.%.%.%.%.%.%.%.%.%.%.%.%.%.%.%.%.%.%.%.%.%.%.%.%.%.%.%.%.%.%.%.%.%.%.%.%.%.%.%.%.%.%.%.%.%.%.%.%.%.%.%.%.%.%.%.%.%.%.%.%.%.%.%.%.%.%.%.%.%.%.%.%.%.%.%.%.%.%.%.%.%.%.%.%.%.%.%.%.%.%.%.%.%.%.%.%.%.%.%.%.%.%.%.%.%.%.%.%.%.%.%.%.%.%.%.%.%.%.%.%.%.&.&.&.%.@.@.^ *.( ) =.%.^ *.2.2.1.1.2.2.>.=.! ! ! / / / Q Q Q @.W Q ( =.&.&.%.%.%.@.%.%.%.` ~ [ ~ ~ ~ ~ ~ ~ ~ ~ 8.;.jXt.lX+.P P +.u.a.lXxXcXcXcXPXHXHXGXGXGXGXGXGXGXGXGXGXGXGXGXGXGXGXGXGXGXGXGXGXHXHXGXvXvXxXxXi.a.w.a.a.y.u.e.w.jX;.Q &.%.*.#.%.%.*.*.%.%.( &.&.) 1.1.( =.>.2.2.2.2.2.2.2.2.2.2.2.2.2.2.2.1.1.=.=.-.,.| G c q v w 0 q 0 0 q K / / ^ ( -.>.*.%.%.%.%.%.%.%.%.%.%.%.%.%.%.&.( =._ ) ( ( ) ) ) ) ( ( ) ) ) ( ^ @.@.@.@.%.%.*.&.&.&.&.&.%.%.%.%.%.%.%.%.%.%.%.%.%.%.%.%.%.%.%.%.%.) ) ) ) &.&.&.&.&.&.&.&.&.&.%.%.%.%.%.%.%.%.%.%.%.%.%.%.%.%.%.%.%.%.%.%.%.%.%.%.%.%.%.%.%.%.%.%.%.%.%.%.%.%.%.%.%.%.%.%.%.%.%.%.%.%.%.%.%.%.%.%.%.%.%.%.%.%.%.%.%.%.%.%.%.%.%.%.%.%.%.%.%.%.%.%.%.%.%.%.%.%.%.%.%.%.%.%.%.%.%.%.%.%.%.%.%.%.%.%.%.%.%.%.%.%.%.%.%.%.%.%.%.%.%.%.%.%.%.%.%.%.%.%.%.%.%.%.%.%.%.%.%.%.%.%.%.%.%.%.%.%.%.%.%.%.%.%.%.%.%.%.%.%.%.%.%.:. .+ 4 3 V C.C.V 2 * % 6 5 5 5 5 5 5 < = * , < 5 5 1 = 4 O  .,.( &.( %.#.%.&.%.%.%.*.&.&.%.%.%.%.%.%.%.%.%.%.%.%.%.%.%.%.%.%.%.%.%.%.%.%.%.%.%.%.%.%.%.%.*.%.%.&.&.&._ _ ( Q ^ ~ P Q U U ;.jXa.lX6.X.>.=.*.-.Q 5.jXlXjX;.Y Y +.u.a.lXO.@./ *.( &.~ ( W P +.u.u.lX;.@.*._ %.%.&.&.) ) ( %.@.*.( >.) W -.W %.@.( =.=.=.@.@.%.%.%.%.%.%.%.%.%.%.%.%.%.%.%.%.%.%.%.%.%.%.%.%.%.%.%.%.%.%.%.%.%.%.%.%.%.%.%.%.%.%.%.%.%.%.%.%.W ~ r.a.a.u.X.-.( ) ( ! ^ @.^ Q t.lXjXjXX.( ( =.) ) *.*.&.&.@.@.%.%.%.%.%.%.%.%.%.%.%.%.%.%.%.%.( &.&.=.) @.$.I w r M e b x x x c c ",
"z m z z n n l l M t I ,.-.*.-.^ -.%.*.-.%.%.%.%.&.&.%.%.*.%.*.*.%.%.%.%.%.%.%.%.%.%.%.%.%.%.%.%.%.%.%.%.%.%.%.%.%.%.%.%.%.%.%.%.%.%.%.%.%.%.%.%.%.%.%.%.%.%.%.%.%.%.%.%.%.%.%.%.%.%.%.%.%.%.%.%.%.%.%.%.%.%.%.%.%.%.%.%.%.%.%.%.%.%.%.%.%.%.%.%.%.%.%.%.%.%.%.%.%.%.%.%.%.%.%.%.%.%.%.%.%.%.%.%.%.%.%.%.%.%.%.%.%.%.%.%.%.%.%.%.@.%.&.&.&.&.%.%.@.-.( ( &.=.) =.) ) ! ! ( ) ( ( *.=.>.>._ _ =.=./ _ _ _ =.=.( &.%.%.%.%.%.%.%.%.-.@.W *.-.%.=.&.=.=.8.+.xXu.lXF ^ ~ +.a.a.w.xXvXvXcXGXHXGXGXGXGXGXGXGXGXGXGXGXGXGXGXGXGXGXGXGXGXGXGXGXGXHXGXvXvXvXxXw.a.9.r.e.y.u.e.w.lX;.Q &.%.*.#.&.&.*.*.%.%.@.*.%.( *.*.%.-.^ ^ ^ ( ( ( ^ ^ ( ( ( ) ) ) ) ) =.) ) ) -.,.} w J n N N B N N N q | ,._ ( &.@.X.%.%.%.%.%.%.%.%.%.%.%.%.%.%.%.%.W -.@.@.-.%.%.%.@.@.@.%.&.&.%.&.=.=.-.*.-.*.@.@.@.@.%.&.%.&.&.&.%.%.%.%.%.%.%.%.%.%.%.%.%.%.%.%.&.%.) ) ) ) &.&.( ( ( ( ( ( ( ( %.%.%.%.%.%.%.%.%.%.%.%.%.%.%.%.%.%.%.%.%.%.%.%.%.%.%.%.%.%.%.%.%.%.%.%.%.%.%.%.%.%.%.%.%.%.%.%.%.%.%.%.%.%.%.%.%.%.%.%.%.%.%.%.%.%.%.%.%.%.%.%.%.%.%.%.%.%.%.%.%.%.%.%.%.%.%.%.%.%.%.%.%.%.%.%.%.%.%.%.%.%.%.%.%.%.%.%.%.%.%.%.%.%.%.%.%.%.%.%.%.%.%.%.%.%.%.%.%.%.%.%.%.%.%.%.%.%.%.%.%.%.%.%.%.%.%.%.%.%.%.%.%.%.%.%.%.%.%.%.*.%.( :. .+ 4 ; g C.C.V : % % 6 5 5 5 5 5 5 < = = , < 5 5 1 = 4 O  .,.( &.( %.*.%.&.%.%.%.*.&.&.%.%.%.%.%.%.%.%.%.%.%.%.%.%.%.%.%.%.%.%.%.%.%.%.%.%.%.%.%.%.%.*.*.*.%.%.%.%.%.*.>.( -.( ( >._ ^ P jXy.u.5.P &.) ( =.P 6.lXa.jXP =.~ +.a.a.lXO.W ' ] _ 2.*.>.=.Q 8.a.a.xX;.W _ >.*.*.&.&.) ) %.@.%.%.W -.( ^ -./ / _ *.&.%.%.%.%.%.%.%.%.%.%.%.%.%.%.%.%.%.%.%.%.%.%.%.%.%.%.%.%.%.%.%.%.%.%.%.%.%.%.%.%.%.%.%.%.%.%.%.%.%.%.%.*.4XU t.y.e.i.U ' ] ] &.&.&.&.) Q 5.a.u.jXX.Q ( =.) ) *.*.&.%.@.@.%.%.%.%.%.%.%.%.%.%.%.%.%.%.%.%.%.%.*.-.^ #.:.L r b N b N n x x c c ",
"z m c z z x x x v t I ,.>.>.2.>.>.-.-.-.^ &.=.&.) ) &.%.@.%.*.*.%.%.%.%.%.%.%.%.%.%.%.%.%.%.%.%.%.%.%.%.%.%.%.%.%.%.%.%.%.%.%.%.%.%.%.%.%.%.%.%.%.%.%.%.%.%.%.%.%.%.%.%.%.%.%.%.%.%.%.%.%.%.%.%.%.%.%.%.%.%.%.%.%.%.%.%.%.%.%.%.%.%.%.%.%.%.%.%.%.%.%.%.%.%.%.%.%.%.%.%.%.%.%.%.%.%.%.%.%.%.%.%.%.%.%.%.%.%.%.%.%.%.%.%.%.%.%.%.@.@.%.&.&.) &.&.^ -.%.^ ( &.&.( -.*.%.%.*.*.-.-.@.o.@.%.@.@.%.*.-.=.*.*.-.%.@.*.#.*.*.*.%.&.&.%.@.W W =.( ! 1.! ! ~ ~ ;.jXt.jXO.~ 8.O.t.t.i.kXhXhXvXGXDXGXGXHXHXGXGXGXGXGXGXGXGXGXGXGXGXHXGXGXGXGXGXGXGXHXGXvXvXxXkXi.r.9.q.q.r.u.e.r.lX;.Q &.%.*.*.&.&.*.*.%.%.%.-.*.%.%.^ @.%.@.@.@.@.%.%.%.%.@.$.#.#.#.#.$.$.$.@.@.W $.$.I t q r t q r r r r w I #.( ! ) %.@.%.%.%.%.%.%.%.%.%.%.%.%.%.%.%.&.! 1.! ) 1.) 1.) 2.2.2.2.2.2.2.2.] =._ _ =.] ( ^ @.@.%.&.%.%.*.*.%.%.%.%.%.%.%.%.%.%.%.%.%.%.%.%.%.%.%.%.%.%.%.%.%.%.%.%.( %.%.%.%.%.%.%.%.%.%.%.%.%.%.%.%.%.%.%.%.%.%.%.%.%.%.%.%.%.%.%.%.%.%.%.%.%.%.%.%.%.%.%.%.%.%.%.%.%.%.%.%.%.%.%.%.%.%.%.%.%.%.%.%.%.%.%.%.%.%.%.%.%.%.%.%.%.%.%.%.%.%.%.%.%.%.%.%.%.%.%.%.%.%.%.%.%.%.%.%.%.%.%.%.%.%.%.%.%.%.%.%.%.%.%.%.%.%.%.%.%.%.%.%.%.%.%.%.%.%.%.%.%.%.%.%.%.%.%.%.%.%.%.%.%.%.%.%.%.%.%.%.%.%.%.%.%.%.%.%.%.%.*.*.*.%.<. .+ 4 # V C.C.V 2 = * = 5 5 5 5 5 5 < = = , < 5 5 1 = 4 O  .,.( &.( %.*.%.&.%.%.%.*.&.&.%.%.%.%.%.%.%.%.%.%.%.%.%.%.%.%.%.%.%.%.%.%.%.%.%.%.%.%.%.%.%.%.*.*.%.%.*.*.*.*.@.@.%.%.%.=.^ %.4.xXlXjX6.P Q Q Q W Y 5.jXu.jXO.~ ~ 5.lXlXjX;.~ ! ! ~ %.W *.&.W 5.xXjXjXO.8.~ ! ^ %.%.&.&.&.%.@.%.%.( &.o.( -.*.#.-.%.o.! &.-.*.%.%.%.%.%.%.%.%.%.%.%.%.%.%.%.%.%.%.%.%.%.%.%.%.%.%.%.%.%.%.%.%.%.%.%.%.%.%.%.%.%.%.%.%.%.%.%.%.%.~ u.lXjXt.Q / Q Q Q U R / / Y 6.y.u.t.P W *.( ) %.%.%.&.%.%.%.%.%.%.%.%.%.%.%.%.%.%.%.%.%.%.%.*.%.@.*.^ *.,.I w q M q v c x m x c ",
"z n m z z z n n N v H K L G G G L L L L L U #.@.&.&.%.%.%.%._ _ &.%.%.%.%.%.%.%.%.%.%.%.%.%.%.%.%.%.%.%.%.%.%.%.%.%.%.%.%.%.%.%.%.%.%.%.%.%.%.%.%.%.%.%.%.%.%.%.%.%.%.%.%.%.%.%.%.%.%.%.%.%.%.%.%.%.%.%.%.%.%.%.%.%.%.%.%.%.%.%.%.%.%.%.%.%.%.%.%.%.%.%.%.%.%.%.%.%.%.%.%.%.%.%.%.%.%.%.%.%.%.%.%.%.%.%.%.%.%.%.%.%.%.%.%.%.%.%.@.%.%.&.&.&.) ) ( &.%.%.%.%.%.( ( ( ( ( ` ` _ ) ( &.&.&.&.&.&.*.( W W W W ^ @.*.*.*.*.*.%.%.&.&.=.=.=.=.^ @.#.| cXvXvXhXxXhXxX0.t.4.xXNXNXcXHXHXHXHXPXGXPXGXGXHXGXGXGXGXGXGXGXGXGXGXGXGXHXGXGXGXGXGXGXHXGXGXvXvXcXvXhXxXxXxXvXxXu.e.r.lX;.W &.%.*.*.&.&.*.*.) ) ( =.) =.) ( &.) &.&.&.&.) ) ) ) ( ( ( ^ ( ( @.@.-.=.=.=.) =.%.U R $.$.$.$.$.$.$.| $.>.>.` ` _ >.*.%.%.%.%.%.%.%.%.%.%.%.%.%.%.%.@.$.K H J H K K H H H H H H H H L K L I #.=.( ) %.%.) ) *.#.#.*.%.%.%.%.%.%.%.%.%.%.%.%.%.%.%.%.%.%.%.%.%.%.%.%.%.%.%.%.( ( %.%.%.%.%.%.%.%.%.%.%.%.%.%.%.%.%.%.%.%.%.%.%.%.%.%.%.%.%.%.%.%.%.%.%.%.%.%.%.%.%.%.%.%.%.%.%.%.%.%.%.%.%.%.%.%.%.%.%.%.%.%.%.%.%.%.%.%.%.%.%.%.%.%.%.%.%.%.%.%.%.%.%.%.%.%.%.%.%.%.%.%.%.%.%.%.%.%.%.%.%.%.%.%.%.%.%.%.%.%.%.%.%.%.%.%.%.%.%.%.%.%.%.%.%.%.%.%.%.%.%.%.%.%.%.%.%.%.%.%.%.%.%.%.%.%.%.%.%.%.%.%.%.%.%.%.%.%.%.%.%.*.*.*.( :. .+ 4 $ 2 p a a % - = < 5 5 5 5 5 5 < = = , < 5 5 1 = 4 O  .,.( &.( %.*.%.&.%.%.%.*.&.&.%.%.%.%.%.%.%.%.%.%.%.%.%.%.%.%.%.%.%.%.%.%.%.%.%.%.%.%.%.%.%.%.%.%.) _ *.*.*.*.-.-.*.%.%.^ W @.I { D D 4.t.t.t.t.t.t.6.4.;.4.6.kXt.4.D D H 4.t.t.6.X.-.%.*.=.( ~ ,.@.;.6.t.jXkXQ W &.&.&.%.*.*._ *.%.*.%.%.*.*.@.%.%.%.%.*.*._ %.%.%.%.%.%.%.%.%.%.%.%.%.%.%.%.%.%.%.%.%.%.%.%.%.%.%.%.%.%.%.%.%.%.%.%.%.%.%.%.%.%.%.%.%.%.%.*.2.Q -.;.O.;.6.t.t.q.e.q.e.t.q.q.q.u.u.jXX.@.=./ %.%.%.*.&.&.*.*.%.%.%.%.%.%.%.%.%.%.%.%.%.%.%.&.&.&.^ &.( *.>.Q $.|  .G H c c x x x ",
"z z n n x x x n n l l b l l l l l l l r t } <.$.@.&.%.%.%.&.) ) &.%.%.%.%.%.%.%.%.%.%.%.%.%.%.%.%.%.%.%.%.%.%.%.%.%.%.%.%.%.%.%.%.%.%.%.%.%.%.%.%.%.%.%.%.%.%.%.%.%.%.%.%.%.%.%.%.%.%.%.%.%.%.%.%.%.%.%.%.%.%.%.%.%.%.%.%.%.%.%.%.%.%.%.%.%.%.%.%.%.%.%.%.%.%.%.%.%.%.%.%.%.%.%.%.%.%.%.%.%.%.%.%.%.%.%.%.%.%.%.%.%.%.%.%.%.%.%.%.%.%.%.%.%.%.&.&.( %.*.%.%.%.%.@.@.%.%.*.%.%.%.*.*.*.@.@.@.#.*.-.=.-.%.%.%.%.%.%.%.%.%.%.%.%.%.@.^ ( ^ @.*.*.| cXcXcXcXvXcXxXlXa.u.cXHXGXGXGXHXGXGXGXDXGXGXGXDXHXGXGXGXGXGXGXGXGXGXGXGXGXGXGXGXGXGXGXGXHXGXvXvXvXvXvXvXcXvXvXvXlXe.r.lX;.W &.%.#.*.&.&.*.%.&.%.@.%.@.*.%.@.-.%.@.@.@.@.@.( ( ( &.&.@.@.@.%.%.%.@.@.%.&.) =.=.=.2.1.1.1.&.! &.) &.! &.o.o.&.! =.%.%.%.%.%.%.%.%.%.%.%.%.%.%.&.*.*.$.G r l e l r z b l l l l l l r r e m | >.&.&.@.@.&.&.%.#.*._ %.%.%.%.%.%.%.%.%.%.%.%.%.%.%.%.&.&.&.&.&.&.&.&.&.&.&.&.&.&.&.&.%.%.%.%.%.%.%.%.%.%.%.%.%.%.%.%.%.%.%.%.%.%.%.%.%.%.%.%.%.%.%.%.%.%.%.%.%.%.%.%.%.%.%.%.%.%.%.%.%.%.%.%.%.%.%.%.%.%.%.%.%.%.%.%.%.%.%.%.%.%.%.%.%.%.%.%.%.%.%.%.%.%.%.%.%.%.%.%.%.%.%.%.%.%.%.%.%.%.%.%.%.%.%.%.%.%.%.%.%.%.%.%.%.%.%.%.%.%.%.%.%.%.%.%.%.%.%.%.%.%.%.%.%.%.%.%.%.%.%.%.%.%.%.%.%.%.%.%.%.%.%.%.%.%.%.%.%.%.%.%.&.%.( :. .+ 4 & , 5 5 s % - , 5 5 5 5 5 5 5 < * * , < 5 5 1 = 4 O  .,.( &.( %.#.%.&.%.%.%.*.&.&.%.%.%.%.%.%.%.%.%.%.%.%.%.%.%.%.%.%.%.%.%.%.%.%.%.%.%.%.%.%.%.%.%.%.*.*._ _ _ _ ( &.( ( =._ *.,. .v q u } lXr.p.p.p.lX5.Y Y Q kXlXlX4.u e u 0.a.a.t.} *.%._ _ _ *._ / Y t.a.a.q.Q W ( ) %.%.*._ _ _ *.*.*.*.( ( ( %.*.*.=.*._ _ %.%.%.%.%.%.%.%.%.%.%.%.%.%.%.%.%.%.%.%.%.%.%.%.%.%.%.%.%.%.%.%.%.%.%.%.%.%.%.%.%.%.%.%.%.%.%.&.! ) / _ ~ O.jXy.p.p.y.y.y.y.r.r.q.y.e.jXP ^ >._ %.%.%.%.&.&.%.*.%.%.%.%.%.%.%.%.%.%.%.%.%.%.%.%.&.=.( ) &.&.>.) -.:.| G v z x x x x ",
"n z z M n x x c c c x x x c c c N N m q w I ,.^ ) ) &.%.%.%.%.&.%.%.%.%.%.%.%.%.%.%.%.%.%.%.%.%.%.%.%.%.%.%.%.%.%.%.%.%.%.%.%.%.%.%.%.%.%.%.%.%.%.%.%.%.%.%.%.%.%.%.%.%.%.%.%.%.%.%.%.%.%.%.%.%.%.%.%.%.%.%.%.%.%.%.%.%.%.%.%.%.%.%.%.%.%.%.%.%.%.%.%.%.%.%.%.%.%.%.%.%.%.%.%.%.%.%.%.%.%.%.%.%.%.%.%.%.%.%.%.%.%.%.%.%.%.%.%.&.) ) %.@.@.@.@.%.-.%.%.-.&.( ( ) %.%.&.*.&.( ( ) ) _ ) ( ! ! Q W ( ( ( &.*.*.=.&.&.&.&.%.%.@.@.#._ / ! ( ` ` / U vXvXhXvXhXcXkXu.q.9.xXHXGXGXGXGXGXGXGXDXHXHXHXGXGXGXGXGXGXGXGXGXGXGXGXGXGXGXGXGXGXGXHXHXHXGXvXvXvXvXvXvXvXvXvXvXlXe.p.lX;.W &.&.#.*.&.( ) ) &.&.%.%.W &.&.! =.( &.&.&.%.&.&.&.&.&.&.@.@.@.%.&.&.-.@.@.%.W W ( ) =.^ W @.@.#.>._ >./ _ %.%.-.^ *.%.%.%.%.%.%.%.%.%.%.%.%.%.%.%.&.2.>.G t N b J c c c x x c c n x m m z L #.2.) ) @.@.&.&.@.*._ _ &.%.%.%.%.%.%.%.%.%.%.%.%.%.%.) *.=.=.=.*.*.*.*.=.=.=.=.=.=.=.=.%.%.%.%.%.%.%.%.%.%.%.%.%.%.%.%.%.%.%.%.%.%.%.%.%.%.%.%.%.%.%.%.%.%.%.%.%.%.%.%.%.%.%.%.%.%.%.%.%.%.%.%.%.%.%.%.%.%.%.%.%.%.%.%.%.%.%.%.%.%.%.%.%.%.%.%.%.%.%.%.%.%.%.%.%.%.%.%.%.%.%.%.%.%.%.%.%.%.%.%.%.%.%.%.%.%.%.%.%.%.%.%.%.%.%.%.%.%.%.%.%.%.%.%.%.%.%.%.%.%.%.%.%.%.%.%.%.%.%.%.%.%.%.%.%.%.%.%.%.%.%.%.%.%.%.%.%.%.%.%.&.%.( :. .O 4 & 1 5 < 8 & - = 5 5 5 5 5 5 5 < * * , < 5 5 1 = 4 O  .,.( &.( %.#.%.&.%.%.%.*.&.&.%.%.%.%.%.%.%.%.%.%.%.%.%.%.%.%.%.%.%.%.%.%.%.%.%.%.%.%.%.%.%.*.#.*.*.*.*.*.&.&.o.&.W %.-.^ / #.| G J q } zXw.a.w.i.lX+.~ &.~ jXa.zXhX0 J u u.a.a.6.P / ` / ' / ( ` 6XY u.a.a.u.P / ' ` @.o.&.( &.) ^ ^ =.=.) ( &.&.*.=.*.^ ^ &.%.%.%.%.%.%.%.%.%.%.%.%.%.%.%.%.%.%.%.%.%.%.%.%.%.%.%.%.%.%.%.%.%.%.%.%.%.%.%.%.%.%.%.%.%.%.%.%.Q 2./ 2.W O.zXp.p.p.y.y.r.y.p.p.p.p.a.lX} Q =.=.*.%.*.&.&.&.%.%.%.%.%.%.%.%.%.%.%.%.%.%.%.%.%.%.@.-.( ) -.%.*.=.*.:.| t r b n x x x ",
"x x c x x x x x x x x c x x x x l z I E I U $.@.%.&.%.%.&.&.&.&.%.%.%.%.%.%.%.%.%.%.%.%.%.%.%.%.%.%.%.%.%.%.%.%.%.%.%.%.%.%.%.%.%.%.%.%.%.%.%.%.%.%.%.%.%.%.%.%.%.%.%.%.%.%.%.%.%.%.%.%.%.%.%.%.%.%.%.%.%.%.%.%.%.%.%.%.%.%.%.%.%.%.%.%.%.%.%.%.%.%.%.%.%.%.%.%.%.%.%.%.%.%.%.%.%.%.%.%.%.%.%.%.%.%.%.%.%.%.%.%.%.%.%.%.%.%.%.%.%.%.%.%.%.%.%.%.%.%.%.%.%.%.%.%.@.%.*.%.( *.*.*.*.=.Q / tX| tXQ ^ &.=.%.@.%.) ) #.^ -.=.*.=.*.^ W 6XX.;.-.Y =.U cXcXcXcXvXvXcXcXkXxXcXNXHXHXHXHXGXGXGXGXGXGXGXGXGXDXGXGXGXDXHXHXDXHXDXDXHXDXDXGXGXGXGXDXHXHXvXvXvXvXvXvXvXvXvXcXkX5.kX6.;.X.o.@.*.*.*._ _ _ &.&.%.%.%.%.%.%.%.%.%.%.%.%.%.%.%.*.*._ _ ) &.&.%.%.-.%.W &.W -.W &.%.%.%.%.%.%.%.%.%.%.%.%.%.%.%.%.@.%.%.) ) ) &.%.@.*.=.( ( -.$.I | R K G v z m m z z z z z z z n n x c J  .| U #.=.` ) ) @.@.@.@.%.&.) ) ) ) ( ( ) &.*.*.&.&.) &.) ! 2.=.U $.$./ _ / / $.| U ) 2.=.&.=.&.) ) ) ) ) ) &.&.%.%.%.%.%.%.%.%.%.%.%.%.%.%.%.%.%.%.%.%.%.%.%.%.%.%.%.%.%.%.%.%.%.%.%.%.%.%.%.%.%.%.%.%.%.%.%.%.%.%.%.%.%.%.%.%.%.%.%.%.%.%.%.%.%.%.%.%.%.%.%.%.%.%.%.%.%.%.%.%.%.%.%.%.%.%.%.%.%.%.%.%.%.%.%.%.%.%.%.&.( =.=.) ( ) &.&.%.%.*.*.*.*.*.*.%.%.%.%.%.%.%.%.%.%.%.%.%.%.%.%.%.%.%.%.%.%.%.%.%.%.%.%.%.%.%.%.( =.) ,. .O 4 = 6 5 8 1 * * = 6 5 5 1 5 p 5 < * * = < 1 1 < = 4 O T  .R / 2.( ) &.&.( &.&.%.@.@.%.%.%.%.%.%.%.%.%.%.%.%.%.%.%.%.%.%.%.%.%.%.%.%.%.%.%.%.%.%.%.%.%.%.%.%.%.%.%.%.%.%.%.%.%.%.%.#.<.G t t } kXi.+.r.a.q.6.O.X.6.4.i.i...D w D 4.kXi.4.6.O.o.o.o.;.3.P X.P 6.kX6.kXO.O.5.%./ 2.( %.%.%.%.%.%.%.%.%.%.%.%.%.%.%.%.%.%.%.%.%.%.%.%.%.%.%.%.%.%.%.%.%.%.%.%.%.%.%.%.%.%.%.%.%.%.%.%.%.%.%.%.%.%.%.%.%.%.%.%.%.%.%.%.%.*.*.%.X.X.;.6.jXt.t.t.q.e.e.t.t.t.t.t.6.;.X.X.@.#.*.*.*.%.%.%.%.%.%.%.%.%.%.%.%.%.%.%.%.%.%.%.&.*.*.$.$.#.#.%.%.@.$.| L G K H t x x ",
"x x c x x x x x x x x x x x x c G K :.^ *.*.>.-.&.) %.%.%.%.@.%.%.%.%.%.%.%.%.%.%.%.%.%.%.%.%.%.%.%.%.%.%.%.%.%.%.%.%.%.%.%.%.%.%.%.%.%.%.%.%.%.%.%.%.%.%.%.%.%.%.%.%.%.%.%.%.%.%.%.%.%.%.%.%.%.%.%.%.%.%.%.%.%.%.%.%.%.%.%.%.%.%.%.%.%.%.%.%.%.%.%.%.%.%.%.%.%.%.%.%.%.%.%.%.%.%.%.%.%.%.%.%.%.%.%.%.%.%.%.%.%.%.%.%.%.%.%.%.%.%.%.%.%.%.%.%.%.%.%.%.%.%.%.%.%.( &.*.( ( *.*.#.^ #.W qXLXGXLXhX| @.*.%.@.%.` ) %.%.=.( ! ( =.-.O.jXa.lX6.X.-.I GXHXPXPXGXGXGXGXGXGXGXGXGXPXGXGXGXHXHXHXHXHXHXHXGXHXGXHXcXvXvXhXhXvXhXvXvXhXvXDXGXGXGXGXGXGXvXvXvXvXvXcXcXvXvXcXtXP X.X.W ^ >.>.*.*.*.*.&.&.%.%.%.%.%.%.%.%.%.%.%.%.%.%.%.%.%.*.#.*.) ) &.&.%.%.W ( ) 2._ >._ =.&.%.%.%.%.%.%.%.%.%.%.%.%.%.%.%.%.%.%.&.&.&.%.%.%.&.=.) %.#.} D v v v z l l l l n m m c c c m m z z z z m v w I :.#.@.%.@.@.@.@.%.&.&.&.) ) ( ( ) &.*.*.%.&.) %.@.| $.I y r r e l l l b r t K $.@.^ @.@.@.%.*.*.%.%.%.%.&.&.&.&.&.%.%.%.%.%.%.%.%.%.%.%.%.%.%.%.%.%.%.%.%.%.%.%.%.%.%.%.%.%.%.%.%.%.%.%.%.%.%.%.%.%.%.%.%.%.%.%.%.%.%.%.%.%.%.%.%.%.%.%.%.%.%.%.%.%.%.%.%.%.%.%.%.%.%.%.%.%.%.%.%.%.%.%.%.%.%.%.%.%.%.%.%.%.%.%.W @.@.@.%.*.%.%.%.%.&.&.&.&.&.&.%.%.%.%.%.%.%.%.%.%.%.%.%.%.%.%.%.%.%.%.%.%.%.%.%.%.%.%.%.%.%.@.@.@.Q :.{ O = > 1 5 8 5 , = , < 5 5 1 5 5 5 < * * = < 5 5 < = %   b b w L $.@.-.@.@.%.) &.&.&.%.%.%.%.%.%.%.%.%.%.%.%.%.%.%.%.%.%.%.%.%.%.%.%.%.%.%.%.%.%.%.%.%.%.%.%.%.%.%.%.%.%.%.%.%.%.%.%.#.| G c l q j 0 u kXkXu.a.a.lXw.y u l k k l l r q u { lXlXa.a.a.lXt.P -.@.@.Q Y P lXu.lX4.X.-.W o.%.%.%.%.%.%.%.%.%.%.%.%.%.%.%.%.%.%.%.%.%.%.%.%.%.%.%.%.%.%.%.%.%.%.%.%.%.%.%.%.%.%.%.%.%.%.%.%.%.%.%.%.%.%.%.%.%.%.%.%.%.%.%.*._ >.>.>._ / Q / Q Q Q / / / / / Q / ^ ^ ^ _ =.>._ _ _ &.&.&.o.&.%.%.%.%.%.%.%.%.%.%.%.%.%.%.%.&.) ) ) ) ) ) ) ) =.=.=.( ^ :.I v z x ",
"x x x x x x x x x x x x x x x c t L >.=.=.&.*.^ ) ) %.%.%.@.@.@.%.%.%.%.%.%.%.%.%.%.%.%.%.%.%.%.%.%.%.%.%.%.%.%.%.%.%.%.%.%.%.%.%.%.%.%.%.%.%.%.%.%.%.%.%.%.%.%.%.%.%.%.%.%.%.%.%.%.%.%.%.%.%.%.%.%.%.%.%.%.%.%.%.%.%.%.%.%.%.%.%.%.%.%.%.%.%.%.%.%.%.%.%.%.%.%.%.%.%.%.%.%.%.%.%.%.%.%.%.%.%.%.%.%.%.%.%.%.%.%.%.%.%.%.%.%.%.%.%.%.%.%.%.%.%.%.%.%.%.%.%.%.%.%.%.&.*.@.%.*.&.) &.&.Y ,.LXPXPX..@.( ) ) ) ) ) ) Q %.&.1.%.@.@.X.O.jXa.jX5.~ _ | HXHXDXDXGXGXGXGXGXGXGXGXGXGXGXGXHXHXHXGXHXGXGXGXGXGXGXGXcXvXvXvXvXcXvXvXvXvXcXHXGXGXGXGXGXHXvXvXvXvXvXvXvXvXvXcXtXU / / =.=.>._ *.*.%.%.%.%.%.%.%.%.%.%.%.%.%.%.%.%.%.%.%.%.%.%.#.#.&.&.&.*.*._ _ =._ >.Q / ` =.*.%.%.%.%.%.%.%.%.%.%.%.%.%.%.%.&.&.%.%.%.%.%.%.&.) ) ) *.$.K q z n n n n n n n x z z z x x x x n n n l n z t } :.*.` ` ) ) ) ) &.&.&.&.%.%.%.%.) &.*.&.%.&.&.*.` _ ,.| G z n b l z z z t G U ,.` ` =.=.( &.=.( &.&.%.%.%.&.&.&.%.%.%.%.%.%.%.%.%.%.%.%.%.%.%.%.%.%.%.%.%.%.%.%.%.%.%.%.%.%.%.%.%.%.%.%.%.%.%.%.%.%.%.%.%.%.%.%.%.%.%.%.%.%.%.%.%.%.%.%.%.%.%.%.%.%.%.%.%.%.%.%.%.%.%.%.%.%.%.%.%.%.%.%.%.%.%.%.%.%.%.%.%.%.%.&.=.=.) ) =.` ( ( ) ) ) ) &.&.%.%.%.%.%.%.%.%.%.%.%.%.%.%.%.%.%.%.%.%.%.%.%.%.%.%.%.%.%.%.%.%.%.%.&.&.1.3. .+ % & 1 5 5 6 , > > 2 5 5 1 5 5 5 < , * , < 5 5 < , = X k b v L ,.#.-.@.%.%.) &.&.%.%.%.%.%.%.%.%.%.%.%.%.%.%.%.%.%.%.%.%.%.%.%.%.%.%.%.%.%.%.%.%.%.%.%.%.%.%.%.%.%.%.%.%.%.%.%.%.%.@.| D t J B B z y lXe.9.9.9.lXkXy y m z z J J m c u { xXa.9.9.e.u.kX~ W ] _ ' >.-.lXu.lX+.P *.^ -.*.%.%.%.%.%.%.%.%.%.%.%.%.%.%.%.%.%.%.%.%.%.%.%.%.%.%.%.%.%.%.%.%.%.%.%.%.%.%.%.%.%.%.%.%.%.%.%.%.%.%.%.%.%.%.%.%.%.%.%.%.%.%.%.@.%.%.%.&.%.&.&.=.=.=.=.=.=.] =.` ' / _ _ _ &.) &.&.&.&.%.%.%.%.%.%.%.%.%.%.%.%.%.%.%.%.%.%.%.%.@.@.@.%.%.%.@.@.@.( ] ) 2.,.I w z x ",
"x x x x x x x x x x x x x x x c t L ,.*.*.^ *.^ &.&.%.%.%.%.%.%.%.%.%.%.%.%.%.%.%.%.%.%.%.%.%.%.%.%.%.%.%.%.%.%.%.%.%.%.%.%.%.%.%.%.%.%.%.%.%.%.%.%.%.%.%.%.%.%.%.%.%.%.%.%.%.%.%.%.%.%.%.%.%.%.%.%.%.%.%.%.%.%.%.%.%.%.%.%.%.%.%.%.%.%.%.%.%.%.%.%.%.%.%.%.%.%.%.%.%.%.%.%.%.%.%.%.%.%.%.%.%.%.%.%.%.%.%.%.%.%.%.%.%.%.%.%.%.%.%.%.%.%.%.%.%.%.%.%.%.%.%.%.%.%.@.%.#.@.@.*.) ( Q W Y <.GXGXGX<.Y ~ ~ ~ ~ ~ ~ Y Q ^ ~ ] =.=.&.o.O.t.jXu.5.~ P I LXLXPXPXPXGXGXGXHXHXHXHXHXHXHXHXHXHXHXGXGXGXPXGXDXDXGXDXvXhXhXhXhXvXvXvXvXhXvXDXGXGXGXDXGXDXvXvXvXvXvXvXvXvXvXcXtXY *.=.=.=.( ! &.&.%.%.%.%.%.*.%.%.%.%.%.%.%.%.%.%.%.%.%.%.%.%.#.%.&.) *.*.*.*.=.=.~ %.Q X.%./ %.%.%.%.%.%.%.%.%.%.%.%.%.%.%.&.&.&.%.%.@.@.%.%.&.) ) &.*.$.{ t r l r r r r r r l l l l l l l l r r r r r r w K $.*.) ) ) %.@.@.%.&.&.&.&.%.%.%.) &.&.&.%.&.&.=.2.>.,.| G v z z H G H G v G R ,.>.=.>.=.( =.1.) ) ) %.%.@.@.%.%.%.%.%.%.%.%.%.%.%.%.%.%.%.%.%.%.%.%.%.%.%.%.%.%.%.%.%.%.%.%.%.%.%.%.%.%.%.%.%.%.%.%.%.%.%.%.%.%.%.%.%.%.%.%.%.%.%.%.%.%.%.%.%.%.%.%.%.%.%.%.%.%.%.%.%.%.%.%.%.%.%.%.%.%.%.%.%.%.%.%.%.%.%.%.%.*.=.2.=.=.=._ ) 2.) ) ) &.%.%.@.%.%.%.%.%.%.%.%.%.%.%.%.%.%.%.%.%.%.%.%.%.%.%.%.%.%.%.%.%.%.%.%.&.2.) >.4X .0 7 = 6 5 5 5 2 2 > 2 5 5 5 5 5 5 1 2 , 2 1 1 1 < , = 4 b N c I 6X^ ( %.&.&.&.%.@.%.%.%.%.%.%.%.%.%.%.%.%.%.%.%.%.%.%.%.%.%.%.%.%.%.%.%.%.%.%.%.%.%.%.%.%.%.%.%.%.%.%.%.%.%.%.%.%.%.$.| w q x b b y y zXzXa.zXa.xXxX{ v N B x z z z c t ..xXa.p.p.s.lXt.X.~ Q Q Q Q P jXe.jX+.Q ` _ >.*.%.%.%.%.%.%.%.%.%.%.%.%.%.%.%.%.%.%.%.%.%.%.%.%.%.%.%.%.%.%.%.%.%.%.%.%.%.%.%.%.%.%.%.%.%.%.%.%.%.%.%.%.%.%.%.%.%.%.%.%.%.%.%.%.%.^ ^ ^ &.-.-.%.%.@.@.o.o.o.o.=.&.&.%.%.%.o.! o.%.%.%.%.*.*.*.*.%.%.%.%.%.%.%.%.%.%.%.%.%.%.%.@.@.&.) ) &.%.%.%.&.=.( >.:.K v c x ",
"x x x x x x x x x x x x x c x x z J ,.#.^ ^ *.*.%.%.%.%.&.&.&.%.%.%.%.%.%.%.%.%.%.%.%.%.%.%.%.%.%.%.%.%.%.%.%.%.%.%.%.%.%.%.%.%.%.%.%.%.%.%.%.%.%.%.%.%.%.%.%.%.%.%.%.%.%.%.%.%.%.%.%.%.%.%.%.%.%.%.%.%.%.%.%.%.%.%.%.%.%.%.%.%.%.%.%.%.%.%.%.%.%.%.%.%.%.%.%.%.%.%.%.%.%.%.%.%.%.%.%.%.%.%.%.%.%.%.%.%.%.%.%.%.%.%.%.%.%.%.%.%.%.%.%.%.%.%.%.%.%.%.%.%.%.%.%.%.%.*.*.%.@.*.@.@.tXvXtXhXGXGXGXcXcXcXcXcXcXcXcXcXcXcX/ ( %.%.( W X.;.5.5.6.q.i.i.,.4X<.tXxXxXxXHXHXGXHXGXGXGXHXHXHXDXcXcXcXHXGXGXGXGXGXGXHXDXDXHXHXDXDXDXDXDXDXGXGXGXHXGXGXGXDXDXDXDXDXDXDXDXDXGXcXU @.@.W ! &.&.%.%.%.%.*.*.*.*.%.%.%.%.%.%.%.%.%.%.%.%.%.%.%.%.*.&.&.&.*.*.%.%.( %.Q 6.6.6.6.Q %.%.%.%.%.%.%.%.%.%.%.%.%.%.%.%.%.%.@.%.%.%.%.%.@.^ &.( %.*.$.Y | U R R R R | | U U U U U U I U | | $.U | | U #.-.&.) ( @.@.@.@.%.&.%.%.&.&.&.&.%.&.&.&.) &.*.:.L G K H z z n n n x x x l l H K K K K K L U #.%.&.&.%.%.@.%.&.&.%.%.%.%.%.%.%.%.%.%.%.%.%.%.%.%.%.%.%.%.%.%.%.%.%.%.%.%.%.%.%.%.%.%.%.%.%.%.%.%.%.%.%.%.%.%.%.%.%.%.%.%.%.%.%.%.%.%.%.%.%.%.%.%.%.%.%.%.%.%.%.%.%.%.%.%.%.%.%.%.%.%.%.%.%.%.%.%.%.%.%.%.%.%.%.$.L K J K K L I ,.#.*.*.*.%.%.%.%.%.%.%.%.%.%.%.%.%.%.%.%.%.%.%.%.%.%.%.%.%.%.%.%.%.%.%.%.&.%.%.#.<.G q k k % 6 6 , < , < 2 < 1 5 5 5 5 5 5 5 1 1 1 1 2 , , 2 1 5 * 8 8 7 w <.^ @.@.@.&.&.@.@.&.&.%.%.%.%.%.%.%.%.%.%.%.%.%.%.%.%.%.%.%.%.%.%.%.%.%.%.%.%.%.%.%.%.%.%.%.%.%.%.%.%.%.%.%.%.%.%.%.#.:.R | | K l x z { { { { { { { w y t m M M n z n l z { { { { { H } i.kXt.t.t.t.t.y.y.lX5.Q =./ _ *.%.%.%.%.%.%.%.%.%.%.%.%.%.%.%.%.%.%.%.%.%.%.%.%.%.%.%.%.%.%.%.%.%.%.%.%.%.%.%.%.%.%.%.%.%.%.%.%.%.%.%.%.%.%.%.%.%.%.%.%.%.%.&.=.) _ ` =._ / / _ _ *.*.*.*.*.*.^ ^ ^ ^ %.*.*.*.*.*.*.*.%.%.%.%.%.%.%.%.%.%.%.%.%.%.%.%.%.%.%.%.%.%.%.&._ _ &.&.%.#.$.L K K G c c x ",
"x x x x x x x x x x x x x x x c r L ,._ ) W %.^ %.%.%.%.&.&.%.%.%.%.%.%.%.%.%.%.%.%.%.%.%.%.%.%.%.%.%.%.%.%.%.%.%.%.%.%.%.%.%.%.%.%.%.%.%.%.%.%.%.%.%.%.%.%.%.%.%.%.%.%.%.%.%.%.%.%.%.%.%.%.%.%.%.%.%.%.%.%.%.%.%.%.%.%.%.%.%.%.%.%.%.%.%.%.%.%.%.%.%.%.%.%.%.%.%.%.%.%.%.%.%.%.%.%.%.%.%.%.%.%.%.%.%.%.%.%.%.%.%.%.%.%.%.%.%.%.%.%.%.%.%.%.%.%.%.%.%.%.%.%.%.*._ _ ) ) %.*.@.| cXcXcXcXPXHXGXGXPXPXPXPXPXPXPXPXLXHX| @.$.>.>.>.>.' Q Y 7.u.a.lX~ ~ ~ 7.r.9.9.cXHXGXHXGXGXGXGXGXGXDXvXhXvXDXHXGXGXGXGXGXGXGXGXGXGXGXGXGXGXGXGXGXGXGXGXGXGXGXGXGXGXGXGXGXGXGXGXPXDXU $.#.^ *.( &.%.%.%.%.&.&.%.%.%.%.%.%.%.%.%.%.%.%.%.%.%.%.%.*.*._ &.&.*.*.%.%.%.-.X.kXlXlXkXX.@.%.%.%.%.%.%.%.%.%.%.%.%.%.%.%.%.%.@.%.%.&.%.%.@.@.@.( ( =.-.*.=.1.1.1.1.1.1.1.2.2.2.2.2.2.2.2.2.1.2.1.2.2.&.=.=.&.) ) ) ) ) ) &.&.&.%.&.&.&.&.%.%.&.( ) &.=.$.G r n z l n x c H c c n n l z x l r r r r K $.^ %.&.%.%.@.%.&.&.&.%.%.%.%.%.%.%.%.%.%.%.%.%.%.%.%.%.%.%.%.%.%.%.%.%.%.%.%.%.%.%.%.%.%.%.%.%.%.%.%.%.%.%.%.%.%.%.%.%.%.%.%.%.%.%.%.%.%.%.%.%.%.%.%.%.%.%.%.%.%.%.%.%.%.%.%.%.%.%.%.%.%.%.%.%.%.%.%.%.%.%.%.%.%.$.q l r r r w G | $.#.*.*.*._ &.&.%.%.%.%.%.%.%.%.%.%.%.%.%.%.%.%.%.%.%.%.%.%.%.%.%.%.%.%.&.&.%.$.4X0 o . 3 3 5 5 , = > , 1 5 5 5 p p 5 5 5 5 1 5 p 1 2 > , 2 5 5 9 & . o 0 4X$.*.@.%.&.&.@.@.&.) &.%.%.%.%.%.%.%.%.%.%.%.%.%.%.%.%.%.%.%.%.%.%.%.%.%.%.%.%.%.%.%.%.%.%.%.%.%.%.%.%.%.%.%.%.%.%.&.) ) 1.,.I D J c v l q j j j j c m z x x z N n N J v v q j q j q y lXlXr.p.p.r.p.r.e.lX4.P =.^ %.%.%.%.%.%.%.%.%.%.%.%.%.%.%.%.%.%.%.%.%.%.%.%.%.%.%.%.%.%.%.%.%.%.%.%.%.%.%.%.%.%.%.%.%.%.%.%.%.%.%.%.%.%.%.%.%.%.%.%.%.%.%.%.%.o.o.&.%.&.&.%.%.&.&.*.*.*.*.*.*.%.%.-.*.*._ *.=.*.*.*._ ) ) ) ) &.%.%.%.%.%.%.%.%.%.%.%.%.%.%.%.%.%.*.#.*.*._ *.^ :. .v r l l c x x ",
"x x x x c x x x x x x x x x x c t L ,.=.1.) =.@.%.%.%.%.&.&.%.%.%.%.%.%.%.%.%.%.%.%.%.%.%.%.%.%.%.%.%.%.%.%.%.%.%.%.%.%.%.%.%.%.%.%.%.%.%.%.%.%.%.%.%.%.%.%.%.%.%.%.%.%.%.%.%.%.%.%.%.%.%.%.%.%.%.%.%.%.%.%.%.%.%.%.%.%.%.%.%.%.%.%.%.%.%.%.%.%.%.%.%.%.%.%.%.%.%.%.%.%.%.%.%.%.%.%.%.%.%.%.%.%.%.%.%.%.%.%.%.%.%.%.%.%.%.%.%.%.%.%.%.%.%.%.%.%.%.%.%.%.%.%.%.*.*.*.) ( *.=.( U vXcXvXcXPXHXGXGXGXGXGXHXGXGXGXHXGXHXU ` ( ( ! ~ ! ! W ~ 6.lXe.u.X.( W 5.lXi.0.NXHXGXHXHXHXGXGXGXGXDXvXhXvXDXGXGXGXGXGXGXGXGXGXGXGXGXGXGXGXGXGXGXGXGXGXGXGXGXGXGXGXGXHXHXHXHXHXGXcXY @.#.*.=./ _ *.*.%.%.%.%.@.%.%.%.%.%.%.%.%.%.%.%.%.%.%.%.%.*.&.&.%.%.#.*.%.&.( o.P t.y.y.t.P %.%.%.%.%.%.%.%.%.%.%.%.%.%.%.%.&.%.%.%.%.&.%.%.@.@.%.( ( *.=.-.@.@.@.%.%.%.^ W @.@.@.@.^ ( ( ^ @.W @.@.@.@.U @.#.#.@.@.@.@.%.) &.&.( ( ( ) ) &.&.&.&.) ( &.=.:.G r z z z z z z c z c x x x l z N x M M t I <.*.&.&.%.%.@.%.&.) &.%.%.%.%.%.%.%.%.%.%.%.%.%.%.%.%.%.%.%.%.%.%.%.%.%.%.%.%.%.%.%.%.%.%.%.%.%.%.%.%.%.%.%.%.%.%.%.%.%.%.%.%.%.%.%.%.%.%.%.%.%.%.%.%.%.%.%.%.%.%.%.%.%.%.%.%.%.%.%.%.%.%.%.%.%.%.%.%.%.%.%.&.%.%.$.v n b n m t L <.#.*.*.*.%.%.%.&.%.%.%.%.%.%.%.%.%.%.%.%.%.%.%.%.%.%.%.%.%.%.%.%.%.%.%.%.&.&.&.#.9X0 % & p s s p , = = , 5 5 5 5 p p 5 5 5 1 5 p p 5 2 > = < 5 p s > - X q qX*.=.&.&.&.&.@.@.%.&.&.%.%.%.%.%.%.%.%.%.%.%.%.%.%.%.%.%.%.%.%.%.%.%.%.%.%.%.%.%.%.%.%.%.%.%.%.%.%.%.%.%.%.%.%.%.%.*.>._ / $.K q z r r M n n n l l N z r x x x n r r l l n x N n N r { xXlXu.p.p.y.y.y.u.lX5.Q =.) *.%.%.%.%.%.%.%.%.%.%.%.%.%.%.%.%.%.%.%.%.%.%.%.%.%.%.%.%.%.%.%.%.%.%.%.%.%.%.%.%.%.%.%.%.%.%.%.%.%.%.%.%.%.%.%.%.%.%.%.%.%.%.%.*.*.#.^ ^ / ^ @.%.%.%.%.%.%.%.%.&.W ! ! ! o.%.%.&.%.%.&.&.&.) ) &.&.%.%.%.%.%.%.%.%.%.%.%.%.%.%.&.) ) ) ) &.) ) ) 1.>.| G z c c J c x ",
"x x x x c x x x x x x x x c x x r H :._ =.) *.@.@.@.@.%.&.&.%.%.%.%.%.%.%.%.%.%.%.%.%.%.%.%.%.%.%.%.%.%.%.%.%.%.%.%.%.%.%.%.%.%.%.%.%.%.%.%.%.%.%.%.%.%.%.%.%.%.%.%.%.%.%.%.%.%.%.%.%.%.%.%.%.%.%.%.%.%.%.%.%.%.%.%.%.%.%.%.%.%.%.%.%.%.%.%.%.%.%.%.%.%.%.%.%.%.%.%.%.%.%.%.%.%.%.%.%.%.%.%.%.%.%.%.%.%.%.%.%.%.%.%.%.%.%.%.%.%.%.%.%.%.%.%.%.%.%.%.%.%.%.%.%.*.#.#.@._ *.=.) Q kXcXvXvXGXGXGXGXGXGXHXHXGXGXHXHXHXHXU ) =.-.=.>.*.*.-.P 5.jXe.jXX.-.W 5.jXu.0.NXHXGXGXGXHXHXHXHXHXDXcXvXvXcXGXGXHXHXHXHXGXGXHXHXGXGXGXGXGXGXGXGXGXGXGXGXGXGXGXHXGXGXGXGXGXHXHXGXcXY -.-.) ) ( =.%.%.%.%.%.%.@.%.%.%.%.%.%.%.%.%.%.%.%.%.%.%.%.*.%.%.%.%.#.#.*.) &.-.P kXy.y.kXP %.%.%.%.%.%.%.%.%.%.%.%.%.%.%.&.&.&.%.@.%.%.%.%.%.%.%.%.^ %.@.^ *.&.&.&.*.*.%.%.%.%.%.%.%.&.&.&.%.%.=.&.) *.( =.=.) ) ) %.#.*.%.%.&.( ( ( ) &.&.&.&.) ( ( &.=.-.G v H z z z z m z x x x x c c G c v m z t I :.^ &.&.@.@.@.%.) ) &.%.%.%.%.%.%.%.%.%.%.%.%.%.%.%.%.%.%.%.%.%.%.%.%.%.%.%.%.%.%.%.%.%.%.%.%.%.%.%.%.%.%.%.%.%.%.%.%.%.%.%.%.%.%.%.%.%.%.%.%.%.%.%.%.%.%.%.%.%.%.%.%.%.%.%.%.%.%.%.%.%.%.%.%.%.%.%.%.%.%.%.%.%.%.$.t x l z m v L ,.#.*.&.&.%.%.%.%.%.%.%.%.%.%.%.%.%.%.%.%.%.%.%.%.%.%.%.%.%.%.%.%.%.%.%.%.&.&.&.#.,.0 4 & > > 1 5 < * = 4 6 5 5 2 p p 5 5 5 1 5 p p 1 < , , < 1 p 1 # 9 X 0 <./ =.%.%.&.%.@.@.%.&.&.%.%.%.%.%.%.%.%.%.%.%.%.%.%.%.%.%.%.%.%.%.%.%.%.%.%.%.%.%.%.%.%.%.%.%.%.%.%.%.%.%.%.%.%.%.%.&.! ! ( ,.I j J H v v M z z J n l N c J m c m z N c c N z m z m r D lXi.e.e.e.e.u.e.e.lX+.P -.@.@.%.%.%.%.%.%.%.%.%.%.%.%.%.%.%.%.%.%.%.%.%.%.%.%.%.%.%.%.%.%.%.%.%.%.%.%.%.%.%.%.%.%.%.%.%.%.%.%.%.%.%.%.%.%.%.%.%.%.%.%.%.%.%.&.*.*.=.&.&.&.&.=.&.&.%.%.%.%._ _ =.*.( _ *.-.%.@.@.@.@.@.%.%.%.%.%.%.%.%.%.%.%.%.%.%.%.%.%.%.%.%.&.%.%.@.@.@.%.&.( -.| G z N x n x x ",
"c x x x x x x x x x x x x x x x x z x t t I $./ &.Q @.#.%.( ( >.) ) &.%.%.%.%.%.^ %.-.-.-.%.%.%.%.) ) ( ( ( ) ) ) ) ) ) ) ) ) ) ) ) &.%.%.%.&.) ( W -.%.%.-.W %.%.%.%.%.%.%.%.%.%.%.%.%.%.%.%.&.` ` ) &.%.@.@.%.=.=.^ -.@.W >.^ *.) ) ) ) &.&.( ) *.*.*.#.#.%.%.%.%.%.%.%.%.%.%.%.%.%.%.%.%.%.%.) %.@.^ ^ ( ) *.@.@.@.&.) ) ) &.&.%.%.%.%.%.%.%.%.%.%.%.%.%.%.%.*.*.%.&.&.) @.%.Q ! Y $.cXvXhXvXvXhXhXhXhXcX@.Y ~ Q ! @.U cXLXPXLXcXcXcXcXvXvXvXxXa.p.r.y.u.kXNXHXHXGXHXHXHXvXvXhXcXGXGXGXcXhXvXhXhXhXhXhXhXhXvXHXGXGXGXGXGXGXGXGXGXGXGXGXGXGXGXGXGXGXGXGXGXGXGXHXvXcXcX,.Q -.X.%.-.*.^ X.@.-.( *.%.%.%.%.%.%.%.%.%.%.%.%.%.%.&.o.W *.#.%.-.#.#.( &.Q kXq.r.kXQ o.W ( >.&.X.lXp.zX4.X.=.) ( %.@.@.@.%.%.&.&.) ) ^ &.=.-.*.*.*.( ) *.-.-.*.%.( ^ %.%.@.@.@.%.&.&.&.&.) ) &.&.&.&.1.=.=.W @.-./ ( ) ) -.@.-.=.^ *.( ) ` ) ` =.-.%.&.=.3.| D r M n c G m M r t U 3.1.1.1.=.=.=.*.*.^ %.%.^ ^ ( &.*.#.^ ,.I q l e l l q G :.:.^ -.^ *.*.*._ ( _ *./ @.@.@.( ) =.&.%.^ -.W W %.&.&.! &.&.%.%.@.#.#.*.>.I l k k k b r G $.$.W =.&.( =.*.*.&.( ) ) ) ( %.%.%.%.%.%.&.*.^ >.*.( %.%.-.^ #.*.=.>.v l l l n H D $.3.=.) =.&.%.*.*.*.*.&.&.&.%.%.%.%.%.%.%.%.%.%.%.%.%.%.%.&.^ %.-.%.W ( ( %.( ) W #.} q k b 4 % 1 # 9 = 9 < = = = 5 p 6 5 6 6 s s 1 1 5 p 5 6 % = $ 1 2 p s > 5 % 7 b e z | >.@.@.@.@.-.%.%.%.%.%.%.%.%.%.%.%.%.%.%.%.%.%.%.%.%.%.%.%.%.%.%.%.%.%.%.%.%.%.%.%.%.%.%.%.%.%.%.%.%.%.%.%.%.&.&.) &.=.=.=.=.=.1.1.1.1.1.1.1.1.1.1.1.1.1.1.1.1.2.1.1.2.>.I t m j j j e e 0 0 q | / / ( ^ @.%.@.@.@.@.%.%.&.&.&.^ %.@.@.*.-.-.^ ^ ^ *.^ >./ =._ =.=.` _ %.*.&.( &.%.%.%.%.%.%.%.%.%.%.%.%.%.%.&.( ( ^ @.#.*.*._ ( ^ @.%.) ) *.@.@.@.@.*.*.*.%.@.%.%.@.@.@.%.&.) =.%.@.-.( 2.! =.@.@.-.-.&.) =.( &.%.%.%.%.%.%.%.%.%.%.%.%.%.%.%.=.) ( _ ( >.#.L r l b x x c c c c x ",
"x x x x x x x x x x x x x x x c c c c v G } >.=.1.) -.-.-.&.^ *.%.%.%.%.%.&.&.&.=.=.) ( ( ( ( ( %.&.%.%.%.%.%.%.%.%.%.%.%.%.%.%.%.%.@.@.@.%.%.%.-.@.-.*.%.-.%.-.%.%.%.%.%.%.%.%.%.%.%.%.%.%.%.%.*.*.%.%.%.&.&.) ! &.&.=.=.) 1.( =.@.^ *.%.*.*.*.*.*.*.( ( &.&.) &.%.%.%.%.%.%.%.%.%.%.%.%.%.%.%.-.-.*.*.*.*.*.=.%.%.%.%.&.%.@.@.%.%.%.%.%.%.%.%.%.%.%.%.%.%.%.%.*.*.%.&.&.) &.) ] ] ! ,.cXvXvXvXvXvXvXvXvXcX,.U ( ) ) ( Y cXPXHXGXvXhXvXvXcXvXxXi.r.p.r.y.u.u.NXHXHXGXHXHXHXvXhXhXcXGXPXGXcXvXvXvXvXvXvXvXvXvXvXHXGXGXGXGXHXGXHXGXGXGXGXGXGXGXGXGXGXGXGXGXGXGXGXHXhXcXcX,./ #._ W ) *.( o.@.%.^ %.%.%.%.%.%.%.%.%.%.%.%.%.%.%.%.&.W -.%.&.=.^ *.=.W P kXa.lXt.8.X.-.>.>./ X.lXr.a.+.P / ` _ =.*.%.%.( %.&.&.&.&.&.&.%.^ ^ ^ @.^ ) ) ) ) ) &.=.=.&.&.%.%.@.@.%.%.@.%.%.@.@.@.@.@.( W %.W @.-.W ) =.( ( W ^ =.&.=.=.-.*.@.@.@.-.=.! ) =.R G l N n x v x n l G U 3.-.*.*.%.%.%.@.@.%.*.*.*.%.*.-.=.) ^ 2.U t z l n M t K >.2.) 1.! ( ( ( ( ( ) *.&.-.-.%.@.%.-.%.%.*.>.%.%.-.o.%.%.%.%.&.&.&.&.&.&.>.U t l x x m G E -.=.( =.( %.-.-.-.-.-.*.*.*.#.@.@.@.%.%.&.&.) =.2.( ^ o.o.&.&.W ^ &.:.G r z m z c w | >.) ! ) ) &.*.*.#.#.@.@.%.%.%.%.%.%.%.%.%.%.%.%.%.%.%.%.%.@.*.%.( &.&.&.&.) ) ! -.| w b N 7 X < > s 2 s 3 & = * 2 1 * 1 s p > 2 p s p i p s , 8 * 6 5 s 5 = 4 X 7 A n q / =.%.@.#.@.=.) %.%.%.%.%.%.%.%.%.%.%.%.%.%.%.%.%.%.%.%.%.%.%.%.%.%.%.%.%.%.%.%.%.%.%.%.%.%.%.%.%.%.%.%.%.%.%.%.%.%.%.%.*.-.-.-.*.*.*.*.*.*.*.=.&.=.=.=.&.&.%.&.! ! W *.$.K r n N N N N N N c G :.*.` ` &.&.&.) ) ) &.&.%.%.@.%.%.@.@.^ ^ %.%.%.&.%.-.%.=.! &.%.@.%.%.@.$.$.@.@.%.%.%.%.%.%.%.%.%.%.%.%.%.%.%.%.-.%.( &.-.-.) ( %.%.@.@.&.&.&.%.&.) ( ( ( &.&.&.&.&.%.%.@.@.%.%.@.@.^ =.( 2.! &.&.( %.%.^ @.-.%.%.%.%.%.%.%.%.%.%.%.%.%.%.%.%.%.-.-.*.=.^ -.>.I t z x c c c m z x x ",
"x x x x x x x x x x x x x x x x z z z v G | ,.>.1.=.>.-.=.=.( @.@.@.%.%.&.&.) ) =.&.( ( ) &.&.( %.%.%.%.%.%.%.%.%.%.%.%.%.%.%.%.@.%.&.&.) &.&.%.^ ^ *.%.( &.( ) %.%.%.%.%.%.%.%.%.%.%.%.%.%.%.%.#.#.@.@.&.) ) ) ^ *.*.Q ( 1.*.2.>.=.=.) ) ^ W ^ %.%.@.^ ^ %.%.&.%.%.%.%.%.%.%.%.%.%.%.%.%.%.%.&.( ) %.%.%.%.) ) %.) &.&.&.&.@.%.%.%.%.%.%.%.%.%.%.%.%.%.%.%.%.&.*._ &.&.&.%.@.@.^ #.@.<.cXcXcXcXcXcXcXcXcXcX4.$.-.%.-.@.Y vXPXGXHXvXhXhXhXvXkXkXi.9.9.9.q.q.i.xXHXHXGXGXHXHXvXvXhXvXDXGXHXcXvXvXvXvXvXvXvXvXvXvXHXGXGXHXHXHXHXHXHXGXGXGXGXGXGXGXGXGXGXGXGXGXGXGXDXvXvXvX<.U W Q ! ) =.=.%.&.&.&.%.%.%.%.%.%.%.%.%.%.%.%.%.%.%.%.%.^ -.*.&.&.( -.Q P P 6.jXlXkXX.o.W W ~ U -.jXlXlX5.o.=.>._ *.) ) ) &.&.&.&.%.%.*.@.^ @.*.*.-.-.-.&.( ( ) *.=.&.) ) &.&.%.%.@.%.#.*.%.&.%.%.%.) ) ) 1.=.1.2.] 3.=.( =.=.( *.%.( =.=.-.*.@.^ ) =.%.$.$.I v r l e x l l l r z I $.@.@.@.%.( ) ) ) ^ ^ @.%.%.( ( ( >.-.3.R G m z z m v K :.#.^ =.&.o.o.( &.-.-.*.>.( ) ) &.=.=.1.1.1.2.) 1.1.( ( &.&.&.%.%.@.@.@.@.$.K y r z r l l L <.>.( 1.) ( =.( ) =.&.) ( ^ ^ %.%.%.%.%.%.%.@.$.$.$.-.>.) ] ] 1.1.=.:.H r r b z m w | <.*.&.=.) ) _ _ *.*.%.%.%.%.%.%.%.%.%.%.%.%.%.%.%.%.%.%.@.@.*.( ! &.=.( >.=.2.1.3.:.G J T 0 % $ . , $ : 6 % - < p s 5 5 2 s p p p , % < . 2 . > : , s 5 6 < = % 7 A { v W =.&.@.*.( =.) &.%.%.%.%.%.%.%.%.%.%.%.%.%.%.%.%.%.%.%.%.%.%.%.%.%.%.%.%.%.%.%.%.%.%.%.%.%.%.%.%.%.%.%.%.%.%.%.@.@.@.%.%.%.*.#.%.%.%.%.@.@.%.%.@.@.@.( ( ( @.@.%.@.@.$.| L r l r r r r e r r t <.:.*.*.*.%.&.) &.%.%.@.@.@.@.@.*.&.( ) ) &.=.=.2.=.>.( =.! &.&.o.%.&.&.%.@.( ( %.%.%.%.%.%.%.%.%.%.%.%.%.%.%.%.%.( ) ) =.-.-.-.&.) %.%.&.) ) ) =.=.&.%.%.&.&.&.&.&.&.%.%.@.@.@.-.-.=.2._ >.( >.1.) &.&.^ @.-.&.%.%.%.%.%.%.%.%.%.%.%.%.%.%.%.%.^ ^ ^ %.W @.-.I v z m c x c z z x x ",
"x x x x x c x x c x x x x x x x N m n z z J K K K K K L R >.-.%.@.@.%.&.&.&.%.%.@.@.%.*.-.*.%.%.=.=.=.=.*.*.*.*.*.*.*.*.*.=.=.=.%.&.) ) ) &.%.%.%.&.=.) ( &.%.-.%.%.%.%.%.%.%.%.%.%.%.%.%.%.%.%.#.#.@.@.&.) ) &.@.*.>.( >.#.G K K | #.*.&.) @.%.*.*.*.=.&.&.&.&.%.%.%.%.%.%.%.%.%.%.%.%.%.%.%.&.=.=.=.*.%.%.@.%.@.@.@.%.&.&.) &.&.%.%.%.%.%.%.%.%.%.%.%.%.%.%.%.*.*.%.&.&.&.%.%.%.-.^ @.tX,.,.,.qXqX4.,.,.tX%.! W W %.@.Y kXPXGXGXDXHXHXDXDXDXcXcXcXcXcXcXcXcXHXGXHXGXGXGXHXcXcXcXDXHXGXGXDXcXDXDXDXDXDXcXDXDXDXHXGXGXGXGXGXHXGXGXGXGXGXGXGXGXGXGXGXGXGXGXGXGXGXDXvXvXcX6.5.6.6.Q Q ^ %.%.) &.=.&.%.%.%.%.%.%.%.%.%.%.%.%.%.%.%.%.@.-.*.&.&.W -.6.6.5.6.+.5.;.Q *.Q 6.6.6.tX} } } } @.=._ ) &.%.&.) &.&.%.%.%.%.%.%.( -.=.&.&.-.%.%.@.@.*.*.@.^ %.&.&.) &.&.%.%.&.) ) ) &.&.%.%.@.#.$.I L K L K K L *.>.^ @.$.$.^ ( ( =.-.( ) ) &.%.-.@.U I U I R U I I I I U -.@.%.%.&.*.&.=.*.-.%.@.%.%.&.&.$.K H K H z n x x z z G I K K $.#.*.%.) =.#.U L K U #.>.#.I K K K K K L R :._ *.=.*.*.*.*.%.%.&.*.1.^ Y R R L c m c K K I / =.%.-.( ) &.*.&.( &.=.&.) &.&.%.%.@.@.&.=.%.>.$.I L K K L K I I I U I v c w | $.@.^ %.%.%.*.*._ ` ) ) &.%.%.%.%.%.%.%.%.%.%.%.%.%.%.&.*.=.=._ ) -.$.K K L K L K J 7 8 8 4 , - 8 ....gX7 o X 2 1 5 2 1 , 5 2 1 1 - e ....gX4 % 2 # s 1 > 2 > 5 6 8 7 + | >.%.%.*.( =.) %.%.%.%.%.%.%.%.%.%.%.%.%.%.%.%.%.%.%.%.%.%.%.%.%.%.%.%.%.%.%.%.%.%.%.%.%.%.%.%.%.%.%.%.%.%.%.%.%.%.%.%.%.%.%.%.%.%.%.%.( ( ) %.%.%.%.) ) ) &.) &.&.&.=.-.U Y U I U U U U I I U *.-.&.%.%.%.%.^ @.@.@.@.@.%.%.&.&.&.&.*.&.%.@.#.R K I L @.*.-.%.@.%.&.=.&.) ` =.&.%.%.%.%.%.%.%.%.%.%.%.%.%.%.%.%.*.=.#.I L K I >.=.*.*.*.*.` ` ( %.%.%.%.%.@.%.@.%.&.&.%.%.@.@.%.) ) ( I I L I -.) ) =.@.@.*.&.%.%.%.%.%.%.%.%.%.%.%.%.%.%.%.%.&.&.) =.@.$.$.K t z n x z m z z z x ",
"x c x x x x x x x x x x x x x x m m m x l z z l l r r r I :.#.^ %.%.&.&.&.%.@.@.@.%.-.&.( ( ( &.^ @.@.@.@.@.@.@.@.@.@.@.@.@.@.@.%.%.&.&.@.@.@.@.&.=.) ( ^ @.-.-.%.%.%.%.%.%.%.%.%.%.%.%.%.%.%.%.*.*.%.%.&.&.%.@.*.%.) ` 2.R q l w I $.*.( =.-.*.@.^ ( &.%.^ W ^ %.%.%.%.%.%.%.%.%.%.%.%.%.%.%.%.*.-.-.( ( ( %.%.@.@.@.@.@.%.) &.&.%.%.%.%.%.%.%.%.%.%.%.%.%.%.%._ *.%.%.%.%.*._ ( =.) ~ ) ~ ~ ~ ~ ~ ~ [ ~ ) W ( ) ( =.-.U vXPXGXGXGXGXPXGXGXPXPXPXPXGXGXPXGXPXPXGXHXGXGXGXGXGXGXGXGXGXGXGXGXGXGXGXGXGXGXGXGXGXGXGXGXGXGXGXGXGXGXGXGXGXGXGXGXGXGXGXGXGXGXGXGXGXGXHXvXvXcXa.p.a.jXX._ #.:.%.%.%.%.%.%.%.%.%.%.%.%.%.%.%.%.%.%.%.%.%.@.*.#.*.@.W ;.xXlXjXO.P Q _ _ 6XU u.a.a.0.u j q K $.( ! ) =.&.) &.%.%.%.%.%.%.&.=.=.=.( ! ( ) ( ( ( ( %.@.@.@.@.@.&.&.) &.&.%.@.@.%.%.&.&.%.*.@.:.| v q l l l e t | =.! ( %.@.%.( ( &.%.%.%.( ! ( &.&.&.1.2.2.2.1.1.2.=.=.1.1.%.%.%.%.*.*.*.*.-.*.@.%.%.( ) :.w r l l l n G G x l l n r t R >.$.^ ( *.$.L r r G | ,.:.J e r e k r r K $.#.( ) ( ^ @.@.@.@.( ( &.&.%.,.>.I G m l z r t I :.$.$.@.@.@.@.@.^ @.-.%.&.&.&.&.&.%.&.&.&.( *.R D r b k k r v R >.2./ t m t | #.*.( ( @.@.$.$.#.*.%.&.%.%.%.%.%.%.%.%.%.%.%.%.%.%.%.%.%.%.%.^ @.$.K q l l l r b e . & % 6 s % e xXnXnXS 4 = s 5 , 6 8 6 p 2 s p 4 { nXlXxX+ o 8 , 8 6 5 s i p p # X o  .:.*.%.%.@.*.%.%.%.%.%.%.%.%.%.%.%.%.%.%.%.%.%.%.%.%.%.%.%.%.%.%.%.%.%.%.%.%.%.%.%.%.%.%.%.%.%.%.%.%.%.%.%.%.%.&.&.&.&.&.&.( ( &.&.&.&.&.&.&.&.&.&.&.&.&.&.&.&.( ( ( =.1.) =.2.2.2.2.2.2.2.2.2.) ) ) ) &.%.( ( %.&.&.) ) ) ) &.&.%.@.%.%.^ %.:.{ l r w U :.@.W %.@.( ) @.^ #.#.*.%.%.%.%.%.%.%.%.%.%.%.%.%.%.%.^ @.-.| v q r H $.*.) ( ^ @.@.^ W ( ( ( ( @.@.*.@.@.%.%.&.%.%.@.@.*.*.U w r r H $.( ( &.@.@.*.%.%.%.%.%.%.%.%.%.%.%.%.%.%.%.%.%.-.&.) 1.) -.#.L t l M z z n M c z c ",
"x x x x c c x x x x c x x x x c t t v v c n n n n b r t U 2.1.] &.%.&.&.%.%.@.@.%.&.) ) ) ) =.=.&.&.=.=.=.=.=.=.=.=.=.=.&.&.&.=.&.&.&.&.@.@.@.&.! 1.=.=.=.-.=.( &.%.%.%.%.%.%.%.%.%.%.%.%.%.%.%.%.%.%.%.%.%.%.%.-.=.` ` 2.| t z w } <.( ( ) ) ) =.` =.>.=.=.) =.&.%.%.%.%.%.%.%.%.%.%.%.%.%.%.%.@.@.%.&.&.=.=.=.) ) &.&.%.%.&.&.&.%.%.%.%.%.%.%.%.%.%.%.%.%.%.&.` ` &.%.@.@.*.*._ >.>._ 2.W -.-.@.>.=.>.$.#.@.-.2.( ! ! Y kXPXGXGXGXHXGXGXHXGXGXGXGXGXHXGXHXHXHXGXGXGXGXGXGXGXGXHXGXGXHXGXGXGXGXGXGXGXGXGXGXGXGXGXGXGXGXGXGXGXGXGXGXGXGXGXGXGXGXGXGXGXGXGXGXGXGXHXvXhXvXu.e.r.t.~ ' ' _ %.%.%.^ %.%.%.%.%.%.%.%.%.%.%.%.%.%.%.%.%.%.*.#.*.@.W ;.a.r.u.O.Q ` ` ' ' Y t.a.a.u.u J v  .,.%.&.=.=./ *.%.%.%.%.%.%.&.&.=.=.) ( ) -.-.=.=.1.) ) ) *.-.@.@.%.&.&.&.%.%.%.%.&.&.) ) ) _ *.>.| G q n x b e t | 2.] ] ] ) =.-.&.( ^ %.%.@.@.@.@.@.@.@.@.@.%.%.&.=.=.&.( ) ( ( %.%.%.%.&.&.) ( ) =.=.) 1.,.G M n n n m G c n n l n r v / 3.-.=.=.2.>.I t t G $.2.2.I t c m M z D U >.2.1.] 1.1.=.=.=.=.=.=.! =.-.,.$.L t r n b r t U 3.1.1.2.=.) =.&.( ^ ^ @.@.@.%.&.) ) ) o.%.%.3.:.L G c N N v D @.2.=.U q b w | $.*.&.=.%.%.#.#.#.*.%.%.%.%.%.%.%.%.%.%.%.%.%.%.%.%.%.&.=.1.1.=.=.-.I w m m H c J l O < & 9 2 . + hXzXxXS   . 3 2 p s 6 5 p i s 3   M nXs.hXo . 3 3 i 3 # 2 s p 2 3 % O  .:.@.%.%.@.*.@.%.%.%.%.%.%.%.%.%.%.%.%.%.%.%.%.%.%.%.%.%.%.%.%.%.%.%.%.%.%.%.%.%.%.%.%.%.%.%.%.%.%.%.%.%.%.%.%.&.&.%.%.&.&.%.%.%.%.%.%.%.%.%.%.&.) &.&.*.*.@.@.-.*.@.%.( ( ) =.W W W W ^ ^ ^ ^ %.%.%.%.*.-.-.=.&.&.&.&.&.&.%.%.@.^ %.=.=.] 2.3. .z v D $.2.1.] 2.1.) 1.=.( ^ @.%.%.%.%.%.%.%.%.%.%.%.%.%.%.%.&.) ) 2.#.G r t K >.1.] ] 1.1.=.=.=.=.1.) ) ( ) *.@.@.%.%.&.%.%.%.-.-.2.$.t z M I 6X2.=.=.( ( %.%.%.%.%.%.%.%.%.%.%.%.%.%.%.%.%.%.^ ( ( 1.) >.>.Y t v c z z n n n x c ",
"x x x x x x x x x x x x x x x x m c v c m z v v z z c G U -.#.*.*.&.&.) &.%.%.%.&.) ) ) =.*.@.U @._ _ _ _ _ _ _ _ _ _ _ _ _ _ _ ) ) ) ) &.&.&.) ) 1.@.$.$.@.=.) &.%.%.%.%.%.%.%.%.%.%.%.%.%.%.%.%.%.%.%.%.%.&.) ^ >.$.$.:.I L D G } $.@.%.=.-.>.-.#./ #.#._ ` 1._ %.%.%.%.%.%.%.%.%.%.%.%.%.%.%.) *.=.-.*.@.$.^ %.) ) ) ) ) ) ) &.%.%.%.%.%.%.%.%.%.%.%.%.%.%.&._ _ &.%.%.&._ _ #.@./ ^ 2.` &.^ @.*.@.>.@.%.( =.) ^ -.-.U kXGXDXGXGXGXGXGXDXHXGXHXGXDXGXGXGXGXGXGXGXGXGXGXGXGXGXHXGXGXHXGXGXHXGXGXGXGXGXGXGXGXGXGXGXGXGXHXHXGXGXGXGXGXGXGXGXGXGXGXGXGXGXGXGXGXGXDXvXvXvXkXkXkXkX8.o.o.W Q ( =.=.%.%.%.%.%.%.%.%.%.%.%.%.%.%.%.%.&.( &.@.-.o.W ;.a.r.lXO.! ( Q o.Q ;.6.kXjXkXy v v R -.! *.>._ _ *.&.%.%.%.%.%.&.( =.=.( *.-.$.U U $.*.=.) ) &.=.%.%.%.&.&.&.%.%.) ) ) ) ) &.%.@.@.$.| G t m z z G L R $.*.>.^ @.U #.=.) ( ) =.&.*.*.%.-.-.-.%.*.@.@.%.=.=.) ) ) ) ) ) ) %.&.&.) &.=.=.>.*.W @.$.t z z z n x v v n n z H M G R #.*.>.#.#.#.I G G K $.#.$.K v H c c c v I | $.#.*.#.#.#.#.#.*._ _ ` 2.^ #.$.K G m m z z c U >.@.-.#.^ ^ -.1.=.) &.&.%.@.@.%.&.&.) 1.` W $.| L z z z x z t | ^ #.$.G H D R $.^ ^ ( &.&._ _ _ _ &.&.%.%.%.%.%.%.%.%.%.%.%.%.%.%.%.*.( _ _ _ *.#.| G c x G v N k X * . < f 7 r vXvXcXe o 4 8 # 2 s 3 9 2 * s 6 O { vXvXhXe % X . 9 - s X 4 5 , 6 O + | -.%.&.%.@.*.%.%.%.%.%.%.%.%.%.%.%.%.%.%.%.%.%.%.%.%.%.%.%.%.%.%.%.%.%.%.%.%.%.%.%.%.%.%.%.%.%.%.%.%.%.%.%.%.%.%.%.%.%.&.&.%.%.%.%.@.@.@.@.@.%.&.%.%.%.@.@.@.@.@.@.@.@.^ @.%.%.=.=.=.=.*.*.*.*.&.%.%.%.*.*.*.*.%.%.@.@.@.@.@.%.( ( &.=.=.W ^ $.I v H G R #.#.*.$./ W *.=.=.( ( &.%.%.%.%.%.%.%.%.%.%.%.%.%.%.%.-.^ @.$.L t G L :.#.#.#.#.#.$.$.| $.*.=.=.) ) %.%.@.%.&.&.&.%.%.! ( =.$.D z G K :./ ^ *.&.) ) ( %.%.%.%.%.%.%.%.%.%.%.%.%.%.%.%.%.=.=.-.U | <.I v c c c z n n n x x ",
"x x x x x x x x x x x x x x x x x x z x x x c J z x n r m m r t $.) ) ) ) &.%.%.-.( ( %.$.} G r r l l l l l l l l l l l l l l t $.%.&.&.&.%.%.@.#.$.G y w G $.#.%.%.%.%.%.%.%.%.%.%.%.%.%.%.%.%.%.%.%.%.%.&.) &.#.:.G w w L :.>.*.=.) ( =.( ^ <.L v r l l r z G $.%.%.%.%.%.%.%.%.%.%.%.%.%.%.&.) &.@.| I H t w | $.@.%.@.@.%.&.%.%.%.%.%.%.%.%.%.%.%.%.%.%.%.%.#.#.%.&.&.&.*.$.D r r H $.#.=.! -.-.W 1.( &.) =.U <.cXcXhXHXPXDXHXHXGXHXcXhXhXvXvXvXvXcXDXGXGXGXHXHXHXHXGXGXGXGXHXGXHXHXHXHXGXGXGXHXGXGXGXGXGXGXGXGXGXHXGXGXHXGXGXGXGXGXGXGXGXGXGXGXGXGXGXGXGXGXDXvXvXvXvXvXvXxXu.lXu.5.$./ >.=.*.%.%.%.%.%.%.%.%.%.%.%.%.%.%.&.&.) &.%.-.o.W ;.jXe.lXO.Q W +.lXlXlX{ u 0 n r m t U %.) =.=.W -.%.&.%.%.%.%.%.&.( *.*.@.@.$.I D w G I $.%.( ( %.%.%.%.&.&.) &.%.*.*.%.%.@.@.@.&.&.&.=.&.=.1.) 2.,.| K r r r r v D U -.*.( ` -.%.%.&.&.&.&.( ! %.%.%.&.&.&.( %.@.%.%.%.@.@.@.@.%.%.@.$.| K t y y l n x n n x x z n x v G n r v v t l r l n x l b r m v c b e m z n N l x n l l l r r l l l l l l b b e l n l z c G c n l z c r r r r t I | @.%.&.&.%.%.@.@.%.%.*.:.I w r x l z c H c b l J v l H ,.6X/ 2.>.*.%.@.%.%.*._ *.*.%.%.%.%.%.%.%.%.%.%.%.%.%.%.%.%.%.$.r l l l z c z e b b c v N k X 4 0 K qXo.~ 3.8.~ t.u.nX0.0 % p p 5 7 0 | qX*.1.! ~ 1.~ 3.7.6.xXxXHXe O 7 7 A N v U =.o.&.%.@.-.%.%.%.%.%.%.%.%.%.%.%.%.%.%.%.%.%.%.%.%.%.%.%.%.%.%.%.%.%.%.%.%.%.%.%.%.%.%.%.%.%.%.%.%.%.%.%.%.&.( ) ) &.&.&.&.&.%.%.%.%.%.%.%.%.%.%.@.#.*._ _ _ ) ) =.=.%.%.-.%.%.%.#.#.#.#.#._ *._ ) ) ` ` ` _ ` ) %.@.@.@.%.&.) ) -.-.| L y t H r N r x x r l b l G I $.*.*.=.&.%.%.%.%.%.%.%.%.%.%.%.%.%.%.$.J r z m l l b b n l l r l l l z r D I $.*.*.%.%.@.@.%.&.) ) &.&.*.&.>.$.t l r M t t H } $.-.&.%.%.%.%.%.%.%.%.%.%.%.%.%.%.%.%.&.) =.@.U D t M q b n m c x x n x x x ",
"x x c x x x x c x x x x x x x x x x x x x x c x x x x x x x x G :.( %.^ ) &.W @.^ &.%.^ 2.#.G z z x x x x x c x x x x x x x x G :.@.$.X.$.@.( ) ( :.J y r G :.` _ >._ ^ ^ %.%.-.%.%.#.*.) ) %.@.-.@.%.%.@.W ( =.&.$.H z r G ,.) &.) ) ) ( ) -.:.K r t m t m t I -.&.! @.@.%.) ) @.@.( =.@.@.&.&.@.=.) >. .v t t U >.*.*.@.W @.-.W &.W ) -.%.&.) &.&.%.%.%.&.*.*.&.) &.&.%.( ) >.G z r H :.-.W o.%.&.%.%.%.%.%.%.W @.cXvXvXcXGXHXHXGXGXHXcXvXhXvXcXvXvXcXHXGXGXGXGXGXGXGXGXGXGXGXGXGXGXGXGXGXGXGXGXGXGXGXGXGXHXGXHXGXGXHXHXGXGXGXGXGXGXGXGXHXHXHXGXGXGXGXGXGXGXGXNXhXvXvXvXvXvXhXw.y.y.+.Q 2./ *.-.( >.>.*.( %.&.&.) %.%.@.%.*._ _ ) %.%.%.%./ ;.lXr.jX;.^ Q O.u.w.lX{ u m c z M w } -.( %.&.&._ &.&.@.@.%.&.&.&.@.*.>./ >.#.} t t y | -.( ` W *.*.&.&.&.%.%.) =.@.@.-.W -.Q @.%.%.&.*.*.&.&.&.&.>.:.G v N x m v t | >.( =.=.( ( &.%.%.%.%.%.%.%.%.%.%.%.%.%.%.&.&.&.%.@.@.@.@.&.=.^ _ >.I w M M M x x x x x x x c x x x x c x x x x x x x x x x x x x x x x x x x x x x x x x x x x c c x x x x x c x x x x x x x x x x x x x x z r w I :.@.&.! ! o.@.@.@.@.@.@.>.I t r z n b n m c J z m t r H :.-.%.( %.%.%.%.%.%.%.%.%.%.%.%.%.%.%.%.%.%.%.%.%.%.*.%.( =.*.U v x n m m m n m H G v m N k 4 7 O K 4X_ ` 1.` P 6.r.a.hXO p s 9 s 6 u  .#.>.*.@.@.@.-.>.Q ;.lXi.cX0 X 4 7 N n w | -.*.%.*.*.@.*.*.%.%.%.%.%.%.%.%.%.%.%.%.%.%.%.%.%.%.%.%.%.%.%.%.%.%.%.%.%.%.%.%.%.%.%.%.%.%.%.%.%.%.%.%.%.%.%.%.%.%.%.%.%.%.%.%.%.%.%.%.%.%.%.%.%.%.%.%.%.%.%.%.%.%.%.%.%.%.%.%.%.%.%.%.%.%.%.%.%.%.%.%.%.%.@.$.#.%.&.@.@.@.@.*.*.^ >.$.G t M z c z z x x n x z v w } <.W &.! %.@.@.@.@.@.@.@.@.@.@.o.X.@.%.$.{ z z m c c m z c c c x x x x z l t | -.^ %.W &.&.^ Q X.%.&.) &.%.^ >.@.G r b b m t G | >.%.@.W %.%.%.%.&.&.) ( %.%.%.%.&.( &.=.=./ ,.| D r l b n c c c x c z z x x ",
"x x x x x x x c x x x x x x x x x x c x x x x x x x x x x x x G 6X2.2.2.1.1.) 2.) 1.-.*.2.:.H z x x c x x x x x x x x x x x x G 2.2.2.2.2.2.2.1.1.>.L D t L >.2.*.>.>.=.*.%.( &.%.%.*.*.) ) %.%.( ( &.=.=.=.>.=.-.<.L v t L >.) @.@.%.( @.@.*.:.G q t m r M r I 3.3.2.2.2.2.2.2.-.*.1.1.) ( ) &.@.*.@.$.{ t r w $.>.-.=.1.) =.*.>.3.>.2.>.=.1.2.) &.%.@.%.%.%.#.%.@.%.%.@.( ) >.G c v K >.1.) 1.=.&.%.%.%.%.%.%.W $.cXvXvXcXGXHXGXGXGXHXcXvXvXvXvXvXvXcXHXGXHXGXGXGXGXGXGXGXGXGXGXGXGXGXGXGXGXGXGXGXGXGXGXGXGXGXGXGXGXGXGXGXGXGXGXGXGXGXGXGXGXGXGXGXGXGXGXGXGXHXcXhXvXvXvXvXvXxXu.u.jX+.~ ) ~ %.Q Q W / ^ %.%.=.&.) %.%.@.%.*._ _ ( &.%.%.%./ ;.lXr.u.O.Y P 4.lXlXxX{ w c z z M w | -.( %.&.&.*.&.&.@.@.%.&.&.&.%.*.>._ ,.:.| t t t U #.^ *.^ -.*.%.%.%.@.%.&.=.=.=.1.) 2.) 1.) ) ) *.*.%.%.@.%./ $.v r b e r q t | >.1.1.=.@.$.%.%.%.%.%.%.%.%.%.%.%.%.%.%.%.&.&.) &.&.%.%.&.&.2.*.*.,.I t m z z x x x x x x c x x x x x c x x x x x x x x c x x x x x x x x x x x x x x x x x x x x x x x x x c c x x x x x x x x x x x x x c H H L R >.2.2.1.2.2.2.2.1.2.2.2.2.U H z m c z z x z M r M t r G :.-.%.( %.%.%.%.%.%.%.%.%.%.%.%.%.%.%.%.%.%.%.%.%.%.*.%.( -.*.U q e e r e e e r r r e e k 8 X X O J <.^ ( =.@.P t.lXzXhXO $ $ # @ $ O  .:.>._ _ &.( ! ( Q 5.lXlXvX8 X = 7 B b t | *.*.) *.*._ _ &.%.%.%.%.%.%.%.%.%.%.%.%.%.%.%.%.%.%.%.%.%.%.%.%.%.%.%.%.%.%.%.%.%.%.%.%.%.%.%.%.%.%.%.%.%.%.%.%.%.%.%.%.%.%.%.%.%.%.%.%.%.%.%.%.%.%.%.%.%.%.%.%.%.%.%.%.%.%.%.%.%.%.%.%.%.%.%.%.%.%.%.%.%.%.%.%.&.) ) &.&.&.) =.*.#.,.,.L G v z z z z c c c c G G G | ,.=.3.2.2.2.2.2.2.2.2.2.2.2.2.2.2.2.2.3.K z z m c c m z c c c c x x c z H G #.2.2.3.=.2.&.=.=.*.-.%.@.%.>._ 2.#.L z n n z v L $.,.=.=.1.&.%.%.%.&.&.) &.%.%.%.%.&.( &.=.2.` 3.$.L G c c c c c x n n z M x x ",
"x x x x x x x x x x c x x x x x x x x x x x x x x x x c x x x v I I K K I I I $.*.:.| K I K z n n x x x x x x x x x c c x x x z K K K K K K K K I { m M b z K I I | *.*.%.( ( &.%.@.#.*.&.) %.@.#.@.&.&.%.#.$.I I } c z r G >.) %.@.) ( @.@.*.#.U I I I v M r H K I I K K I I I K I ^ =.( ( &.=.( ) ) -.| I I I I I I I -.=.*.U K I K K K K U *.%.&.@.%.%.&.&.%.%.@.%.%.@.( =.>.G n z H I I I / *.&.%.%.%.&.*.*.W $.HXcXcXDXGXGXGXGXGXGXHXcXcXDXcXcXcXcXcXcXcXHXHXGXGXGXGXGXGXGXGXGXGXGXGXGXGXGXGXGXGXGXGXGXGXHXcXcXcXcXcXcXcXcXcXcXcXcXcXcXcXcXcXHXGXGXGXGXGXGXHXcXcXcXvXvXvXvXkXkXlX4.Q &.X.6.5.6.;.Q %.=.( *.&.&.&.%.@.@._ _ &.( *.( &.%.W ;.lXe.y.5.4.5.4.} } ..H t m z z m t | :.( %.&.%.*.%.%.%.%.%.%.%.&.=.%.#.Y I K I I } I @.-.( *.^ %.*.&.%.%.@.@.&.*.I I I Y -.*.=.) _ _ %.%.@.%.%.&.=.>.I I | I I I K I I I U @.#.*.%.%.%.%.%.%.%.%.%.%.%.%.%.%.%.%.&.&.&.&.) &.&.%.#.Y I | K t z z x x x x x x x c x x x x x x x x x x x x x x x x c x x x x x x x x x x x x x x x x x x x x c x x c x x x x x x x x x x x x c x x x x z J K K K K K K K K K K K K } L v z c c x x m z M t I I I U *.*.( ( %.%.%.%.%.%.%.%.%.%.%.%.%.%.%.%.%.%.%.%.%.%.*.%.( -.*.W I I U U U U I I I U I U | K G L G | ,.*.&.-.( Q ;.5.5.4.G J J J J K L ,._ >.*.*.%.%.^ *.^ -.6.5.tXr e k k N z t $.-.*.) *.*._ _ %.%.%.%.%.%.%.%.%.%.%.%.%.%.%.%.%.%.%.%.%.%.%.%.%.%.%.%.%.%.%.%.%.%.%.%.%.%.%.%.%.%.%.%.%.%.%.%.%.%.%.%.%.%.%.%.%.%.%.%.%.%.%.%.%.%.%.%.%.%.%.%.%.%.%.%.%.%.%.%.%.%.%.%.%.%.%.%.%.%.%.%.%.%.%.%.%.%.&.&.%.%.&.&.-.R K I } G z z z z z z c c c c z c t J K K I K K K K K K K K K K K K K K K K K J z z m c x m x c c c c c c c x z r K I I I L I Y @.#.#.%.*.*.*.U K I I v n n n m v v K I I Q >.%.%.%.%.&.&.&.&.%.%.%.&.&.) &.#.U K I K v c n x x x x x n n z z x x ",
"x x x x x x x x x x c x x x x c x x x x x x x x x x x x x x x x r e r r l r G | $.$.K q t z r n n x x x x x x x x x x x x x x n l r r r r r r r l n l n b l x v t I $.( ( ) &.=.%.@.#.*.&.&.%.%.#.#.*.@.$.$.} w t M l b l H <.) ( _ ) ) ( ) ) =.>.>.>.$.G c t n l l r r r r r r r v R -.%.%.%.&.( ( ) 1.2.=.2.6XG r r v $.*.$.I q l l l r t I $.#.%.@.@.&.) ) ) &.&.%.&.%.( *.:.v b b l n z r K #.&.%.%.%.&.-.-.Q <.GXHXHXGXGXGXGXGXGXGXGXGXGXGXGXGXGXcXvXhXvXDXHXGXGXGXGXGXGXGXGXGXGXGXGXGXGXGXHXHXGXGXGXHXHXHXvXvXvXvXvXvXvXvXvXvXvXvXvXvXvXvXhXcXHXHXGXGXGXGXGXGXGXHXcXvXvXvXcXvXcX4.R %.O.jXlXxX6.Q *.-.^ *.&.) &.%.%.*.*._ %.( *._ =.( W ;.lXe.a.y.a.lX4.u w t q z m z M c t | :.( ( &.%.*.%.&.&.&.%.%.%.%.=.%.$.G t w I ,.>.@.>.=.*.*.( ) ) ) &.&.%.%.) :.v r r G | #.*.( #.*.%.%.%.%.&.&.) 2.( =.1.] 2.>.<.G r t G $.-.&.&.%.%.%.%.%.%.%.%.%.%.%.%.%.%.%.@.@.%.&.&.&.%.$.| D w c z r x z x x x x x x x x x x x x x x x x x x x x x x x x c x x x x x x c x x x x x x c x x x x x x x x x c x x x x x x x x x x x x x x x x x z z l l l r r r r r r r l l x l l l x x x n m z m G $.>.=.=.=.&.( ( %.%.%.%.%.%.%.%.%.%.%.%.%.%.%.%.%.%.%.%.&.%.*.&.( *.*.W =.1.1.2.1.1.1.1.1.1.1.2.3.2.2.2.&.1.>.=.&.( _ ` ! ~ ~ 1.) 7X3.2.3.3.! 1.! ) *.#.@.#.$.>.#./ ! ~ -.E J J N J v D $.%.&.( *.*.@.%.%.%.%.%.%.%.%.%.%.%.%.%.%.%.%.%.%.%.%.%.%.%.%.%.%.%.%.%.%.%.%.%.%.%.%.%.%.%.%.%.%.%.%.%.%.%.%.%.%.%.%.%.%.%.%.%.%.%.%.%.%.%.%.%.%.%.%.%.%.%.%.%.%.%.%.%.%.%.%.%.%.%.%.%.%.%.%.%.%.%.%.%.%.%.%.%.@.%.%.@.@.@.%.*.<.I w r z r l n z z z c c c x x x n l b l r l r r r r r r r r r r r r r r r r l n z x m c z c x c c c c c c c n b e z z r r r r w I $.^ ^ ) ) >.G r z z l n b x N n r l r q L $.@.%.%.%.&.&.&.&.%.%.%.&.&.) &.:.G r l l r b b x n x x x n x c c x x ",
"x x x x x x x x x x x x x x x x c x c x x x x x x x x x c c c c m z z n m t G <.*.:.K t v c z x x x c x x x x x x x x x x x x x m c c c m m m c c c c c c z c c t K $.=.&.) ( %.%.%.#.*.%.&.%.%.*.*.=.) *.,. .w t z x N z L -.) %.*.*.*.@.@.&.=.( *.>.#.G n z N n x c c c c n n r v $.2.=.=.%.%.-.%.&.) ) ` ) >.L l r m :.>.-.Y v n x x z t I ,.%.&.%.@.%.&.%.%.&.( %.%.( ) =.,.G z c x m z t | #.&.%.%.%.&.&.*.Q $.GXGXGXGXGXGXGXGXGXGXGXGXGXGXGXGXGXcXvXhXvXHXHXGXGXGXGXGXGXGXGXGXGXGXGXGXGXGXHXHXGXGXGXHXGXHXvXvXvXvXvXvXvXvXvXvXvXvXvXvXvXvXhXcXHXGXGXGXGXGXGXGXGXGXcXvXvXvXcXcXcX<.U Q O.lXr.lX5.P %.-.( *.&.&.&.&.%.*.*._ %.@.*._ =.( W ;.lXe.p.r.r.a.hXu x x z m c l x c t | >.( &.&.%.*.%.&.&.&.) %.@.%.) *.<.G t r I ,.=.( =.) ( *.( &.) ) ) &.%.) &.#.J x z G :.>.` ) &.%.&.&.%.%.%.&.W &.@.%.*.( ) @.<.D t t K <.#.^ %.%.%.%.%.%.%.%.%.%.%.%.%.%.%.%.@.@.%.&.) &.*.$.<.G r M l z m c x x x x x x x x x x x x x x x x x x x x x x x x x x x x x x x x x x x x x x x x x x c x x x x x x x x x x x x x x x x x x x x c c G c c x c x x m m m m c c c c z v c c c c x c m z l t $.>.) ) *.%.%.%.%.%.%.%.%.%.%.%.%.%.%.%.%.%.%.%.%.%.%.%.&.%.*.*.( %.*.^ W ! %.&.( ( %.%.@.%.o.( &.( ( &.&.&.( _ #.@.#.>.#.>.( *.( &.! ) ! %.W -.^ *.-.&.) &.^ ( -.%.( ^ $.L m n x c l t | *.*.%.*.*.%.%.%.%.%.%.%.%.%.%.%.%.%.%.%.%.%.%.%.%.%.%.%.%.%.%.%.%.%.%.%.%.%.%.%.%.%.%.%.%.%.%.%.%.%.%.%.%.%.%.%.%.%.%.%.%.%.%.%.%.%.%.%.%.%.%.%.%.%.%.%.%.%.%.%.%.%.%.%.%.%.%.%.%.%.%.%.%.%.%.%.%.%.%.%.%.%.&.&.) &.%.@.%.` _ >.I t z M z m c M M x z c c c c z c x c x x m m c c c c c c c c c c m c x x c m z z c m c z c c x x x c c c c c N x x z l n b M q  .<.*.) ` ) >.K z z n x N c c c c l N M r K ,.#.%.%.%.&.&.&.&.%.%.%.&.&.) &.:.H r z c x m c z c c c x x x c c x x ",
"x x c x x x x x x x c x x x x x x x x x x x x x x x x x c c c c c c m c c t G ,._ >.I v M m z x x x x x x x x x x x x x x x x x c c c c c c x x N m x c x x m N t I :.=.=.&.%.( %.%.*.*.%.%.%.%.) ) =.) _ ,.| w c z c m l L -.=.%.#.*.#.@.@.&.&.W ( =.#.v l n x c c c c c c m m M G $.>.( *.%.%.-.( %.( ^ ) ) :.K z z G >.=.-.L t m x c z t I >.) ) %.@.%.%.%.%.%.%.@.%.) ) =.-.G z c c J c v | *.&.%.%.%.&.&.*.W | GXGXHXGXGXGXGXGXGXGXGXGXGXGXHXGXGXDXvXvXvXHXHXGXGXGXGXGXGXGXGXGXGXGXGXGXGXGXHXGXGXGXGXGXGXHXvXvXvXvXvXvXvXvXvXvXvXvXvXvXvXvXhXcXGXGXGXGXGXGXGXGXGXHXcXhXcXvXvXvXcX<.U ! O.lX9.lX5.~ =.>.*.%.%.%.*.*.%.&.*.*.%.@.*._ =.) W ;.lXe.p.r.9.a.hXu J N n N c z n m t | :.( %.*.%.%.%.&.&.&.) ( @.@.*.@.<.G M t I >._ ( ( ( ^ *.*.*.%.( %.%.%.%.&.#.K c z G >.=.) ) %.%.&.&.%.@.%.%.%.*.*.*.@.^ ( ^ <.D v v K ,.@.( %.%.%.%.%.%.%.%.%.%.%.%.%.%.%.%.%.&.&.) ) ) *.#.<.G t m n n c c c x x x x x c x x x x x x x x x x x x x x x x x x x x x x x x x x x x x x x x x x x x x x x x x c x x x x x x x x x x x x x x x x z c z x n x n n n m c c c c c v c G G c c x x m z l r $.=.^ ^ &.%.( %.%.%.%.( %.%.%.%.%.%.%.%.%.%.%.%.%.%.%.%.*.( &.-.%.%.-.%.( ( *.*.*.( @.*.*.*.%.( ^ ( ( ( ( ^ ^ *.-.%.%.&.) *.-.@.@.W ^ @.^ #.#.#.#.*.&.( ) &.( &.%.-.-.*.,.L t l x N l t | *.&.%.*.*.( %.%.%.%.%.%.%.%.%.%.%.%.%.%.%.%.%.%.%.%.%.%.%.%.%.%.%.%.%.%.%.%.%.%.%.%.%.%.%.%.%.%.%.%.%.%.%.%.%.%.%.%.%.%.%.%.%.%.%.%.%.%.%.%.%.%.%.%.%.%.%.%.%.%.%.%.%.%.%.%.%.%.%.%.%.%.%.%.%.%.%.%.%.%.%.%.&.) ) &.&.%.%.` _ ,.I t n m n N x M M n x x c c c v c c c c c m H c c c c c c c c c c c c x x x c z x c c c c c z c x x c c c x c x z x c c m m c w | >._ _ ) ) >.I c c m c m x c v m x N m t I ,.#.%.%.%.&.&.&.&.&.%.%.%.&.) &.:.K z c c c m z z c c c x x x c c x x "
};
